; G-Code generated by Simplify3D(R) Version 4.0.1
; Mar 11, 2018 at 7:25:27 PM
; Settings Summary
;   processName,Process1
;   applyToModels,bed_clip2
;   profileName,PrusaMK2S (modified)
;   profileVersion,2018-03-06 01:09:59
;   baseProfile,Default
;   printMaterial,PETG Sakata3D Rojo
;   printQuality,Fast 0.2
;   printExtruders,
;   extruderName,Extruder 1
;   extruderToolheadNumber,0
;   extruderDiameter,0.4
;   extruderAutoWidth,0
;   extruderWidth,0.4
;   extrusionMultiplier,0.9
;   extruderUseRetract,1
;   extruderRetractionDistance,2.3
;   extruderExtraRestartDistance,0
;   extruderRetractionZLift,0.3
;   extruderRetractionSpeed,3600
;   extruderUseCoasting,1
;   extruderCoastingDistance,0.3
;   extruderUseWipe,1
;   extruderWipeDistance,2
;   primaryExtruder,0
;   layerHeight,0.2
;   topSolidLayers,3
;   bottomSolidLayers,2
;   perimeterOutlines,1
;   printPerimetersInsideOut,1
;   startPointOption,2
;   startPointOriginX,0
;   startPointOriginY,0
;   sequentialIslands,0
;   spiralVaseMode,0
;   firstLayerHeightPercentage,75
;   firstLayerWidthPercentage,95
;   firstLayerUnderspeed,0.15
;   useRaft,0
;   raftExtruder,0
;   raftTopLayers,3
;   raftBaseLayers,2
;   raftOffset,3
;   raftSeparationDistance,0.14
;   raftTopInfill,100
;   aboveRaftSpeedMultiplier,0.3
;   useSkirt,1
;   skirtExtruder,0
;   skirtLayers,1
;   skirtOutlines,1
;   skirtOffset,5
;   usePrimePillar,0
;   primePillarExtruder,999
;   primePillarWidth,12
;   primePillarLocation,7
;   primePillarSpeedMultiplier,1
;   useOozeShield,0
;   oozeShieldExtruder,999
;   oozeShieldOffset,2
;   oozeShieldOutlines,1
;   oozeShieldSidewallShape,1
;   oozeShieldSidewallAngle,30
;   oozeShieldSpeedMultiplier,1
;   infillExtruder,0
;   internalInfillPattern,Grid
;   externalInfillPattern,Rectilinear
;   infillPercentage,100
;   outlineOverlapPercentage,25
;   infillExtrusionWidthPercentage,100
;   minInfillLength,2
;   infillLayerInterval,1
;   internalInfillAngles,45,-45
;   overlapInternalInfillAngles,1
;   externalInfillAngles,45,-45
;   generateSupport,0
;   supportExtruder,0
;   supportInfillPercentage,20
;   supportExtraInflation,0
;   supportBaseLayers,0
;   denseSupportExtruder,0
;   denseSupportLayers,0
;   denseSupportInfillPercentage,70
;   supportLayerInterval,1
;   supportHorizontalPartOffset,0.3
;   supportUpperSeparationLayers,1
;   supportLowerSeparationLayers,1
;   supportType,1
;   supportGridSpacing,4
;   maxOverhangAngle,45
;   supportAngles,0
;   temperatureName,Extruder 1
;   temperatureNumber,0
;   temperatureSetpointCount,1
;   temperatureSetpointLayers,1
;   temperatureSetpointTemperatures,235
;   temperatureStabilizeAtStartup,1
;   temperatureHeatedBed,0
;   temperatureRelayBetweenLayers,0
;   temperatureRelayBetweenLoops,0
;   fanLayers,1
;   fanSpeeds,0
;   blipFanToFullPower,0
;   adjustSpeedForCooling,1
;   minSpeedLayerTime,15
;   minCoolingSpeedSlowdown,20
;   increaseFanForCooling,0
;   minFanLayerTime,45
;   maxCoolingFanSpeed,100
;   increaseFanForBridging,1
;   bridgingFanSpeed,100
;   use5D,1
;   relativeEdistances,1
;   allowEaxisZeroing,1
;   independentExtruderAxes,0
;   includeM10123,0
;   stickySupport,1
;   applyToolheadOffsets,0
;   gcodeXoffset,0
;   gcodeYoffset,0
;   gcodeZoffset,0
;   overrideMachineDefinition,1
;   machineTypeOverride,0
;   strokeXoverride,200
;   strokeYoverride,180
;   strokeZoverride,150
;   originOffsetXoverride,0
;   originOffsetYoverride,0
;   originOffsetZoverride,0
;   homeXdirOverride,-1
;   homeYdirOverride,-1
;   homeZdirOverride,-1
;   flipXoverride,1
;   flipYoverride,-1
;   flipZoverride,1
;   toolheadOffsets,0,0|0,0|0,0|0,0|0,0|0,0
;   overrideFirmwareConfiguration,0
;   firmwareTypeOverride,RepRap (Marlin/Repetier/Sprinter)
;   GPXconfigOverride,r2
;   baudRateOverride,115200
;   overridePrinterModels,0
;   printerModelsOverride
;   startingGcode,G29 S1		; Load Mesh Bed Levelling,; Clean Nozzle,G90			; Absolute Positioning,G1 Z5 F5000 		; Lift Nozzle,;G1 X65 Y-5,;G1 Z0.45  F200 		; Move Z to Cleaning Height,;G1 X105 E15 F200,G1 X0 Y0.0 Z0.2 F1000.0 ; go outside print area,G92 E0.0,G1 X60.0 E9.0  F1000.0 ; intro line,G1 X100.0 E12.5  F1000.0 ; intro line,;G1 Z5 F300		; Lift Nozzle,;M98 P/macros/Limpieza
;   layerChangeGcode,
;   retractionGcode,
;   toolChangeGcode,
;   endingGcode,G1 X0,M106 S0 ; turn off fan,G10 P0 R-273.15 S-273.15 ,M140 S0 ; turn off bed,G1 Y300,G91,G1 Z+5,G90,M98 P/macros/Final
;   exportFileFormat,gcode
;   celebration,0
;   celebrationSong,Random Song
;   postProcessing,
;   defaultSpeed,3000
;   outlineUnderspeed,0.4
;   solidInfillUnderspeed,1
;   supportUnderspeed,0.5
;   rapidXYspeed,6000
;   rapidZspeed,1002
;   minBridgingArea,5
;   bridgingExtraInflation,0
;   bridgingExtrusionMultiplier,0.8
;   bridgingSpeedMultiplier,2
;   useFixedBridgingAngle,0
;   fixedBridgingAngle,0
;   applyBridgingToPerimeters,0
;   filamentDiameters,1.75|1.75|1.75|1.75|1.75|1.75
;   filamentPricesPerKg,23|46|46|46|46|46
;   filamentDensities,1.25|1.25|1.25|1.25|1.25|1.25
;   useMinPrintHeight,0
;   minPrintHeight,0
;   useMaxPrintHeight,0
;   maxPrintHeight,7
;   useDiaphragm,0
;   diaphragmLayerInterval,20
;   robustSlicing,1
;   mergeAllIntoSolid,0
;   onlyRetractWhenCrossingOutline,0
;   retractBetweenLayers,1
;   useRetractionMinTravel,1
;   retractionMinTravel,3
;   retractWhileWiping,1
;   onlyWipeOutlines,1
;   avoidCrossingOutline,1
;   maxMovementDetourFactor,5
;   toolChangeRetractionDistance,12
;   toolChangeExtraRestartDistance,-0.5
;   toolChangeRetractionSpeed,600
;   externalThinWallType,0
;   internalThinWallType,2
;   thinWallAllowedOverlapPercentage,10
;   singleExtrusionMinLength,1
;   singleExtrusionMinPrintingWidthPercentage,50
;   singleExtrusionMaxPrintingWidthPercentage,200
;   singleExtrusionEndpointExtension,0.2
;   horizontalSizeCompensation,0
G90
M83
M106 S0
M104 S235 T0
M109 S235 T0
G29 S1		; Load Mesh Bed Levelling
; Clean Nozzle
G90			; Absolute Positioning
G1 Z5 F5000 		; Lift Nozzle
;G1 X65 Y-5
;G1 Z0.45  F200 		; Move Z to Cleaning Height
;G1 X105 E15 F200
G1 X0 Y0.0 Z0.2 F1000.0 ; go outside print area
G92 E0.0
G1 X60.0 E9.0  F1000.0 ; intro line
G1 X100.0 E12.5  F1000.0 ; intro line
;G1 Z5 F300		; Lift Nozzle
;M98 P/macros/Limpieza
G1 E-2.3000 F3600
G1 Z0.450 F1002
; process Process1
; layer 1, Z = 0.150
T0
; tool H0.200 W0.380
; skirt
G1 X79.736 Y76.019 F6000
G1 Z0.150 F1002
G1 E2.3000 F1080
G1 X79.753 Y76.004 E0.0006 F450
G1 X80.676 Y75.321 E0.0327
G1 X80.696 Y75.309 E0.0006
G1 X81.922 Y74.773 E0.0381
G1 X81.938 Y74.767 E0.0005
G1 X82.773 Y74.559 E0.0245
G1 X82.790 Y74.557 E0.0005
G1 X83.672 Y74.490 E0.0251
G1 X83.683 Y74.489 E0.0003
G1 X84.255 Y74.510 E0.0163
G1 X84.266 Y74.511 E0.0003
G1 X84.859 Y74.600 E0.0170
G1 X84.865 Y74.601 E0.0002
G1 X85.149 Y74.660 E0.0083
G1 X85.155 Y74.661 E0.0002
G1 X119.055 Y83.765 E0.9982
G1 X119.076 Y83.773 E0.0006
G1 X120.089 Y84.308 E0.0326
G1 X120.107 Y84.320 E0.0006
G1 X121.121 Y85.191 E0.0380
G1 X121.133 Y85.203 E0.0005
G1 X121.682 Y85.865 E0.0245
G1 X121.692 Y85.878 E0.0005
G1 X122.207 Y86.768 E0.0292
G1 X122.214 Y86.784 E0.0005
G1 X122.515 Y87.590 E0.0245
G1 X122.519 Y87.606 E0.0005
G1 X122.742 Y88.779 E0.0340
G1 X122.744 Y88.796 E0.0005
G1 X122.761 Y89.656 E0.0245
G1 X122.760 Y89.673 E0.0005
G1 X122.648 Y90.422 E0.0215
G1 X122.647 Y90.428 E0.0002
G1 X122.581 Y90.738 E0.0090
G1 X122.579 Y90.744 E0.0002
G1 X121.936 Y93.040 E0.0678
G1 X121.928 Y93.060 E0.0006
G1 X121.401 Y94.046 E0.0318
G1 X121.389 Y94.064 E0.0006
G1 X120.620 Y94.959 E0.0335
G1 X121.203 Y95.688 E0.0265
G1 X121.215 Y95.707 E0.0006
G1 X121.827 Y96.974 E0.0400
G1 X121.833 Y96.992 E0.0006
G1 X122.085 Y97.957 E0.0284
G1 X122.088 Y97.976 E0.0006
G1 X122.203 Y99.884 E0.0543
G1 X122.196 Y99.926 E0.0012
G1 X121.420 Y101.971 E0.0622
G1 X121.397 Y102.007 E0.0012
G1 X119.794 Y103.610 E0.0645
G1 X119.761 Y103.632 E0.0011
G1 X117.887 Y104.409 E0.0577
G1 X117.848 Y104.416 E0.0011
G1 X81.544 Y104.416 E1.0324
G1 X81.506 Y104.409 E0.0011
G1 X79.631 Y103.632 E0.0577
G1 X79.599 Y103.610 E0.0011
G1 X78.038 Y102.049 E0.0628
G1 X78.015 Y102.015 E0.0011
G1 X77.238 Y100.098 E0.0588
G1 X77.231 Y100.058 E0.0011
G1 X77.272 Y97.399 E0.0756
G1 X77.273 Y97.383 E0.0005
G1 X77.416 Y96.577 E0.0233
G1 X77.420 Y96.562 E0.0005
G1 X77.752 Y95.611 E0.0286
G1 X77.759 Y95.595 E0.0005
G1 X78.174 Y94.842 E0.0245
G1 X78.183 Y94.828 E0.0005
G1 X79.017 Y93.781 E0.0381
G1 X79.032 Y93.765 E0.0006
G1 X79.930 Y93.047 E0.0327
G1 X79.949 Y93.035 E0.0006
G1 X81.285 Y92.391 E0.0422
G1 X81.306 Y92.383 E0.0006
G1 X82.425 Y92.126 E0.0327
G1 X82.448 Y92.124 E0.0006
G1 X93.727 Y92.109 E0.3208
G1 X93.713 Y91.961 E0.0042
G1 X93.712 Y91.952 E0.0003
G1 X93.712 Y91.469 E0.0137
G1 X93.712 Y91.460 E0.0003
G1 X93.771 Y90.836 E0.0178
G1 X81.252 Y87.468 E0.3687
G1 X81.236 Y87.463 E0.0005
G1 X80.459 Y87.106 E0.0243
G1 X80.445 Y87.098 E0.0005
G1 X79.596 Y86.522 E0.0292
G1 X79.583 Y86.511 E0.0005
G1 X78.963 Y85.915 E0.0245
G1 X78.952 Y85.902 E0.0005
G1 X78.156 Y84.826 E0.0381
G1 X78.144 Y84.806 E0.0006
G1 X77.684 Y83.754 E0.0327
G1 X77.677 Y83.732 E0.0006
G1 X77.427 Y82.417 E0.0381
G1 X77.425 Y82.400 E0.0005
G1 X77.408 Y81.540 E0.0245
G1 X77.409 Y81.523 E0.0005
G1 X77.521 Y80.775 E0.0215
G1 X77.522 Y80.769 E0.0002
G1 X77.589 Y80.458 E0.0090
G1 X77.590 Y80.452 E0.0002
G1 X78.233 Y78.156 E0.0678
G1 X78.241 Y78.136 E0.0006
G1 X78.768 Y77.151 E0.0318
G1 X78.780 Y77.133 E0.0006
G1 X79.541 Y76.247 E0.0332
G1 X79.736 Y76.019 F450
G1 E-2.3000 F3600
G1 Z0.450 F1002
; outer perimeter
G1 X83.419 Y79.993 F6000
G1 X83.418 Y79.994 F6000
G1 X83.421 Y79.997 F6000
G1 Z0.150 F1002
G1 E2.3000 F3600
G1 X83.529 Y79.934 E0.0036 F180
G1 X83.649 Y79.897 E0.0036
G1 X83.773 Y79.887 E0.0036
G1 X83.908 Y79.907 E0.0039
G1 X116.939 Y88.758 E0.9725
G1 X117.065 Y88.807 E0.0038
G1 X117.168 Y88.878 E0.0036
G1 X117.253 Y88.969 E0.0036
G1 X117.316 Y89.078 E0.0036
G1 X117.353 Y89.197 E0.0036
G1 X117.363 Y89.322 E0.0036
G1 X117.342 Y89.456 E0.0039
G1 X116.960 Y90.885 E0.0421
G1 X116.910 Y91.011 E0.0038
G1 X116.840 Y91.115 E0.0036
G1 X116.748 Y91.200 E0.0036
G1 X116.640 Y91.262 E0.0036
G1 X116.520 Y91.299 E0.0036
G1 X116.396 Y91.309 E0.0036
G1 X116.261 Y91.289 E0.0039
G1 X105.986 Y88.536 E0.3025
G1 X105.583 Y88.465 E0.0116
G1 X105.164 Y88.467 E0.0119
G1 X104.752 Y88.542 E0.0119
G1 X104.359 Y88.689 E0.0119
G1 X104.006 Y88.899 E0.0117
G1 X100.746 Y91.253 E0.1144
G1 X100.645 Y91.349 E0.0040
G1 X100.566 Y91.480 E0.0043
G1 X100.525 Y91.627 E0.0043
G1 X100.525 Y91.779 E0.0043
G1 X100.566 Y91.926 E0.0043
G1 X100.644 Y92.057 E0.0043
G1 X100.745 Y92.154 E0.0040
G1 X102.386 Y93.339 E0.0576
G1 X102.673 Y93.591 E0.0108
G1 X102.904 Y93.886 E0.0107
G1 X103.075 Y94.220 E0.0107
G1 X103.180 Y94.579 E0.0107
G1 X103.215 Y94.952 E0.0107
G1 X103.180 Y95.325 E0.0106
G1 X103.076 Y95.684 E0.0107
G1 X102.906 Y96.018 E0.0107
G1 X102.676 Y96.314 E0.0107
G1 X102.388 Y96.567 E0.0109
G1 X101.075 Y97.515 E0.0461
G1 X100.977 Y97.613 E0.0039
G1 X100.906 Y97.750 E0.0044
G1 X100.882 Y97.902 E0.0044
G1 X100.905 Y98.054 E0.0044
G1 X100.975 Y98.192 E0.0044
G1 X101.084 Y98.301 E0.0044
G1 X101.221 Y98.372 E0.0044
G1 X101.359 Y98.394 E0.0040
G1 X116.186 Y98.394 E0.4216
G1 X116.320 Y98.409 E0.0038
G1 X116.438 Y98.450 E0.0036
G1 X116.544 Y98.517 E0.0036
G1 X116.633 Y98.605 E0.0036
G1 X116.699 Y98.711 E0.0036
G1 X116.739 Y98.824 E0.0034
G1 X116.751 Y99.026 E0.0058
G1 X82.638 Y99.026 E0.9701
G1 X82.636 Y99.025 E0.0000
G1 X82.636 Y98.064 E0.0273
G1 X82.651 Y97.930 E0.0038
G1 X82.693 Y97.812 E0.0036
G1 X82.759 Y97.706 E0.0036
G1 X82.847 Y97.617 E0.0036
G1 X82.953 Y97.551 E0.0036
G1 X83.071 Y97.509 E0.0036
G1 X83.206 Y97.494 E0.0039
G1 X97.922 Y97.494 E0.4185
G1 X98.281 Y97.466 E0.0102
G1 X98.641 Y97.380 E0.0105
G1 X98.983 Y97.240 E0.0105
G1 X99.292 Y97.051 E0.0103
G1 X101.573 Y95.404 E0.0800
G1 X101.673 Y95.308 E0.0040
G1 X101.752 Y95.178 E0.0043
G1 X101.793 Y95.031 E0.0043
G1 X101.793 Y94.878 E0.0043
G1 X101.753 Y94.731 E0.0043
G1 X101.674 Y94.600 E0.0043
G1 X101.573 Y94.504 E0.0040
G1 X99.932 Y93.318 E0.0576
G1 X99.645 Y93.067 E0.0109
G1 X99.415 Y92.771 E0.0107
G1 X99.244 Y92.438 E0.0107
G1 X99.139 Y92.078 E0.0107
G1 X99.103 Y91.706 E0.0107
G1 X99.138 Y91.333 E0.0107
G1 X99.242 Y90.973 E0.0106
G1 X99.413 Y90.639 E0.0107
G1 X99.642 Y90.344 E0.0106
G1 X99.930 Y90.091 E0.0109
G1 X102.314 Y88.369 E0.0836
G1 X102.404 Y88.283 E0.0035
G1 X102.473 Y88.163 E0.0039
G1 X102.506 Y88.029 E0.0039
G1 X102.500 Y87.891 E0.0039
G1 X102.457 Y87.760 E0.0039
G1 X102.378 Y87.646 E0.0039
G1 X102.271 Y87.559 E0.0039
G1 X102.157 Y87.510 E0.0035
G1 X83.230 Y82.438 E0.5572
G1 X83.104 Y82.389 E0.0038
G1 X83.001 Y82.318 E0.0036
G1 X82.916 Y82.227 E0.0036
G1 X82.853 Y82.119 E0.0036
G1 X82.816 Y81.999 E0.0036
G1 X82.807 Y81.874 E0.0036
G1 X82.827 Y81.740 E0.0039
G1 X83.209 Y80.311 E0.0421
G1 X83.241 Y80.232 E0.0024
G1 X83.259 Y80.185 F180
G1 X83.329 Y80.082 F180
G1 X83.421 Y79.997 F180
G1 X83.529 Y79.934 F3000
G1 X83.649 Y79.897 F3000
G1 X83.773 Y79.887 F3000
G1 X83.908 Y79.907 F3000
G1 X85.346 Y80.293 F3000
; solid layer
G1 X83.126 Y81.724 F6000
G1 X83.660 Y82.258 E0.0215 F450
G1 X84.394 Y82.455 E0.0216
G1 X83.239 Y81.300 E0.0464
G1 X83.353 Y80.877 E0.0125
G1 X85.128 Y82.652 E0.0714
G1 X85.862 Y82.848 E0.0216
G1 X83.467 Y80.453 E0.0963
G1 X83.481 Y80.400 E0.0015
G1 X83.512 Y80.319 E0.0025
G1 X83.547 Y80.269 E0.0017
G1 X83.591 Y80.227 E0.0017
G1 X83.644 Y80.197 E0.0017
G1 X83.702 Y80.179 E0.0017
G1 X83.728 Y80.177 E0.0007
G1 X86.596 Y83.045 E0.1154
G1 X87.330 Y83.242 E0.0216
G1 X84.431 Y80.343 E0.1166
G1 X85.166 Y80.540 E0.0216
G1 X88.065 Y83.439 E0.1166
G1 X88.799 Y83.635 E0.0216
G1 X85.900 Y80.736 E0.1166
G1 X86.634 Y80.933 E0.0216
G1 X89.533 Y83.832 E0.1166
G1 X90.267 Y84.029 E0.0216
G1 X87.368 Y81.130 E0.1166
G1 X88.102 Y81.326 E0.0216
G1 X91.001 Y84.225 E0.1166
G1 X91.735 Y84.422 E0.0216
G1 X88.836 Y81.523 E0.1166
G1 X89.570 Y81.720 E0.0216
G1 X92.469 Y84.619 E0.1166
G1 X93.203 Y84.815 E0.0216
G1 X90.304 Y81.916 E0.1166
G1 X91.038 Y82.113 E0.0216
G1 X93.937 Y85.012 E0.1166
G1 X94.672 Y85.209 E0.0216
G1 X91.772 Y82.310 E0.1166
G1 X92.507 Y82.507 E0.0216
G1 X95.406 Y85.406 E0.1166
G1 X96.140 Y85.602 E0.0216
G1 X93.241 Y82.703 E0.1166
G1 X93.975 Y82.900 E0.0216
G1 X96.874 Y85.799 E0.1166
G1 X97.608 Y85.996 E0.0216
G1 X94.709 Y83.097 E0.1166
G1 X95.443 Y83.293 E0.0216
G1 X98.342 Y86.192 E0.1166
G1 X99.076 Y86.389 E0.0216
G1 X96.177 Y83.490 E0.1166
G1 X96.911 Y83.687 E0.0216
G1 X99.810 Y86.586 E0.1166
G1 X100.544 Y86.783 E0.0216
G1 X97.645 Y83.883 E0.1166
G1 X98.379 Y84.080 E0.0216
G1 X101.278 Y86.979 E0.1166
G1 X102.013 Y87.176 E0.0216
G1 X99.113 Y84.277 E0.1166
G1 X99.848 Y84.474 E0.0216
G1 X103.965 Y88.591 E0.1656
G1 X104.235 Y88.431 E0.0089
G1 X104.313 Y88.402 E0.0024
G1 X100.582 Y84.670 E0.1501
G1 X101.316 Y84.867 E0.0216
G1 X104.709 Y88.260 E0.1365
G1 X105.138 Y88.182 E0.0124
G1 X105.168 Y88.182 E0.0009
G1 X102.050 Y85.064 E0.1254
G1 X102.784 Y85.260 E0.0216
G1 X105.724 Y88.201 E0.1182
G1 X106.047 Y88.257 E0.0093
G1 X106.417 Y88.356 E0.0109
G1 X103.518 Y85.457 E0.1166
G1 X104.252 Y85.654 E0.0216
G1 X107.151 Y88.553 E0.1166
G1 X107.885 Y88.749 E0.0216
G1 X104.986 Y85.850 E0.1166
G1 X105.720 Y86.047 E0.0216
G1 X108.619 Y88.946 E0.1166
G1 X109.354 Y89.143 E0.0216
G1 X106.454 Y86.244 E0.1166
G1 X107.189 Y86.441 E0.0216
G1 X110.088 Y89.340 E0.1166
G1 X110.822 Y89.536 E0.0216
G1 X107.923 Y86.637 E0.1166
G1 X108.657 Y86.834 E0.0216
G1 X111.556 Y89.733 E0.1166
G1 X112.290 Y89.930 E0.0216
G1 X109.391 Y87.031 E0.1166
G1 X110.125 Y87.227 E0.0216
G1 X113.024 Y90.126 E0.1166
G1 X113.758 Y90.323 E0.0216
G1 X110.859 Y87.424 E0.1166
G1 X111.593 Y87.621 E0.0216
G1 X114.492 Y90.520 E0.1166
G1 X115.226 Y90.716 E0.0216
G1 X112.327 Y87.817 E0.1166
G1 X113.061 Y88.014 E0.0216
G1 X115.960 Y90.913 E0.1166
G1 X116.320 Y91.009 E0.0106
G1 X116.406 Y91.022 E0.0025
G1 X116.467 Y91.018 E0.0017
G1 X116.525 Y91.000 E0.0017
G1 X116.563 Y90.978 E0.0012
G1 X113.795 Y88.211 E0.1113
G1 X114.530 Y88.408 E0.0216
G1 X116.737 Y90.615 E0.0888
G1 X116.851 Y90.191 E0.0125
G1 X115.264 Y88.604 E0.0638
