; G-Code generated by Simplify3D(R) Version 4.0.1
; Mar 11, 2018 at 5:42:35 PM
; Settings Summary
;   processName,Process1
;   applyToModels,bed_clip2
;   profileName,PrusaMK2S
;   profileVersion,2018-03-06 01:09:59
;   baseProfile,Default
;   printMaterial,PETG Sakata3D Rojo
;   printQuality,Fast 0.2
;   printExtruders,
;   extruderName,Extruder 1
;   extruderToolheadNumber,0
;   extruderDiameter,0.4
;   extruderAutoWidth,0
;   extruderWidth,0.4
;   extrusionMultiplier,0.9
;   extruderUseRetract,1
;   extruderRetractionDistance,2.3
;   extruderExtraRestartDistance,0
;   extruderRetractionZLift,0.3
;   extruderRetractionSpeed,3600
;   extruderUseCoasting,1
;   extruderCoastingDistance,0.3
;   extruderUseWipe,1
;   extruderWipeDistance,2
;   primaryExtruder,0
;   layerHeight,0.2
;   topSolidLayers,3
;   bottomSolidLayers,2
;   perimeterOutlines,2
;   printPerimetersInsideOut,1
;   startPointOption,2
;   startPointOriginX,0
;   startPointOriginY,0
;   sequentialIslands,0
;   spiralVaseMode,0
;   firstLayerHeightPercentage,75
;   firstLayerWidthPercentage,95
;   firstLayerUnderspeed,0.15
;   useRaft,0
;   raftExtruder,0
;   raftTopLayers,3
;   raftBaseLayers,2
;   raftOffset,3
;   raftSeparationDistance,0.14
;   raftTopInfill,100
;   aboveRaftSpeedMultiplier,0.3
;   useSkirt,1
;   skirtExtruder,0
;   skirtLayers,1
;   skirtOutlines,1
;   skirtOffset,5
;   usePrimePillar,0
;   primePillarExtruder,999
;   primePillarWidth,12
;   primePillarLocation,7
;   primePillarSpeedMultiplier,1
;   useOozeShield,0
;   oozeShieldExtruder,999
;   oozeShieldOffset,2
;   oozeShieldOutlines,1
;   oozeShieldSidewallShape,1
;   oozeShieldSidewallAngle,30
;   oozeShieldSpeedMultiplier,1
;   infillExtruder,0
;   internalInfillPattern,Grid
;   externalInfillPattern,Rectilinear
;   infillPercentage,100
;   outlineOverlapPercentage,25
;   infillExtrusionWidthPercentage,100
;   minInfillLength,2
;   infillLayerInterval,1
;   internalInfillAngles,45,-45
;   overlapInternalInfillAngles,1
;   externalInfillAngles,45,-45
;   generateSupport,0
;   supportExtruder,0
;   supportInfillPercentage,20
;   supportExtraInflation,0
;   supportBaseLayers,0
;   denseSupportExtruder,0
;   denseSupportLayers,0
;   denseSupportInfillPercentage,70
;   supportLayerInterval,1
;   supportHorizontalPartOffset,0.3
;   supportUpperSeparationLayers,1
;   supportLowerSeparationLayers,1
;   supportType,1
;   supportGridSpacing,4
;   maxOverhangAngle,45
;   supportAngles,0
;   temperatureName,Extruder 1
;   temperatureNumber,0
;   temperatureSetpointCount,1
;   temperatureSetpointLayers,1
;   temperatureSetpointTemperatures,235
;   temperatureStabilizeAtStartup,1
;   temperatureHeatedBed,0
;   temperatureRelayBetweenLayers,0
;   temperatureRelayBetweenLoops,0
;   fanLayers,1
;   fanSpeeds,0
;   blipFanToFullPower,0
;   adjustSpeedForCooling,1
;   minSpeedLayerTime,15
;   minCoolingSpeedSlowdown,20
;   increaseFanForCooling,0
;   minFanLayerTime,45
;   maxCoolingFanSpeed,100
;   increaseFanForBridging,1
;   bridgingFanSpeed,100
;   use5D,1
;   relativeEdistances,1
;   allowEaxisZeroing,1
;   independentExtruderAxes,0
;   includeM10123,0
;   stickySupport,1
;   applyToolheadOffsets,0
;   gcodeXoffset,0
;   gcodeYoffset,0
;   gcodeZoffset,0
;   overrideMachineDefinition,1
;   machineTypeOverride,0
;   strokeXoverride,200
;   strokeYoverride,180
;   strokeZoverride,150
;   originOffsetXoverride,0
;   originOffsetYoverride,0
;   originOffsetZoverride,0
;   homeXdirOverride,-1
;   homeYdirOverride,-1
;   homeZdirOverride,-1
;   flipXoverride,1
;   flipYoverride,-1
;   flipZoverride,1
;   toolheadOffsets,0,0|0,0|0,0|0,0|0,0|0,0
;   overrideFirmwareConfiguration,0
;   firmwareTypeOverride,RepRap (Marlin/Repetier/Sprinter)
;   GPXconfigOverride,r2
;   baudRateOverride,115200
;   overridePrinterModels,0
;   printerModelsOverride
;   startingGcode,G29 S1		; Load Mesh Bed Levelling,; Clean Nozzle,G90			; Absolute Positioning,G1 Z5 F5000 		; Lift Nozzle,;G1 X65 Y-5,;G1 Z0.45  F200 		; Move Z to Cleaning Height,;G1 X105 E15 F200,G1 X0 Y0.0 Z0.2 F1000.0 ; go outside print area,G92 E0.0,G1 X60.0 E9.0  F1000.0 ; intro line,G1 X100.0 E12.5  F1000.0 ; intro line,;G1 Z5 F300		; Lift Nozzle,;M98 P/macros/Limpieza
;   layerChangeGcode,
;   retractionGcode,
;   toolChangeGcode,
;   endingGcode,G1 X0,M106 S0 ; turn off fan,G10 P0 R-273.15 S-273.15 ,M140 S0 ; turn off bed,G1 Y300,G91,G1 Z+5,G90,M98 P/macros/Final
;   exportFileFormat,gcode
;   celebration,0
;   celebrationSong,Random Song
;   postProcessing,
;   defaultSpeed,3000
;   outlineUnderspeed,0.4
;   solidInfillUnderspeed,1
;   supportUnderspeed,0.5
;   rapidXYspeed,6000
;   rapidZspeed,1002
;   minBridgingArea,5
;   bridgingExtraInflation,0
;   bridgingExtrusionMultiplier,0.8
;   bridgingSpeedMultiplier,2
;   useFixedBridgingAngle,0
;   fixedBridgingAngle,0
;   applyBridgingToPerimeters,0
;   filamentDiameters,1.75|1.75|1.75|1.75|1.75|1.75
;   filamentPricesPerKg,23|46|46|46|46|46
;   filamentDensities,1.25|1.25|1.25|1.25|1.25|1.25
;   useMinPrintHeight,0
;   minPrintHeight,0
;   useMaxPrintHeight,0
;   maxPrintHeight,7
;   useDiaphragm,0
;   diaphragmLayerInterval,20
;   robustSlicing,1
;   mergeAllIntoSolid,0
;   onlyRetractWhenCrossingOutline,0
;   retractBetweenLayers,1
;   useRetractionMinTravel,1
;   retractionMinTravel,3
;   retractWhileWiping,1
;   onlyWipeOutlines,1
;   avoidCrossingOutline,1
;   maxMovementDetourFactor,5
;   toolChangeRetractionDistance,12
;   toolChangeExtraRestartDistance,-0.5
;   toolChangeRetractionSpeed,600
;   externalThinWallType,0
;   internalThinWallType,2
;   thinWallAllowedOverlapPercentage,10
;   singleExtrusionMinLength,1
;   singleExtrusionMinPrintingWidthPercentage,50
;   singleExtrusionMaxPrintingWidthPercentage,200
;   singleExtrusionEndpointExtension,0.2
;   horizontalSizeCompensation,0
G90
M83
M106 S0
M104 S235 T0
M109 S235 T0
G29 S1		; Load Mesh Bed Levelling
; Clean Nozzle
G90			; Absolute Positioning
G1 Z5 F5000 		; Lift Nozzle
;G1 X65 Y-5
;G1 Z0.45  F200 		; Move Z to Cleaning Height
;G1 X105 E15 F200
G1 X0 Y0.0 Z0.2 F1000.0 ; go outside print area
G92 E0.0
G1 X60.0 E9.0  F1000.0 ; intro line
G1 X100.0 E12.5  F1000.0 ; intro line
;G1 Z5 F300		; Lift Nozzle
;M98 P/macros/Limpieza
G1 E-2.3000 F3600
G1 Z0.450 F1002
; process Process1
; layer 1, Z = 0.150
T0
; tool H0.200 W0.380
; skirt
G1 X70.009 Y15.110 F6000
G1 Z0.150 F1002
G1 E2.3000 F1080
G1 X70.075 Y14.800 E0.0090 F450
G1 X70.077 Y14.794 E0.0002
G1 X70.680 Y12.637 E0.0637
G1 X70.686 Y12.622 E0.0005
G1 X71.035 Y11.870 E0.0236
G1 X71.043 Y11.856 E0.0005
G1 X71.613 Y11.019 E0.0288
G1 X71.623 Y11.006 E0.0005
G1 X72.220 Y10.385 E0.0245
G1 X72.232 Y10.374 E0.0005
G1 X73.308 Y9.578 E0.0381
G1 X73.328 Y9.567 E0.0006
G1 X74.381 Y9.106 E0.0327
G1 X74.402 Y9.100 E0.0006
G1 X75.717 Y8.849 E0.0381
G1 X75.734 Y8.848 E0.0005
G1 X76.594 Y8.831 E0.0245
G1 X76.611 Y8.832 E0.0005
G1 X77.346 Y8.942 E0.0211
G1 X77.351 Y8.943 E0.0002
G1 X77.636 Y9.002 E0.0083
G1 X77.641 Y9.003 E0.0002
G1 X111.402 Y18.069 E0.9941
G1 X111.418 Y18.075 E0.0005
G1 X112.196 Y18.431 E0.0243
G1 X112.211 Y18.440 E0.0005
G1 X113.059 Y19.017 E0.0292
G1 X113.072 Y19.027 E0.0005
G1 X113.693 Y19.623 E0.0245
G1 X113.704 Y19.636 E0.0005
G1 X114.500 Y20.712 E0.0381
G1 X114.511 Y20.732 E0.0006
G1 X114.972 Y21.784 E0.0327
G1 X114.978 Y21.806 E0.0006
G1 X115.229 Y23.121 E0.0381
G1 X115.231 Y23.138 E0.0005
G1 X115.248 Y23.998 E0.0245
G1 X115.247 Y24.015 E0.0005
G1 X115.134 Y24.763 E0.0215
G1 X115.133 Y24.770 E0.0002
G1 X115.067 Y25.080 E0.0090
G1 X115.065 Y25.086 E0.0002
G1 X114.423 Y27.382 E0.0678
G1 X114.415 Y27.402 E0.0006
G1 X113.887 Y28.388 E0.0318
G1 X113.875 Y28.406 E0.0006
G1 X113.107 Y29.301 E0.0335
G1 X113.689 Y30.029 E0.0265
G1 X113.701 Y30.048 E0.0006
G1 X114.313 Y31.315 E0.0400
G1 X114.320 Y31.334 E0.0006
G1 X114.571 Y32.299 E0.0284
G1 X114.575 Y32.318 E0.0006
G1 X114.689 Y34.226 E0.0543
G1 X114.683 Y34.268 E0.0012
G1 X113.906 Y36.313 E0.0622
G1 X113.883 Y36.349 E0.0012
G1 X112.280 Y37.952 E0.0645
G1 X112.247 Y37.974 E0.0011
G1 X110.373 Y38.750 E0.0577
G1 X110.335 Y38.758 E0.0011
G1 X74.031 Y38.758 E1.0324
G1 X73.992 Y38.750 E0.0011
G1 X72.118 Y37.974 E0.0577
G1 X72.086 Y37.952 E0.0011
G1 X70.524 Y36.391 E0.0628
G1 X70.502 Y36.357 E0.0011
G1 X69.725 Y34.440 E0.0588
G1 X69.717 Y34.400 E0.0011
G1 X69.761 Y31.596 E0.0797
G1 X69.763 Y31.575 E0.0006
G1 X70.017 Y30.498 E0.0315
G1 X70.024 Y30.477 E0.0006
G1 X70.595 Y29.290 E0.0375
G1 X70.603 Y29.275 E0.0005
G1 X71.100 Y28.573 E0.0245
G1 X71.111 Y28.560 E0.0005
G1 X71.837 Y27.832 E0.0292
G1 X71.850 Y27.822 E0.0005
G1 X72.551 Y27.323 E0.0245
G1 X72.566 Y27.314 E0.0005
G1 X73.771 Y26.732 E0.0381
G1 X73.792 Y26.725 E0.0006
G1 X74.912 Y26.468 E0.0327
G1 X74.934 Y26.465 E0.0006
G1 X86.213 Y26.451 E0.3208
G1 X86.199 Y26.303 E0.0042
G1 X86.199 Y26.294 E0.0003
G1 X86.198 Y25.811 E0.0137
G1 X86.199 Y25.802 E0.0003
G1 X86.257 Y25.177 E0.0178
G1 X73.738 Y21.810 E0.3687
G1 X73.723 Y21.805 E0.0005
G1 X72.946 Y21.448 E0.0243
G1 X72.931 Y21.440 E0.0005
G1 X72.083 Y20.863 E0.0292
G1 X72.070 Y20.853 E0.0005
G1 X71.449 Y20.256 E0.0245
G1 X71.438 Y20.244 E0.0005
G1 X70.642 Y19.168 E0.0381
G1 X70.631 Y19.148 E0.0006
G1 X70.170 Y18.095 E0.0327
G1 X70.164 Y18.074 E0.0006
G1 X69.913 Y16.759 E0.0381
G1 X69.911 Y16.742 E0.0005
G1 X69.894 Y15.882 E0.0245
G1 X69.896 Y15.865 E0.0005
G1 X69.964 Y15.407 E0.0132
G1 X70.008 Y15.117 F450
G1 X70.009 Y15.110 F450
G1 E-2.3000 F3600
G1 Z0.450 F1002
; inner perimeter
G1 X75.309 Y16.081 F6000
G1 X75.308 Y16.090 F6000
G1 X75.686 Y16.159 F6000
G1 Z0.150 F1002
G1 E2.3000 F3600
G1 X76.057 Y14.772 E0.0408 F315
G1 X76.083 Y14.705 E0.0020
G1 X76.106 Y14.672 E0.0011
G1 X76.135 Y14.645 E0.0011
G1 X76.168 Y14.626 E0.0011
G1 X76.206 Y14.614 E0.0011
G1 X76.246 Y14.611 E0.0011
G1 X76.317 Y14.622 E0.0020
G1 X109.306 Y23.461 E0.9712
G1 X109.373 Y23.487 E0.0020
G1 X109.406 Y23.510 E0.0011
G1 X109.432 Y23.538 E0.0011
G1 X109.452 Y23.572 E0.0011
G1 X109.464 Y23.610 E0.0011
G1 X109.467 Y23.650 E0.0011
G1 X109.456 Y23.720 E0.0020
G1 X109.085 Y25.108 E0.0409
G1 X109.059 Y25.174 E0.0020
G1 X109.036 Y25.207 E0.0011
G1 X109.008 Y25.234 E0.0011
G1 X108.973 Y25.254 E0.0011
G1 X108.935 Y25.266 E0.0011
G1 X108.896 Y25.268 E0.0011
G1 X108.825 Y25.258 E0.0020
G1 X98.554 Y22.506 E0.3024
G1 X98.102 Y22.427 E0.0131
G1 X97.615 Y22.429 E0.0138
G1 X97.136 Y22.516 E0.0138
G1 X96.680 Y22.687 E0.0138
G1 X96.283 Y22.923 E0.0131
G1 X92.989 Y25.302 E0.1156
G1 X92.832 Y25.451 E0.0061
G1 X92.701 Y25.670 E0.0073
G1 X92.632 Y25.916 E0.0073
G1 X92.632 Y26.172 E0.0073
G1 X92.700 Y26.419 E0.0073
G1 X92.831 Y26.638 E0.0073
G1 X92.988 Y26.788 E0.0062
G1 X94.636 Y27.979 E0.0578
G1 X94.882 Y28.195 E0.0093
G1 X95.069 Y28.433 E0.0086
G1 X95.206 Y28.703 E0.0086
G1 X95.291 Y28.993 E0.0086
G1 X95.320 Y29.294 E0.0086
G1 X95.292 Y29.595 E0.0086
G1 X95.208 Y29.886 E0.0086
G1 X95.070 Y30.155 E0.0086
G1 X94.885 Y30.394 E0.0086
G1 X94.637 Y30.611 E0.0094
G1 X93.315 Y31.567 E0.0464
G1 X93.153 Y31.728 E0.0065
G1 X93.027 Y31.971 E0.0078
G1 X92.984 Y32.243 E0.0078
G1 X93.026 Y32.514 E0.0078
G1 X93.265 Y32.988 E0.0151
G1 X75.503 Y32.988 E0.5051
G1 X75.503 Y32.428 E0.0159
G1 X75.511 Y32.357 E0.0020
G1 X75.524 Y32.319 E0.0011
G1 X75.545 Y32.286 E0.0011
G1 X75.572 Y32.258 E0.0011
G1 X75.606 Y32.237 E0.0011
G1 X75.642 Y32.224 E0.0011
G1 X75.714 Y32.216 E0.0021
G1 X90.424 Y32.216 E0.4183
G1 X90.827 Y32.184 E0.0115
G1 X91.244 Y32.085 E0.0122
G1 X91.641 Y31.921 E0.0122
G1 X91.989 Y31.710 E0.0116
G1 X94.302 Y30.039 E0.0812
G1 X94.459 Y29.890 E0.0061
G1 X94.591 Y29.671 E0.0073
G1 X94.659 Y29.425 E0.0073
G1 X94.660 Y29.169 E0.0073
G1 X94.592 Y28.922 E0.0073
G1 X94.460 Y28.703 E0.0073
G1 X94.303 Y28.553 E0.0062
G1 X92.655 Y27.362 E0.0578
G1 X92.409 Y27.146 E0.0093
G1 X92.223 Y26.908 E0.0086
G1 X92.085 Y26.638 E0.0086
G1 X92.000 Y26.348 E0.0086
G1 X91.971 Y26.047 E0.0086
G1 X91.999 Y25.746 E0.0086
G1 X92.084 Y25.455 E0.0086
G1 X92.221 Y25.186 E0.0086
G1 X92.407 Y24.947 E0.0086
G1 X92.654 Y24.730 E0.0094
G1 X95.045 Y23.003 E0.0839
G1 X95.192 Y22.861 E0.0058
G1 X95.315 Y22.648 E0.0070
G1 X95.374 Y22.410 E0.0070
G1 X95.364 Y22.164 E0.0070
G1 X95.287 Y21.931 E0.0070
G1 X95.147 Y21.728 E0.0070
G1 X94.957 Y21.572 E0.0070
G1 X94.768 Y21.491 E0.0059
G1 X75.836 Y16.418 E0.5574
G1 X75.798 Y16.404 E0.0011
G1 X75.769 Y16.392 F315
G1 X75.736 Y16.369 F315
G1 X75.710 Y16.342 F315
G1 X75.690 Y16.307 F315
G1 X75.678 Y16.268 F315
G1 X75.675 Y16.230 F315
G1 X75.686 Y16.159 F315
; outer perimeter
G1 X75.313 Y16.082 F6000
G1 X75.696 Y14.653 E0.0421 F180
G1 X75.745 Y14.527 E0.0038
G1 X75.816 Y14.423 E0.0036
G1 X75.907 Y14.338 E0.0036
G1 X76.016 Y14.276 E0.0036
G1 X76.135 Y14.239 E0.0036
G1 X76.260 Y14.229 E0.0036
G1 X76.394 Y14.249 E0.0039
G1 X109.425 Y23.100 E0.9725
G1 X109.551 Y23.149 E0.0038
G1 X109.655 Y23.220 E0.0036
G1 X109.740 Y23.311 E0.0036
G1 X109.803 Y23.419 E0.0036
G1 X109.840 Y23.539 E0.0036
G1 X109.849 Y23.664 E0.0036
G1 X109.829 Y23.798 E0.0039
G1 X109.446 Y25.227 E0.0421
G1 X109.397 Y25.353 E0.0038
G1 X109.326 Y25.456 E0.0036
G1 X109.235 Y25.542 E0.0036
G1 X109.126 Y25.604 E0.0036
G1 X109.007 Y25.641 E0.0036
G1 X108.882 Y25.651 E0.0036
G1 X108.748 Y25.631 E0.0039
G1 X98.472 Y22.877 E0.3025
G1 X98.070 Y22.807 E0.0116
G1 X97.650 Y22.808 E0.0119
G1 X97.238 Y22.884 E0.0119
G1 X96.845 Y23.031 E0.0119
G1 X96.492 Y23.241 E0.0117
G1 X93.232 Y25.595 E0.1144
G1 X93.131 Y25.691 E0.0040
G1 X93.053 Y25.821 E0.0043
G1 X93.012 Y25.968 E0.0043
G1 X93.012 Y26.121 E0.0043
G1 X93.052 Y26.268 E0.0043
G1 X93.130 Y26.399 E0.0043
G1 X93.232 Y26.496 E0.0040
G1 X94.873 Y27.681 E0.0576
G1 X95.160 Y27.933 E0.0109
G1 X95.390 Y28.228 E0.0107
G1 X95.561 Y28.561 E0.0107
G1 X95.666 Y28.921 E0.0107
G1 X95.702 Y29.294 E0.0107
G1 X95.667 Y29.667 E0.0107
G1 X95.562 Y30.026 E0.0107
G1 X95.392 Y30.360 E0.0107
G1 X95.162 Y30.656 E0.0106
G1 X94.874 Y30.909 E0.0109
G1 X93.562 Y31.857 E0.0461
G1 X93.463 Y31.955 E0.0039
G1 X93.393 Y32.092 E0.0044
G1 X93.368 Y32.244 E0.0044
G1 X93.392 Y32.396 E0.0044
G1 X93.462 Y32.534 E0.0044
G1 X93.570 Y32.643 E0.0044
G1 X93.708 Y32.713 E0.0044
G1 X93.845 Y32.735 E0.0040
G1 X108.672 Y32.736 E0.4216
G1 X108.806 Y32.751 E0.0038
G1 X108.925 Y32.792 E0.0036
G1 X109.031 Y32.858 E0.0036
G1 X109.119 Y32.947 E0.0036
G1 X109.186 Y33.053 E0.0036
G1 X109.226 Y33.166 E0.0034
G1 X109.238 Y33.368 E0.0058
G1 X75.124 Y33.368 E0.9701
G1 X75.123 Y33.367 E0.0000
G1 X75.123 Y32.406 E0.0273
G1 X75.138 Y32.272 E0.0038
G1 X75.179 Y32.154 E0.0036
G1 X75.246 Y32.048 E0.0036
G1 X75.334 Y31.959 E0.0036
G1 X75.440 Y31.892 E0.0036
G1 X75.558 Y31.851 E0.0036
G1 X75.693 Y31.836 E0.0039
G1 X90.409 Y31.836 E0.4185
G1 X90.768 Y31.807 E0.0102
G1 X91.127 Y31.722 E0.0105
G1 X91.469 Y31.581 E0.0105
G1 X91.778 Y31.393 E0.0103
G1 X94.059 Y29.746 E0.0800
G1 X94.160 Y29.650 E0.0040
G1 X94.238 Y29.520 E0.0043
G1 X94.279 Y29.373 E0.0043
G1 X94.280 Y29.220 E0.0043
G1 X94.239 Y29.073 E0.0043
G1 X94.161 Y28.942 E0.0043
G1 X94.060 Y28.845 E0.0040
G1 X92.418 Y27.660 E0.0576
G1 X92.131 Y27.408 E0.0109
G1 X91.901 Y27.113 E0.0107
G1 X91.730 Y26.780 E0.0107
G1 X91.625 Y26.420 E0.0107
G1 X91.589 Y26.047 E0.0106
G1 X91.624 Y25.674 E0.0107
G1 X91.729 Y25.315 E0.0107
G1 X91.899 Y24.981 E0.0107
G1 X92.129 Y24.685 E0.0107
G1 X92.417 Y24.432 E0.0109
G1 X94.801 Y22.710 E0.0836
G1 X94.890 Y22.624 E0.0035
G1 X94.959 Y22.505 E0.0039
G1 X94.992 Y22.371 E0.0039
G1 X94.987 Y22.233 E0.0039
G1 X94.943 Y22.102 E0.0039
G1 X94.865 Y21.988 E0.0039
G1 X94.758 Y21.900 E0.0039
G1 X94.643 Y21.851 E0.0035
G1 X75.717 Y16.780 E0.5572
G1 X75.591 Y16.731 E0.0038
G1 X75.487 Y16.660 E0.0036
G1 X75.402 Y16.569 E0.0036
G1 X75.340 Y16.460 E0.0036
G1 X75.314 Y16.378 E0.0024
G1 X75.303 Y16.341 F180
G1 X75.293 Y16.216 F180
G1 X75.313 Y16.082 F180
G1 X75.696 Y14.653 E-1.7753 F3000
G1 X75.745 Y14.527 E-0.1621
G1 X75.816 Y14.423 E-0.1503
G1 X75.907 Y14.338 E-0.1501
G1 X75.952 Y14.312 E-0.0622
G1 X76.016 Y14.276 F3000
G1 X76.025 Y14.273 F3000
G1 Z0.450 F1002
; gap fill
G1 X79.284 Y17.740 F6000
G1 X94.642 Y21.855 F6000
G1 X94.756 Y21.904 F6000
G1 X94.862 Y21.991 F6000
