; G-Code generated by Simplify3D(R) Version 4.0.1
; Mar 9, 2018 at 5:41:33 PM
; Settings Summary
;   processName,Process1
;   applyToModels,bed_clip2
;   profileName,PrusaMK2S (modified)
;   profileVersion,2018-03-06 01:09:59
;   baseProfile,Default
;   printMaterial,PLA-Sakata3D-Gris870
;   printQuality,Fast 0.2
;   printExtruders,
;   extruderName,Extruder 1
;   extruderToolheadNumber,0
;   extruderDiameter,0.4
;   extruderAutoWidth,0
;   extruderWidth,0.4
;   extrusionMultiplier,0.95
;   extruderUseRetract,1
;   extruderRetractionDistance,1.9
;   extruderExtraRestartDistance,0
;   extruderRetractionZLift,0.3
;   extruderRetractionSpeed,3600
;   extruderUseCoasting,1
;   extruderCoastingDistance,0.3
;   extruderUseWipe,1
;   extruderWipeDistance,2
;   primaryExtruder,0
;   layerHeight,0.2
;   topSolidLayers,3
;   bottomSolidLayers,2
;   perimeterOutlines,2
;   printPerimetersInsideOut,1
;   startPointOption,2
;   startPointOriginX,0
;   startPointOriginY,0
;   sequentialIslands,0
;   spiralVaseMode,0
;   firstLayerHeightPercentage,75
;   firstLayerWidthPercentage,95
;   firstLayerUnderspeed,0.15
;   useRaft,0
;   raftExtruder,0
;   raftTopLayers,3
;   raftBaseLayers,2
;   raftOffset,3
;   raftSeparationDistance,0.14
;   raftTopInfill,100
;   aboveRaftSpeedMultiplier,0.3
;   useSkirt,1
;   skirtExtruder,0
;   skirtLayers,1
;   skirtOutlines,1
;   skirtOffset,5
;   usePrimePillar,0
;   primePillarExtruder,999
;   primePillarWidth,12
;   primePillarLocation,7
;   primePillarSpeedMultiplier,1
;   useOozeShield,0
;   oozeShieldExtruder,999
;   oozeShieldOffset,2
;   oozeShieldOutlines,1
;   oozeShieldSidewallShape,1
;   oozeShieldSidewallAngle,30
;   oozeShieldSpeedMultiplier,1
;   infillExtruder,0
;   internalInfillPattern,Grid
;   externalInfillPattern,Rectilinear
;   infillPercentage,100
;   outlineOverlapPercentage,25
;   infillExtrusionWidthPercentage,100
;   minInfillLength,2
;   infillLayerInterval,1
;   internalInfillAngles,45,-45
;   overlapInternalInfillAngles,1
;   externalInfillAngles,45,-45
;   generateSupport,0
;   supportExtruder,0
;   supportInfillPercentage,20
;   supportExtraInflation,0
;   supportBaseLayers,0
;   denseSupportExtruder,0
;   denseSupportLayers,0
;   denseSupportInfillPercentage,70
;   supportLayerInterval,1
;   supportHorizontalPartOffset,0.3
;   supportUpperSeparationLayers,1
;   supportLowerSeparationLayers,1
;   supportType,1
;   supportGridSpacing,4
;   maxOverhangAngle,45
;   supportAngles,0
;   temperatureName,Extruder 1
;   temperatureNumber,0
;   temperatureSetpointCount,1
;   temperatureSetpointLayers,1
;   temperatureSetpointTemperatures,205
;   temperatureStabilizeAtStartup,1
;   temperatureHeatedBed,0
;   temperatureRelayBetweenLayers,0
;   temperatureRelayBetweenLoops,0
;   fanLayers,1,3,4,5
;   fanSpeeds,0,30,50,60
;   blipFanToFullPower,0
;   adjustSpeedForCooling,1
;   minSpeedLayerTime,15
;   minCoolingSpeedSlowdown,20
;   increaseFanForCooling,1
;   minFanLayerTime,45
;   maxCoolingFanSpeed,100
;   increaseFanForBridging,1
;   bridgingFanSpeed,100
;   use5D,1
;   relativeEdistances,1
;   allowEaxisZeroing,1
;   independentExtruderAxes,0
;   includeM10123,0
;   stickySupport,1
;   applyToolheadOffsets,0
;   gcodeXoffset,0
;   gcodeYoffset,0
;   gcodeZoffset,0
;   overrideMachineDefinition,1
;   machineTypeOverride,0
;   strokeXoverride,200
;   strokeYoverride,180
;   strokeZoverride,150
;   originOffsetXoverride,0
;   originOffsetYoverride,0
;   originOffsetZoverride,0
;   homeXdirOverride,-1
;   homeYdirOverride,-1
;   homeZdirOverride,-1
;   flipXoverride,1
;   flipYoverride,-1
;   flipZoverride,1
;   toolheadOffsets,0,0|0,0|0,0|0,0|0,0|0,0
;   overrideFirmwareConfiguration,0
;   firmwareTypeOverride,RepRap (Marlin/Repetier/Sprinter)
;   GPXconfigOverride,r2
;   baudRateOverride,115200
;   overridePrinterModels,0
;   printerModelsOverride
;   startingGcode,G29 S1		; Load Mesh Bed Levelling,; Clean Nozzle,G90			; Absolute Positioning,G1 Z5 F5000 		; Lift Nozzle,;G1 X65 Y-5,;G1 Z0.45  F200 		; Move Z to Cleaning Height,;G1 X105 E15 F200,G1 X0 Y0.0 Z0.2 F1000.0 ; go outside print area,G92 E0.0,G1 X60.0 E9.0  F1000.0 ; intro line,G1 X100.0 E12.5  F1000.0 ; intro line,;G1 Z5 F300		; Lift Nozzle,;M98 P/macros/Limpieza
;   layerChangeGcode,
;   retractionGcode,
;   toolChangeGcode,
;   endingGcode,G28 X0,M106 S0 ; turn off fan,G10 P0 R-273.15 S-273.15 ,M140 S0 ; turn off bed,G1 Y300,G91,G91 Z+5,G90,M98 P/macros/Final
;   exportFileFormat,gcode
;   celebration,0
;   celebrationSong,Random Song
;   postProcessing,
;   defaultSpeed,3900
;   outlineUnderspeed,0.4
;   solidInfillUnderspeed,1
;   supportUnderspeed,0.5
;   rapidXYspeed,6000
;   rapidZspeed,1002
;   minBridgingArea,5
;   bridgingExtraInflation,0
;   bridgingExtrusionMultiplier,0.8
;   bridgingSpeedMultiplier,2
;   useFixedBridgingAngle,0
;   fixedBridgingAngle,0
;   applyBridgingToPerimeters,0
;   filamentDiameters,1.75|1.75|1.75|1.75|1.75|1.75
;   filamentPricesPerKg,23|46|46|46|46|46
;   filamentDensities,1.25|1.25|1.25|1.25|1.25|1.25
;   useMinPrintHeight,0
;   minPrintHeight,0
;   useMaxPrintHeight,0
;   maxPrintHeight,7
;   useDiaphragm,0
;   diaphragmLayerInterval,20
;   robustSlicing,1
;   mergeAllIntoSolid,0
;   onlyRetractWhenCrossingOutline,0
;   retractBetweenLayers,1
;   useRetractionMinTravel,1
;   retractionMinTravel,3
;   retractWhileWiping,1
;   onlyWipeOutlines,1
;   avoidCrossingOutline,1
;   maxMovementDetourFactor,5
;   toolChangeRetractionDistance,12
;   toolChangeExtraRestartDistance,-0.5
;   toolChangeRetractionSpeed,600
;   externalThinWallType,0
;   internalThinWallType,2
;   thinWallAllowedOverlapPercentage,10
;   singleExtrusionMinLength,1
;   singleExtrusionMinPrintingWidthPercentage,50
;   singleExtrusionMaxPrintingWidthPercentage,200
;   singleExtrusionEndpointExtension,0.2
;   horizontalSizeCompensation,0
G90
M83
M106 S0
M104 S205 T0
M109 S205 T0
G29 S1		; Load Mesh Bed Levelling
; Clean Nozzle
G90			; Absolute Positioning
G1 Z5 F5000 		; Lift Nozzle
;G1 X65 Y-5
;G1 Z0.45  F200 		; Move Z to Cleaning Height
;G1 X105 E15 F200
G1 X0 Y0.0 Z0.2 F1000.0 ; go outside print area
G92 E0.0
G1 X60.0 E9.0  F1000.0 ; intro line
G1 X100.0 E12.5  F1000.0 ; intro line
;G1 Z5 F300		; Lift Nozzle
;M98 P/macros/Limpieza
G1 E-1.9000 F3600
G1 Z0.450 F1002
; process Process1
; layer 1, Z = 0.150
T0
; tool H0.200 W0.380
; skirt
G1 X79.736 Y76.019 F6000
G1 Z0.150 F1002
G1 E1.9000 F1080
G1 X79.753 Y76.004 E0.0007 F585
G1 X80.677 Y75.321 E0.0345
G1 X80.696 Y75.309 E0.0007
G1 X81.922 Y74.773 E0.0402
G1 X81.938 Y74.767 E0.0005
G1 X82.773 Y74.559 E0.0258
G1 X82.790 Y74.557 E0.0005
G1 X83.672 Y74.490 E0.0265
G1 X83.683 Y74.489 E0.0003
G1 X84.255 Y74.510 E0.0172
G1 X84.266 Y74.511 E0.0003
G1 X84.859 Y74.600 E0.0180
G1 X84.865 Y74.601 E0.0002
G1 X85.149 Y74.660 E0.0087
G1 X85.155 Y74.661 E0.0002
G1 X118.916 Y83.727 E1.0493
G1 X118.932 Y83.733 E0.0005
G1 X119.710 Y84.090 E0.0257
G1 X119.724 Y84.098 E0.0005
G1 X120.573 Y84.675 E0.0308
G1 X120.586 Y84.686 E0.0005
G1 X121.206 Y85.282 E0.0258
G1 X121.217 Y85.294 E0.0005
G1 X122.013 Y86.370 E0.0402
G1 X122.025 Y86.390 E0.0007
G1 X122.485 Y87.443 E0.0345
G1 X122.492 Y87.464 E0.0007
G1 X122.742 Y88.779 E0.0402
G1 X122.744 Y88.796 E0.0005
G1 X122.761 Y89.656 E0.0258
G1 X122.760 Y89.673 E0.0005
G1 X122.648 Y90.422 E0.0227
G1 X122.647 Y90.428 E0.0002
G1 X122.581 Y90.738 E0.0095
G1 X122.579 Y90.744 E0.0002
G1 X121.936 Y93.040 E0.0716
G1 X121.928 Y93.060 E0.0007
G1 X121.401 Y94.046 E0.0335
G1 X121.389 Y94.064 E0.0007
G1 X120.620 Y94.959 E0.0354
G1 X121.203 Y95.688 E0.0280
G1 X121.215 Y95.707 E0.0007
G1 X121.827 Y96.974 E0.0422
G1 X121.833 Y96.992 E0.0006
G1 X122.085 Y97.957 E0.0299
G1 X122.088 Y97.977 E0.0006
G1 X122.203 Y99.884 E0.0574
G1 X122.196 Y99.926 E0.0013
G1 X121.420 Y101.971 E0.0657
G1 X121.397 Y102.007 E0.0013
G1 X119.794 Y103.610 E0.0681
G1 X119.761 Y103.632 E0.0012
G1 X117.887 Y104.409 E0.0609
G1 X117.848 Y104.416 E0.0012
G1 X81.545 Y104.416 E1.0897
G1 X81.506 Y104.409 E0.0012
G1 X79.632 Y103.632 E0.0609
G1 X79.599 Y103.610 E0.0012
G1 X78.038 Y102.049 E0.0663
G1 X78.016 Y102.016 E0.0012
G1 X77.238 Y100.098 E0.0621
G1 X77.231 Y100.058 E0.0012
G1 X77.274 Y97.254 E0.0842
G1 X77.277 Y97.233 E0.0006
G1 X77.531 Y96.156 E0.0332
G1 X77.538 Y96.135 E0.0006
G1 X78.108 Y94.948 E0.0395
G1 X78.117 Y94.934 E0.0005
G1 X78.614 Y94.232 E0.0258
G1 X78.624 Y94.219 E0.0005
G1 X79.351 Y93.491 E0.0309
G1 X79.364 Y93.480 E0.0005
G1 X80.065 Y92.981 E0.0258
G1 X80.079 Y92.973 E0.0005
G1 X81.284 Y92.391 E0.0402
G1 X81.306 Y92.383 E0.0007
G1 X82.425 Y92.126 E0.0345
G1 X82.448 Y92.124 E0.0007
G1 X93.727 Y92.109 E0.3386
G1 X93.713 Y91.961 E0.0045
G1 X93.712 Y91.952 E0.0003
G1 X93.712 Y91.469 E0.0145
G1 X93.712 Y91.460 E0.0003
G1 X93.771 Y90.836 E0.0188
G1 X81.252 Y87.468 E0.3891
G1 X81.236 Y87.463 E0.0005
G1 X80.459 Y87.107 E0.0257
G1 X80.445 Y87.098 E0.0005
G1 X79.597 Y86.522 E0.0308
G1 X79.583 Y86.511 E0.0005
G1 X78.963 Y85.915 E0.0258
G1 X78.952 Y85.902 E0.0005
G1 X78.156 Y84.826 E0.0402
G1 X78.144 Y84.806 E0.0007
G1 X77.684 Y83.754 E0.0345
G1 X77.677 Y83.732 E0.0007
G1 X77.427 Y82.417 E0.0402
G1 X77.425 Y82.400 E0.0005
G1 X77.408 Y81.540 E0.0258
G1 X77.409 Y81.523 E0.0005
G1 X77.521 Y80.775 E0.0227
G1 X77.522 Y80.769 E0.0002
G1 X77.589 Y80.458 E0.0095
G1 X77.590 Y80.452 E0.0002
G1 X78.233 Y78.156 E0.0716
G1 X78.241 Y78.136 E0.0007
G1 X78.768 Y77.151 E0.0335
G1 X78.780 Y77.133 E0.0007
G1 X79.541 Y76.247 E0.0350
G1 X79.736 Y76.019 F585
G1 E-1.9000 F3600
G1 Z0.450 F1002
; inner perimeter
G1 X83.419 Y79.993 F6000
G1 X83.390 Y80.020 F6000
G1 X83.648 Y80.304 F6000
G1 Z0.150 F1002
G1 E1.9000 F3600
G1 X83.684 Y80.284 E0.0012 F410
G1 X83.720 Y80.272 E0.0012
G1 X83.760 Y80.270 E0.0012
G1 X83.830 Y80.280 E0.0021
G1 X116.820 Y89.120 E1.0252
G1 X116.886 Y89.145 E0.0021
G1 X116.920 Y89.168 E0.0012
G1 X116.946 Y89.198 E0.0012
G1 X116.966 Y89.231 E0.0012
G1 X116.977 Y89.268 E0.0012
G1 X116.980 Y89.308 E0.0012
G1 X116.970 Y89.379 E0.0022
G1 X116.598 Y90.766 E0.0431
G1 X116.572 Y90.833 E0.0021
G1 X116.550 Y90.865 E0.0012
G1 X116.521 Y90.892 E0.0012
G1 X116.487 Y90.912 E0.0012
G1 X116.449 Y90.924 E0.0012
G1 X116.410 Y90.927 E0.0012
G1 X116.339 Y90.916 E0.0021
G1 X106.068 Y88.164 E0.3192
G1 X105.615 Y88.085 E0.0138
G1 X105.129 Y88.087 E0.0146
G1 X104.650 Y88.174 E0.0146
G1 X104.194 Y88.345 E0.0146
G1 X103.797 Y88.581 E0.0139
G1 X100.502 Y90.960 E0.1220
G1 X100.346 Y91.109 E0.0065
G1 X100.214 Y91.328 E0.0077
G1 X100.145 Y91.575 E0.0077
G1 X100.145 Y91.830 E0.0077
G1 X100.213 Y92.077 E0.0077
G1 X100.344 Y92.297 E0.0077
G1 X100.502 Y92.447 E0.0065
G1 X102.149 Y93.637 E0.0610
G1 X102.396 Y93.853 E0.0098
G1 X102.582 Y94.092 E0.0091
G1 X102.720 Y94.361 E0.0091
G1 X102.805 Y94.651 E0.0091
G1 X102.834 Y94.952 E0.0091
G1 X102.805 Y95.253 E0.0091
G1 X102.721 Y95.544 E0.0091
G1 X102.584 Y95.813 E0.0091
G1 X102.398 Y96.052 E0.0091
G1 X102.151 Y96.270 E0.0099
G1 X100.828 Y97.225 E0.0490
G1 X100.666 Y97.386 E0.0069
G1 X100.541 Y97.630 E0.0082
G1 X100.497 Y97.901 E0.0082
G1 X100.539 Y98.172 E0.0082
G1 X100.779 Y98.646 E0.0159
G1 X83.016 Y98.646 E0.5332
G1 X83.016 Y98.086 E0.0168
G1 X83.024 Y98.015 E0.0021
G1 X83.037 Y97.978 E0.0012
G1 X83.058 Y97.944 E0.0012
G1 X83.086 Y97.916 E0.0012
G1 X83.119 Y97.895 E0.0012
G1 X83.156 Y97.882 E0.0012
G1 X83.228 Y97.874 E0.0022
G1 X97.937 Y97.874 E0.4415
G1 X98.341 Y97.842 E0.0122
G1 X98.758 Y97.743 E0.0129
G1 X99.155 Y97.580 E0.0129
G1 X99.502 Y97.368 E0.0122
G1 X101.816 Y95.697 E0.0857
G1 X101.973 Y95.548 E0.0065
G1 X102.104 Y95.329 E0.0077
G1 X102.173 Y95.083 E0.0077
G1 X102.173 Y94.827 E0.0077
G1 X102.105 Y94.580 E0.0077
G1 X101.974 Y94.361 E0.0077
G1 X101.817 Y94.211 E0.0065
G1 X100.169 Y93.021 E0.0610
G1 X99.922 Y92.805 E0.0098
G1 X99.736 Y92.566 E0.0091
G1 X99.598 Y92.297 E0.0091
G1 X99.513 Y92.006 E0.0091
G1 X99.485 Y91.705 E0.0091
G1 X99.513 Y91.404 E0.0091
G1 X99.597 Y91.114 E0.0091
G1 X99.735 Y90.844 E0.0091
G1 X99.920 Y90.605 E0.0091
G1 X100.168 Y90.388 E0.0099
G1 X102.559 Y88.661 E0.0885
G1 X102.706 Y88.519 E0.0061
G1 X102.829 Y88.307 E0.0074
G1 X102.888 Y88.068 E0.0074
G1 X102.878 Y87.822 E0.0074
G1 X102.800 Y87.589 E0.0074
G1 X102.661 Y87.386 E0.0074
G1 X102.470 Y87.231 E0.0074
G1 X102.281 Y87.150 E0.0062
G1 X83.349 Y82.077 E0.5883
G1 X83.283 Y82.051 E0.0022
G1 X83.249 Y82.028 E0.0012
G1 X83.223 Y82.000 E0.0012
G1 X83.203 Y81.965 E0.0012
G1 X83.192 Y81.927 E0.0012
G1 X83.189 Y81.888 E0.0012
G1 X83.199 Y81.818 E0.0021
G1 X83.532 Y80.574 E0.0386
G1 X83.571 Y80.430 F410
G1 X83.597 Y80.364 F410
G1 X83.619 Y80.332 F410
G1 X83.648 Y80.304 F410
; outer perimeter
G1 X83.421 Y79.997 F6000
G1 X83.529 Y79.934 E0.0038 F234
G1 X83.649 Y79.897 E0.0038
G1 X83.773 Y79.887 E0.0038
G1 X83.908 Y79.907 E0.0041
G1 X116.939 Y88.758 E1.0265
G1 X117.065 Y88.807 E0.0041
G1 X117.168 Y88.878 E0.0038
G1 X117.253 Y88.969 E0.0038
G1 X117.316 Y89.078 E0.0038
G1 X117.353 Y89.197 E0.0038
G1 X117.363 Y89.322 E0.0038
G1 X117.342 Y89.456 E0.0041
G1 X116.960 Y90.885 E0.0444
G1 X116.910 Y91.011 E0.0041
G1 X116.840 Y91.115 E0.0038
G1 X116.748 Y91.200 E0.0038
G1 X116.640 Y91.262 E0.0038
G1 X116.520 Y91.299 E0.0038
G1 X116.396 Y91.309 E0.0038
G1 X116.261 Y91.289 E0.0041
G1 X105.986 Y88.536 E0.3193
G1 X105.583 Y88.465 E0.0123
G1 X105.164 Y88.467 E0.0126
G1 X104.752 Y88.542 E0.0126
G1 X104.359 Y88.689 E0.0126
G1 X104.006 Y88.899 E0.0123
G1 X100.746 Y91.253 E0.1207
G1 X100.645 Y91.349 E0.0042
G1 X100.566 Y91.480 E0.0046
G1 X100.525 Y91.627 E0.0046
G1 X100.525 Y91.779 E0.0046
G1 X100.566 Y91.926 E0.0046
G1 X100.644 Y92.057 E0.0046
G1 X100.745 Y92.154 E0.0042
G1 X102.386 Y93.339 E0.0608
G1 X102.673 Y93.591 E0.0115
G1 X102.904 Y93.886 E0.0112
G1 X103.075 Y94.220 E0.0112
G1 X103.180 Y94.579 E0.0112
G1 X103.215 Y94.952 E0.0112
G1 X103.180 Y95.325 E0.0112
G1 X103.076 Y95.684 E0.0112
G1 X102.906 Y96.018 E0.0112
G1 X102.676 Y96.314 E0.0112
G1 X102.388 Y96.567 E0.0115
G1 X101.075 Y97.515 E0.0486
G1 X100.977 Y97.613 E0.0042
G1 X100.906 Y97.750 E0.0046
G1 X100.882 Y97.902 E0.0046
G1 X100.905 Y98.054 E0.0046
G1 X100.975 Y98.192 E0.0046
G1 X101.084 Y98.301 E0.0046
G1 X101.221 Y98.372 E0.0046
G1 X101.359 Y98.394 E0.0042
G1 X116.186 Y98.394 E0.4451
G1 X116.320 Y98.409 E0.0041
G1 X116.438 Y98.450 E0.0038
G1 X116.544 Y98.517 E0.0038
G1 X116.633 Y98.605 E0.0038
G1 X116.699 Y98.711 E0.0038
G1 X116.739 Y98.824 E0.0036
G1 X116.751 Y99.026 E0.0061
G1 X82.638 Y99.026 E1.0240
G1 X82.636 Y99.025 E0.0001
G1 X82.636 Y98.064 E0.0288
G1 X82.651 Y97.930 E0.0041
G1 X82.693 Y97.812 E0.0038
G1 X82.759 Y97.706 E0.0038
G1 X82.847 Y97.617 E0.0038
G1 X82.953 Y97.551 E0.0038
G1 X83.071 Y97.509 E0.0038
G1 X83.206 Y97.494 E0.0041
G1 X97.922 Y97.494 E0.4417
G1 X98.281 Y97.466 E0.0108
G1 X98.641 Y97.380 E0.0111
G1 X98.983 Y97.240 E0.0111
G1 X99.292 Y97.051 E0.0109
G1 X101.573 Y95.404 E0.0844
G1 X101.673 Y95.308 E0.0042
G1 X101.752 Y95.178 E0.0046
G1 X101.793 Y95.031 E0.0046
G1 X101.793 Y94.878 E0.0046
G1 X101.753 Y94.731 E0.0046
G1 X101.674 Y94.600 E0.0046
G1 X101.573 Y94.504 E0.0042
G1 X99.932 Y93.318 E0.0608
G1 X99.645 Y93.067 E0.0115
G1 X99.415 Y92.771 E0.0112
G1 X99.244 Y92.438 E0.0112
G1 X99.139 Y92.078 E0.0112
G1 X99.103 Y91.706 E0.0112
G1 X99.138 Y91.333 E0.0112
G1 X99.242 Y90.973 E0.0112
G1 X99.412 Y90.639 E0.0112
G1 X99.642 Y90.344 E0.0112
G1 X99.930 Y90.091 E0.0115
G1 X102.314 Y88.369 E0.0883
G1 X102.404 Y88.283 E0.0037
G1 X102.473 Y88.163 E0.0041
G1 X102.506 Y88.029 E0.0041
G1 X102.500 Y87.891 E0.0041
G1 X102.457 Y87.760 E0.0041
G1 X102.378 Y87.646 E0.0041
G1 X102.271 Y87.559 E0.0041
G1 X102.157 Y87.510 E0.0037
G1 X83.230 Y82.438 E0.5882
G1 X83.104 Y82.389 E0.0041
G1 X83.001 Y82.318 E0.0038
G1 X82.916 Y82.227 E0.0038
G1 X82.853 Y82.119 E0.0038
G1 X82.816 Y81.999 E0.0038
G1 X82.807 Y81.874 E0.0038
G1 X82.827 Y81.740 E0.0041
G1 X83.209 Y80.311 E0.0444
G1 X83.241 Y80.231 E0.0026
G1 X83.259 Y80.185 F234
G1 X83.329 Y80.082 F234
G1 X83.421 Y79.997 F234
G1 X83.529 Y79.934 E-0.1154 F3900
G1 X83.649 Y79.897 E-0.1156
G1 X83.773 Y79.887 E-0.1154
G1 X83.908 Y79.907 E-0.1253
G1 X85.402 Y80.308 E-1.4283
G1 Z0.450 F1002
; gap fill
