; G-Code generated by Simplify3D(R) Version 4.0.1
; Mar 6, 2018 at 9:45:17 PM
; Settings Summary
;   processName,Process1
;   applyToModels,bed_clip2
;   profileName,PrusaMK2S
;   profileVersion,2018-03-06 01:09:59
;   baseProfile,Default
;   printMaterial,PLA Sakata3D
;   printQuality,Fast 0.2
;   printExtruders,
;   extruderName,Extruder 1
;   extruderToolheadNumber,0
;   extruderDiameter,0.4
;   extruderAutoWidth,0
;   extruderWidth,0.4
;   extrusionMultiplier,0.9
;   extruderUseRetract,1
;   extruderRetractionDistance,1.8
;   extruderExtraRestartDistance,0
;   extruderRetractionZLift,0.3
;   extruderRetractionSpeed,3600
;   extruderUseCoasting,1
;   extruderCoastingDistance,0.3
;   extruderUseWipe,1
;   extruderWipeDistance,2
;   primaryExtruder,0
;   layerHeight,0.2
;   topSolidLayers,2
;   bottomSolidLayers,2
;   perimeterOutlines,2
;   printPerimetersInsideOut,1
;   startPointOption,2
;   startPointOriginX,0
;   startPointOriginY,0
;   sequentialIslands,0
;   spiralVaseMode,0
;   firstLayerHeightPercentage,75
;   firstLayerWidthPercentage,95
;   firstLayerUnderspeed,0.15
;   useRaft,0
;   raftExtruder,0
;   raftTopLayers,3
;   raftBaseLayers,2
;   raftOffset,3
;   raftSeparationDistance,0.14
;   raftTopInfill,100
;   aboveRaftSpeedMultiplier,0.3
;   useSkirt,1
;   skirtExtruder,0
;   skirtLayers,1
;   skirtOutlines,1
;   skirtOffset,5
;   usePrimePillar,0
;   primePillarExtruder,999
;   primePillarWidth,12
;   primePillarLocation,7
;   primePillarSpeedMultiplier,1
;   useOozeShield,0
;   oozeShieldExtruder,999
;   oozeShieldOffset,2
;   oozeShieldOutlines,1
;   oozeShieldSidewallShape,1
;   oozeShieldSidewallAngle,30
;   oozeShieldSpeedMultiplier,1
;   infillExtruder,0
;   internalInfillPattern,Grid
;   externalInfillPattern,Rectilinear
;   infillPercentage,100
;   outlineOverlapPercentage,25
;   infillExtrusionWidthPercentage,115
;   minInfillLength,2
;   infillLayerInterval,1
;   internalInfillAngles,45,-45
;   overlapInternalInfillAngles,1
;   externalInfillAngles,45,-45
;   generateSupport,0
;   supportExtruder,0
;   supportInfillPercentage,20
;   supportExtraInflation,0
;   supportBaseLayers,0
;   denseSupportExtruder,0
;   denseSupportLayers,0
;   denseSupportInfillPercentage,70
;   supportLayerInterval,1
;   supportHorizontalPartOffset,0.3
;   supportUpperSeparationLayers,1
;   supportLowerSeparationLayers,1
;   supportType,1
;   supportGridSpacing,4
;   maxOverhangAngle,45
;   supportAngles,0
;   temperatureName,Extruder 1
;   temperatureNumber,0
;   temperatureSetpointCount,1
;   temperatureSetpointLayers,1
;   temperatureSetpointTemperatures,210
;   temperatureStabilizeAtStartup,1
;   temperatureHeatedBed,0
;   temperatureRelayBetweenLayers,0
;   temperatureRelayBetweenLoops,0
;   fanLayers,1,3,4,5
;   fanSpeeds,0,40,50,60
;   blipFanToFullPower,0
;   adjustSpeedForCooling,1
;   minSpeedLayerTime,15
;   minCoolingSpeedSlowdown,20
;   increaseFanForCooling,0
;   minFanLayerTime,45
;   maxCoolingFanSpeed,100
;   increaseFanForBridging,0
;   bridgingFanSpeed,100
;   use5D,1
;   relativeEdistances,1
;   allowEaxisZeroing,1
;   independentExtruderAxes,0
;   includeM10123,0
;   stickySupport,1
;   applyToolheadOffsets,0
;   gcodeXoffset,0
;   gcodeYoffset,0
;   gcodeZoffset,0
;   overrideMachineDefinition,1
;   machineTypeOverride,0
;   strokeXoverride,200
;   strokeYoverride,155
;   strokeZoverride,150
;   originOffsetXoverride,0
;   originOffsetYoverride,0
;   originOffsetZoverride,0
;   homeXdirOverride,-1
;   homeYdirOverride,-1
;   homeZdirOverride,-1
;   flipXoverride,1
;   flipYoverride,-1
;   flipZoverride,1
;   toolheadOffsets,0,0|0,0|0,0|0,0|0,0|0,0
;   overrideFirmwareConfiguration,0
;   firmwareTypeOverride,RepRap (Marlin/Repetier/Sprinter)
;   GPXconfigOverride,r2
;   baudRateOverride,115200
;   overridePrinterModels,0
;   printerModelsOverride
;   startingGcode,G29 S1		; Load Mesh Bed Levelling,; Clean Nozzle,G90			; Absolute Positioning,G1 Z5 F5000 		; Lift Nozzle,;G1 X65 Y-5,;G1 Z0.45  F200 		; Move Z to Cleaning Height,;G1 X105 E15 F200,G1 X0 Y0.0 Z0.2 F1000.0 ; go outside print area,G92 E0.0,G1 X60.0 E9.0  F1000.0 ; intro line,G1 X100.0 E12.5  F1000.0 ; intro line,;G1 Z5 F300		; Lift Nozzle,;M98 P/macros/Limpieza
;   layerChangeGcode,
;   retractionGcode,
;   toolChangeGcode,
;   endingGcode,G28 X0,M106 S0 ; turn off fan,G10 P0 R-273.15 S-273.15 ,M140 S0 ; turn off bed,G1 Y300,G91,G91 Z+5,G90,M98 P/macros/Final
;   exportFileFormat,gcode
;   celebration,0
;   celebrationSong,Random Song
;   postProcessing,
;   defaultSpeed,3600
;   outlineUnderspeed,0.4
;   solidInfillUnderspeed,1
;   supportUnderspeed,0.5
;   rapidXYspeed,6000
;   rapidZspeed,1002
;   minBridgingArea,5
;   bridgingExtraInflation,0
;   bridgingExtrusionMultiplier,0.8
;   bridgingSpeedMultiplier,2
;   useFixedBridgingAngle,0
;   fixedBridgingAngle,0
;   applyBridgingToPerimeters,0
;   filamentDiameters,1.75|1.75|1.75|1.75|1.75|1.75
;   filamentPricesPerKg,23|46|46|46|46|46
;   filamentDensities,1.25|1.25|1.25|1.25|1.25|1.25
;   useMinPrintHeight,0
;   minPrintHeight,0
;   useMaxPrintHeight,0
;   maxPrintHeight,10
;   useDiaphragm,0
;   diaphragmLayerInterval,20
;   robustSlicing,1
;   mergeAllIntoSolid,0
;   onlyRetractWhenCrossingOutline,1
;   retractBetweenLayers,1
;   useRetractionMinTravel,1
;   retractionMinTravel,3
;   retractWhileWiping,1
;   onlyWipeOutlines,1
;   avoidCrossingOutline,1
;   maxMovementDetourFactor,5
;   toolChangeRetractionDistance,12
;   toolChangeExtraRestartDistance,-0.5
;   toolChangeRetractionSpeed,600
;   externalThinWallType,0
;   internalThinWallType,2
;   thinWallAllowedOverlapPercentage,10
;   singleExtrusionMinLength,1
;   singleExtrusionMinPrintingWidthPercentage,50
;   singleExtrusionMaxPrintingWidthPercentage,200
;   singleExtrusionEndpointExtension,0.2
;   horizontalSizeCompensation,0
G90
M83
M106 S0
M104 S210 T0
M109 S210 T0
G29 S1		; Load Mesh Bed Levelling
; Clean Nozzle
G90			; Absolute Positioning
G1 Z5 F5000 		; Lift Nozzle
;G1 X65 Y-5
;G1 Z0.45  F200 		; Move Z to Cleaning Height
;G1 X105 E15 F200
G1 X0 Y0.0 Z0.2 F1000.0 ; go outside print area
G92 E0.0
G1 X60.0 E9.0  F1000.0 ; intro line
G1 X100.0 E12.5  F1000.0 ; intro line
;G1 Z5 F300		; Lift Nozzle
;M98 P/macros/Limpieza
G1 E-1.8000 F3600
G1 Z0.450 F1002
; process Process1
; layer 1, Z = 0.150
T0
; tool H0.200 W0.380
; skirt
G1 X65.735 Y8.054 F6000
G1 Z0.150 F1002
G1 E1.8000 F1080
G1 X65.847 Y7.305 E0.0215 F540
G1 X65.848 Y7.299 E0.0002
G1 X65.914 Y6.989 E0.0090
G1 X65.916 Y6.983 E0.0002
G1 X66.520 Y4.826 E0.0637
G1 X66.525 Y4.811 E0.0005
G1 X66.874 Y4.059 E0.0236
G1 X66.882 Y4.045 E0.0005
G1 X67.452 Y3.208 E0.0288
G1 X67.462 Y3.195 E0.0005
G1 X68.059 Y2.574 E0.0245
G1 X68.071 Y2.563 E0.0005
G1 X69.148 Y1.767 E0.0381
G1 X69.167 Y1.756 E0.0006
G1 X70.220 Y1.295 E0.0327
G1 X70.241 Y1.289 E0.0006
G1 X71.556 Y1.038 E0.0381
G1 X71.573 Y1.037 E0.0005
G1 X72.433 Y1.019 E0.0245
G1 X72.450 Y1.021 E0.0005
G1 X73.185 Y1.130 E0.0211
G1 X73.190 Y1.131 E0.0002
G1 X73.475 Y1.191 E0.0083
G1 X73.480 Y1.192 E0.0002
G1 X107.381 Y10.295 E0.9982
G1 X107.402 Y10.304 E0.0006
G1 X108.414 Y10.838 E0.0326
G1 X108.433 Y10.851 E0.0006
G1 X109.446 Y11.721 E0.0380
G1 X109.458 Y11.733 E0.0005
G1 X110.008 Y12.395 E0.0244
G1 X110.017 Y12.408 E0.0005
G1 X110.533 Y13.298 E0.0292
G1 X110.540 Y13.313 E0.0005
G1 X110.840 Y14.121 E0.0245
G1 X110.845 Y14.137 E0.0005
G1 X111.068 Y15.310 E0.0340
G1 X111.070 Y15.327 E0.0005
G1 X111.087 Y16.187 E0.0245
G1 X111.086 Y16.204 E0.0005
G1 X110.974 Y16.952 E0.0215
G1 X110.973 Y16.958 E0.0002
G1 X110.906 Y17.269 E0.0090
G1 X110.905 Y17.275 E0.0002
G1 X110.262 Y19.571 E0.0678
G1 X110.254 Y19.591 E0.0006
G1 X109.726 Y20.577 E0.0318
G1 X109.714 Y20.595 E0.0006
G1 X108.946 Y21.489 E0.0335
G1 X109.529 Y22.219 E0.0265
G1 X109.541 Y22.238 E0.0006
G1 X110.152 Y23.505 E0.0400
G1 X110.159 Y23.523 E0.0006
G1 X110.411 Y24.488 E0.0284
G1 X110.414 Y24.507 E0.0006
G1 X110.528 Y26.414 E0.0543
G1 X110.522 Y26.456 E0.0012
G1 X109.746 Y28.502 E0.0622
G1 X109.723 Y28.538 E0.0012
G1 X108.119 Y30.141 E0.0645
G1 X108.086 Y30.163 E0.0011
G1 X106.212 Y30.939 E0.0577
G1 X106.174 Y30.947 E0.0011
G1 X69.870 Y30.947 E1.0324
G1 X69.832 Y30.939 E0.0011
G1 X67.957 Y30.163 E0.0577
G1 X67.925 Y30.141 E0.0011
G1 X66.363 Y28.580 E0.0628
G1 X66.341 Y28.546 E0.0011
G1 X65.564 Y26.628 E0.0588
G1 X65.557 Y26.589 E0.0011
G1 X65.598 Y23.929 E0.0756
G1 X65.599 Y23.914 E0.0005
G1 X65.742 Y23.108 E0.0233
G1 X65.746 Y23.093 E0.0005
G1 X66.077 Y22.142 E0.0286
G1 X66.084 Y22.127 E0.0005
G1 X66.499 Y21.373 E0.0245
G1 X66.509 Y21.359 E0.0005
G1 X67.342 Y20.312 E0.0381
G1 X67.358 Y20.296 E0.0006
G1 X68.256 Y19.578 E0.0327
G1 X68.275 Y19.566 E0.0006
G1 X69.610 Y18.921 E0.0422
G1 X69.631 Y18.914 E0.0006
G1 X70.751 Y18.657 E0.0327
G1 X70.773 Y18.654 E0.0006
G1 X82.053 Y18.640 E0.3208
G1 X82.038 Y18.492 E0.0042
G1 X82.038 Y18.482 E0.0003
G1 X82.037 Y18.000 E0.0137
G1 X82.038 Y17.991 E0.0003
G1 X82.097 Y17.366 E0.0178
G1 X69.438 Y13.962 E0.3728
G1 X69.417 Y13.954 E0.0006
G1 X68.406 Y13.419 E0.0325
G1 X68.388 Y13.407 E0.0006
G1 X67.374 Y12.536 E0.0380
G1 X67.362 Y12.524 E0.0005
G1 X66.812 Y11.862 E0.0245
G1 X66.802 Y11.848 E0.0005
G1 X66.287 Y10.958 E0.0292
G1 X66.280 Y10.943 E0.0005
G1 X65.980 Y10.138 E0.0244
G1 X65.976 Y10.121 E0.0005
G1 X65.752 Y8.948 E0.0340
G1 X65.751 Y8.932 E0.0005
G1 X65.739 Y8.354 E0.0164
G1 X65.734 Y8.071 F540
G1 X65.735 Y8.054 F540
G1 E-1.8000 F3600
G1 Z0.450 F1002
; inner perimeter
G1 X71.128 Y8.405 F6000
G1 X71.130 Y8.396 F6000
G1 X71.514 Y8.420 F6000
G1 Z0.150 F1002
G1 E1.8000 F3600
G1 X71.525 Y8.348 E0.0021 F378
G1 X71.897 Y6.961 E0.0408
G1 X71.922 Y6.895 E0.0020
G1 X71.945 Y6.862 E0.0011
G1 X71.974 Y6.835 E0.0011
G1 X72.008 Y6.815 E0.0011
G1 X72.046 Y6.803 E0.0011
G1 X72.085 Y6.800 E0.0011
G1 X72.156 Y6.811 E0.0020
G1 X105.145 Y15.650 E0.9712
G1 X105.212 Y15.676 E0.0020
G1 X105.245 Y15.699 E0.0011
G1 X105.272 Y15.728 E0.0011
G1 X105.292 Y15.763 E0.0011
G1 X105.303 Y15.800 E0.0011
G1 X105.306 Y15.839 E0.0011
G1 X105.296 Y15.909 E0.0020
G1 X104.924 Y17.297 E0.0409
G1 X104.898 Y17.363 E0.0020
G1 X104.875 Y17.396 E0.0012
G1 X104.846 Y17.424 E0.0012
G1 X104.812 Y17.443 E0.0011
G1 X104.776 Y17.454 E0.0011
G1 X104.736 Y17.458 E0.0011
G1 X104.665 Y17.447 E0.0021
G1 X94.394 Y14.695 E0.3024
G1 X93.941 Y14.616 E0.0131
G1 X93.454 Y14.617 E0.0138
G1 X92.976 Y14.705 E0.0138
G1 X92.520 Y14.876 E0.0138
G1 X92.123 Y15.112 E0.0131
G1 X88.828 Y17.491 E0.1156
G1 X88.671 Y17.640 E0.0061
G1 X88.540 Y17.859 E0.0073
G1 X88.471 Y18.105 E0.0073
G1 X88.471 Y18.361 E0.0073
G1 X88.539 Y18.608 E0.0073
G1 X88.670 Y18.827 E0.0073
G1 X88.827 Y18.977 E0.0062
G1 X90.475 Y20.168 E0.0578
G1 X90.721 Y20.384 E0.0093
G1 X90.908 Y20.622 E0.0086
G1 X91.046 Y20.892 E0.0086
G1 X91.131 Y21.182 E0.0086
G1 X91.159 Y21.483 E0.0086
G1 X91.131 Y21.784 E0.0086
G1 X91.047 Y22.075 E0.0086
G1 X90.909 Y22.344 E0.0086
G1 X90.724 Y22.583 E0.0086
G1 X90.476 Y22.800 E0.0094
G1 X89.154 Y23.755 E0.0464
G1 X88.992 Y23.917 E0.0065
G1 X88.867 Y24.161 E0.0078
G1 X88.823 Y24.431 E0.0078
G1 X88.865 Y24.703 E0.0078
G1 X89.105 Y25.177 E0.0151
G1 X71.342 Y25.177 E0.5051
G1 X71.342 Y24.616 E0.0159
G1 X71.350 Y24.547 E0.0020
G1 X71.363 Y24.508 E0.0012
G1 X71.385 Y24.474 E0.0012
G1 X71.412 Y24.446 E0.0011
G1 X71.445 Y24.426 E0.0011
G1 X71.482 Y24.413 E0.0011
G1 X71.553 Y24.405 E0.0020
G1 X86.263 Y24.404 E0.4183
G1 X86.666 Y24.373 E0.0115
G1 X87.084 Y24.273 E0.0122
G1 X87.480 Y24.110 E0.0122
G1 X87.828 Y23.899 E0.0116
G1 X90.142 Y22.228 E0.0812
G1 X90.298 Y22.079 E0.0061
G1 X90.430 Y21.860 E0.0073
G1 X90.499 Y21.614 E0.0073
G1 X90.499 Y21.358 E0.0073
G1 X90.431 Y21.111 E0.0073
G1 X90.300 Y20.891 E0.0073
G1 X90.142 Y20.741 E0.0062
G1 X88.495 Y19.551 E0.0578
G1 X88.248 Y19.335 E0.0093
G1 X88.062 Y19.097 E0.0086
G1 X87.924 Y18.827 E0.0086
G1 X87.839 Y18.537 E0.0086
G1 X87.810 Y18.236 E0.0086
G1 X87.839 Y17.935 E0.0086
G1 X87.923 Y17.644 E0.0086
G1 X88.060 Y17.375 E0.0086
G1 X88.246 Y17.136 E0.0086
G1 X88.493 Y16.919 E0.0094
G1 X90.884 Y15.192 E0.0839
G1 X91.032 Y15.050 E0.0058
G1 X91.154 Y14.837 E0.0070
G1 X91.213 Y14.599 E0.0070
G1 X91.204 Y14.353 E0.0070
G1 X91.126 Y14.119 E0.0070
G1 X90.986 Y13.917 E0.0070
G1 X90.796 Y13.761 E0.0070
G1 X90.607 Y13.680 E0.0059
G1 X71.706 Y8.616 E0.5565
G1 X71.675 Y8.607 F378
G1 X71.609 Y8.582 F378
G1 X71.576 Y8.559 F378
G1 X71.548 Y8.529 F378
G1 X71.529 Y8.495 F378
G1 X71.518 Y8.460 F378
G1 X71.514 Y8.420 F378
; outer perimeter
G1 X71.132 Y8.405 F6000
G1 X71.152 Y8.271 E0.0039 F216
G1 X71.535 Y6.842 E0.0421
G1 X71.584 Y6.716 E0.0038
G1 X71.655 Y6.612 E0.0036
G1 X71.747 Y6.527 E0.0036
G1 X71.855 Y6.465 E0.0036
G1 X71.974 Y6.428 E0.0036
G1 X72.099 Y6.418 E0.0036
G1 X72.233 Y6.438 E0.0039
G1 X105.265 Y15.289 E0.9725
G1 X105.390 Y15.338 E0.0038
G1 X105.494 Y15.408 E0.0036
G1 X105.579 Y15.500 E0.0036
G1 X105.642 Y15.608 E0.0036
G1 X105.679 Y15.728 E0.0036
G1 X105.688 Y15.853 E0.0036
G1 X105.668 Y15.987 E0.0039
G1 X105.285 Y17.416 E0.0421
G1 X105.236 Y17.542 E0.0038
G1 X105.166 Y17.645 E0.0036
G1 X105.074 Y17.730 E0.0036
G1 X104.966 Y17.793 E0.0036
G1 X104.846 Y17.830 E0.0036
G1 X104.721 Y17.840 E0.0036
G1 X104.587 Y17.820 E0.0039
G1 X94.311 Y15.066 E0.3025
G1 X93.909 Y14.996 E0.0116
G1 X93.490 Y14.997 E0.0119
G1 X93.077 Y15.073 E0.0119
G1 X92.685 Y15.220 E0.0119
G1 X92.331 Y15.430 E0.0117
G1 X89.071 Y17.784 E0.1144
G1 X88.971 Y17.880 E0.0040
G1 X88.892 Y18.010 E0.0043
G1 X88.851 Y18.157 E0.0043
G1 X88.851 Y18.310 E0.0043
G1 X88.891 Y18.457 E0.0043
G1 X88.970 Y18.588 E0.0043
G1 X89.071 Y18.685 E0.0040
G1 X90.712 Y19.870 E0.0576
G1 X90.999 Y20.122 E0.0108
G1 X91.229 Y20.417 E0.0107
G1 X91.400 Y20.750 E0.0107
G1 X91.505 Y21.110 E0.0106
G1 X91.541 Y21.483 E0.0107
G1 X91.506 Y21.855 E0.0107
G1 X91.402 Y22.215 E0.0107
G1 X91.231 Y22.549 E0.0107
G1 X91.002 Y22.844 E0.0106
G1 X90.714 Y23.098 E0.0109
G1 X89.401 Y24.046 E0.0461
G1 X89.302 Y24.144 E0.0039
G1 X89.232 Y24.281 E0.0044
G1 X89.208 Y24.433 E0.0044
G1 X89.231 Y24.585 E0.0044
G1 X89.301 Y24.723 E0.0044
G1 X89.410 Y24.832 E0.0044
G1 X89.547 Y24.902 E0.0044
G1 X89.684 Y24.924 E0.0040
G1 X104.511 Y24.924 E0.4216
G1 X104.646 Y24.940 E0.0038
G1 X104.764 Y24.981 E0.0036
G1 X104.870 Y25.047 E0.0036
G1 X104.958 Y25.136 E0.0036
G1 X105.025 Y25.241 E0.0036
G1 X105.065 Y25.355 E0.0034
G1 X105.077 Y25.557 E0.0058
G1 X70.963 Y25.557 E0.9701
G1 X70.962 Y25.556 E0.0000
G1 X70.962 Y24.595 E0.0273
G1 X70.977 Y24.461 E0.0038
G1 X71.018 Y24.343 E0.0036
G1 X71.085 Y24.237 E0.0036
G1 X71.173 Y24.148 E0.0036
G1 X71.279 Y24.081 E0.0036
G1 X71.397 Y24.040 E0.0036
G1 X71.532 Y24.025 E0.0039
G1 X86.248 Y24.024 E0.4185
G1 X86.607 Y23.996 E0.0102
G1 X86.967 Y23.911 E0.0105
G1 X87.308 Y23.770 E0.0105
G1 X87.618 Y23.582 E0.0103
G1 X89.898 Y21.935 E0.0800
G1 X89.999 Y21.839 E0.0040
G1 X90.078 Y21.709 E0.0043
G1 X90.119 Y21.561 E0.0043
G1 X90.119 Y21.409 E0.0043
G1 X90.078 Y21.262 E0.0043
G1 X90.000 Y21.131 E0.0043
G1 X89.899 Y21.034 E0.0040
G1 X88.258 Y19.849 E0.0576
G1 X87.971 Y19.597 E0.0109
G1 X87.740 Y19.302 E0.0107
G1 X87.569 Y18.969 E0.0107
G1 X87.464 Y18.609 E0.0107
G1 X87.429 Y18.236 E0.0107
G1 X87.464 Y17.863 E0.0107
G1 X87.568 Y17.504 E0.0107
G1 X87.738 Y17.170 E0.0106
G1 X87.968 Y16.874 E0.0107
G1 X88.256 Y16.621 E0.0109
G1 X90.640 Y14.899 E0.0836
G1 X90.729 Y14.813 E0.0035
G1 X90.798 Y14.694 E0.0039
G1 X90.832 Y14.560 E0.0039
G1 X90.826 Y14.422 E0.0039
G1 X90.782 Y14.291 E0.0039
G1 X90.704 Y14.177 E0.0039
G1 X90.597 Y14.089 E0.0039
G1 X90.482 Y14.040 E0.0035
G1 X71.556 Y8.969 E0.5572
G1 X71.430 Y8.920 E0.0038
G1 X71.327 Y8.849 E0.0036
G1 X71.241 Y8.758 E0.0036
G1 X71.204 Y8.692 E0.0021
G1 X71.179 Y8.649 F216
G1 X71.142 Y8.530 F216
G1 X71.132 Y8.405 F216
G1 X71.152 Y8.271 F3600
G1 X71.535 Y6.842 F3600
G1 X71.584 Y6.716 F3600
G1 X71.655 Y6.612 F3600
G1 X71.746 Y6.528 F3600
; gap fill
G1 X74.925 Y9.876 F6000
G1 X90.481 Y14.044 F6000
G1 X90.595 Y14.093 F6000
G1 X90.701 Y14.179 F6000
G1 X90.779 Y14.292 F6000
G1 X90.822 Y14.422 F6000
G1 X90.828 Y14.559 F6000
G1 X90.795 Y14.692 F6000
G1 X90.726 Y14.811 F6000
G1 X90.638 Y14.896 F6000
