; G-Code generated by Simplify3D(R) Version 4.0.1
; May 13, 2018 at 6:58:05 PM
; Settings Summary
;   processName,Process1
;   applyToModels,E3D Fan
;   profileName,PrusaMK2S
;   profileVersion,2018-03-06 01:09:59
;   baseProfile,Default
;   printMaterial,PLA-Sakata3D-Gris870
;   printQuality,Fast 0.2
;   printExtruders,
;   extruderName,Extruder 1
;   extruderToolheadNumber,0
;   extruderDiameter,0.4
;   extruderAutoWidth,0
;   extruderWidth,0.4
;   extrusionMultiplier,0.95
;   extruderUseRetract,1
;   extruderRetractionDistance,2.3
;   extruderExtraRestartDistance,0
;   extruderRetractionZLift,0.3
;   extruderRetractionSpeed,4800
;   extruderUseCoasting,0
;   extruderCoastingDistance,0.1
;   extruderUseWipe,0
;   extruderWipeDistance,2
;   primaryExtruder,0
;   layerHeight,0.2
;   topSolidLayers,4
;   bottomSolidLayers,3
;   perimeterOutlines,2
;   printPerimetersInsideOut,1
;   startPointOption,2
;   startPointOriginX,0
;   startPointOriginY,0
;   sequentialIslands,0
;   spiralVaseMode,0
;   firstLayerHeightPercentage,75
;   firstLayerWidthPercentage,95
;   firstLayerUnderspeed,0.2
;   useRaft,0
;   raftExtruder,0
;   raftTopLayers,3
;   raftBaseLayers,2
;   raftOffset,3
;   raftSeparationDistance,0.14
;   raftTopInfill,100
;   aboveRaftSpeedMultiplier,0.3
;   useSkirt,1
;   skirtExtruder,0
;   skirtLayers,1
;   skirtOutlines,1
;   skirtOffset,5
;   usePrimePillar,0
;   primePillarExtruder,999
;   primePillarWidth,12
;   primePillarLocation,7
;   primePillarSpeedMultiplier,1
;   useOozeShield,0
;   oozeShieldExtruder,999
;   oozeShieldOffset,2
;   oozeShieldOutlines,1
;   oozeShieldSidewallShape,1
;   oozeShieldSidewallAngle,30
;   oozeShieldSpeedMultiplier,1
;   infillExtruder,0
;   internalInfillPattern,Grid
;   externalInfillPattern,Rectilinear
;   infillPercentage,100
;   outlineOverlapPercentage,25
;   infillExtrusionWidthPercentage,100
;   minInfillLength,2
;   infillLayerInterval,1
;   internalInfillAngles,45,-45
;   overlapInternalInfillAngles,1
;   externalInfillAngles,45,-45
;   generateSupport,0
;   supportExtruder,0
;   supportInfillPercentage,20
;   supportExtraInflation,0
;   supportBaseLayers,0
;   denseSupportExtruder,0
;   denseSupportLayers,0
;   denseSupportInfillPercentage,70
;   supportLayerInterval,1
;   supportHorizontalPartOffset,0.3
;   supportUpperSeparationLayers,1
;   supportLowerSeparationLayers,1
;   supportType,1
;   supportGridSpacing,4
;   maxOverhangAngle,45
;   supportAngles,0
;   temperatureName,Extruder 1
;   temperatureNumber,0
;   temperatureSetpointCount,1
;   temperatureSetpointLayers,1
;   temperatureSetpointTemperatures,205
;   temperatureStabilizeAtStartup,1
;   temperatureHeatedBed,0
;   temperatureRelayBetweenLayers,0
;   temperatureRelayBetweenLoops,0
;   fanLayers,1,3,4,5
;   fanSpeeds,0,30,50,60
;   blipFanToFullPower,0
;   adjustSpeedForCooling,1
;   minSpeedLayerTime,15
;   minCoolingSpeedSlowdown,20
;   increaseFanForCooling,1
;   minFanLayerTime,30
;   maxCoolingFanSpeed,100
;   increaseFanForBridging,1
;   bridgingFanSpeed,100
;   use5D,1
;   relativeEdistances,1
;   allowEaxisZeroing,1
;   independentExtruderAxes,0
;   includeM10123,0
;   stickySupport,1
;   applyToolheadOffsets,0
;   gcodeXoffset,0
;   gcodeYoffset,0
;   gcodeZoffset,0
;   overrideMachineDefinition,1
;   machineTypeOverride,0
;   strokeXoverride,190
;   strokeYoverride,145
;   strokeZoverride,129
;   originOffsetXoverride,0
;   originOffsetYoverride,0
;   originOffsetZoverride,0
;   homeXdirOverride,-1
;   homeYdirOverride,-1
;   homeZdirOverride,-1
;   flipXoverride,1
;   flipYoverride,-1
;   flipZoverride,1
;   toolheadOffsets,0,0|0,0|0,0|0,0|0,0|0,0
;   overrideFirmwareConfiguration,0
;   firmwareTypeOverride,RepRap (Marlin/Repetier/Sprinter)
;   GPXconfigOverride,r2
;   baudRateOverride,115200
;   overridePrinterModels,0
;   printerModelsOverride
;   startingGcode,G29 S1		; Load Mesh Bed Levelling,; Clean Nozzle,G90			; Absolute Positioning,G1 Z5 F5000 		; Lift Nozzle,;G1 X65 Y-5,;G1 Z0.45  F200 		; Move Z to Cleaning Height,;G1 X105 E15 F200,G1 X0 Y0.0 Z0.2 F1000.0 ; go outside print area,G92 E0.0,G1 X60.0 E9.0  F1000.0 ; intro line,G1 X100.0 E12.5  F1000.0 ; intro line,;G1 Z5 F300		; Lift Nozzle,;M98 P/macros/Limpieza
;   layerChangeGcode,
;   retractionGcode,
;   toolChangeGcode,
;   endingGcode,G1 X0,M106 S0 ; turn off fan,G10 P0 R-273.15 S-273.15 ,G10 P0 R0 S0,M140 S0 ; turn off bed,G1 Y300,G91,G1 Z+5,G90,M98 P/macros/Final
;   exportFileFormat,gcode
;   celebration,0
;   celebrationSong,Random Song
;   postProcessing,
;   defaultSpeed,3000
;   outlineUnderspeed,0.4
;   solidInfillUnderspeed,1
;   supportUnderspeed,0.5
;   rapidXYspeed,6000
;   rapidZspeed,1002
;   minBridgingArea,5
;   bridgingExtraInflation,0
;   bridgingExtrusionMultiplier,0.8
;   bridgingSpeedMultiplier,2
;   useFixedBridgingAngle,0
;   fixedBridgingAngle,0
;   applyBridgingToPerimeters,0
;   filamentDiameters,1.75|1.75|1.75|1.75|1.75|1.75
;   filamentPricesPerKg,23|46|46|46|46|46
;   filamentDensities,1.25|1.25|1.25|1.25|1.25|1.25
;   useMinPrintHeight,0
;   minPrintHeight,0
;   useMaxPrintHeight,0
;   maxPrintHeight,18
;   useDiaphragm,0
;   diaphragmLayerInterval,20
;   robustSlicing,1
;   mergeAllIntoSolid,0
;   onlyRetractWhenCrossingOutline,1
;   retractBetweenLayers,1
;   useRetractionMinTravel,1
;   retractionMinTravel,5
;   retractWhileWiping,1
;   onlyWipeOutlines,0
;   avoidCrossingOutline,1
;   maxMovementDetourFactor,5
;   toolChangeRetractionDistance,12
;   toolChangeExtraRestartDistance,-0.5
;   toolChangeRetractionSpeed,600
;   externalThinWallType,0
;   internalThinWallType,2
;   thinWallAllowedOverlapPercentage,10
;   singleExtrusionMinLength,1
;   singleExtrusionMinPrintingWidthPercentage,50
;   singleExtrusionMaxPrintingWidthPercentage,200
;   singleExtrusionEndpointExtension,0.2
;   horizontalSizeCompensation,0
G90
M83
M106 S0
M104 S205 T0
M109 S205 T0
G29 S1		; Load Mesh Bed Levelling
; Clean Nozzle
G90			; Absolute Positioning
G1 Z5 F5000 		; Lift Nozzle
;G1 X65 Y-5
;G1 Z0.45  F200 		; Move Z to Cleaning Height
;G1 X105 E15 F200
G1 X0 Y0.0 Z0.2 F1000.0 ; go outside print area
G92 E0.0
G1 X60.0 E9.0  F1000.0 ; intro line
G1 X100.0 E12.5  F1000.0 ; intro line
;G1 Z5 F300		; Lift Nozzle
;M98 P/macros/Limpieza
G1 E-2.3000 F4800
G1 Z0.450 F1002
; process Process1
; layer 1, Z = 0.150
T0
; tool H0.200 W0.380
; skirt
G1 X69.217 Y29.074 F6000
G1 Z0.150 F1002
G1 E2.3000 F1440
G1 X72.202 Y26.089 E0.1267 F600
G1 X72.275 Y26.058 E0.0024
G1 X83.495 Y26.058 E0.3368
G1 X83.569 Y26.089 E0.0024
G1 X86.554 Y29.074 E0.1267
G1 X86.584 Y29.147 E0.0024
G1 X86.584 Y35.742 E0.1980
G1 X86.554 Y35.816 E0.0024
G1 X85.435 Y36.935 E0.0475
G1 X105.333 Y36.941 E0.5973
G1 X105.339 Y36.941 E0.0002
G1 X105.686 Y36.965 E0.0104
G1 X105.693 Y36.965 E0.0002
G1 X106.622 Y37.093 E0.0281
G1 X106.630 Y37.095 E0.0003
G1 X107.055 Y37.190 E0.0131
G1 X107.063 Y37.193 E0.0003
G1 X108.258 Y37.572 E0.0376
G1 X108.266 Y37.575 E0.0003
G1 X108.669 Y37.742 E0.0131
G1 X108.677 Y37.745 E0.0003
G1 X109.548 Y38.197 E0.0295
G1 X109.556 Y38.201 E0.0003
G1 X109.924 Y38.434 E0.0131
G1 X109.931 Y38.439 E0.0003
G1 X110.930 Y39.196 E0.0376
G1 X110.937 Y39.202 E0.0003
G1 X111.260 Y39.493 E0.0131
G1 X111.266 Y39.499 E0.0003
G1 X111.936 Y40.217 E0.0295
G1 X111.942 Y40.223 E0.0003
G1 X112.211 Y40.566 E0.0131
G1 X112.216 Y40.573 E0.0003
G1 X112.927 Y41.658 E0.0389
G1 X112.932 Y41.666 E0.0003
G1 X113.173 Y42.131 E0.0157
G1 X113.177 Y42.140 E0.0003
G1 X113.653 Y43.347 E0.0389
G1 X113.656 Y43.355 E0.0003
G1 X113.781 Y43.772 E0.0131
G1 X113.783 Y43.781 E0.0003
G1 X113.974 Y44.699 E0.0282
G1 X113.975 Y44.706 E0.0002
G1 X114.022 Y45.051 E0.0105
G1 X114.023 Y45.058 E0.0002
G1 X114.078 Y45.863 E0.0242
G1 X114.078 Y45.867 E0.0001
G1 X114.084 Y46.041 E0.0052
G1 X114.084 Y46.044 E0.0001
G1 X114.084 Y69.244 E0.6964
G1 X114.084 Y69.248 E0.0001
G1 X114.074 Y69.472 E0.0067
G1 X114.074 Y69.476 E0.0001
G1 X113.999 Y70.330 E0.0257
G1 X113.998 Y70.339 E0.0003
G1 X113.920 Y70.778 E0.0134
G1 X113.918 Y70.786 E0.0003
G1 X113.667 Y71.722 E0.0291
G1 X113.665 Y71.730 E0.0003
G1 X113.512 Y72.148 E0.0134
G1 X113.509 Y72.156 E0.0003
G1 X113.099 Y73.034 E0.0291
G1 X113.095 Y73.042 E0.0003
G1 X112.872 Y73.427 E0.0134
G1 X112.867 Y73.435 E0.0003
G1 X112.312 Y74.228 E0.0291
G1 X112.306 Y74.235 E0.0003
G1 X112.020 Y74.576 E0.0134
G1 X112.014 Y74.582 E0.0003
G1 X111.329 Y75.267 E0.0291
G1 X111.322 Y75.273 E0.0003
G1 X110.981 Y75.559 E0.0134
G1 X110.974 Y75.564 E0.0003
G1 X110.180 Y76.119 E0.0291
G1 X110.173 Y76.124 E0.0003
G1 X109.787 Y76.346 E0.0134
G1 X109.779 Y76.350 E0.0003
G1 X108.901 Y76.759 E0.0291
G1 X108.893 Y76.762 E0.0003
G1 X108.475 Y76.914 E0.0134
G1 X108.466 Y76.917 E0.0003
G1 X107.517 Y77.171 E0.0295
G1 X107.508 Y77.173 E0.0003
G1 X107.041 Y77.252 E0.0142
G1 X107.032 Y77.253 E0.0003
G1 X106.101 Y77.324 E0.0280
G1 X106.097 Y77.324 E0.0001
G1 X105.905 Y77.331 E0.0058
G1 X105.901 Y77.331 E0.0001
G1 X77.272 Y77.331 E0.8594
G1 X77.268 Y77.331 E0.0001
G1 X77.043 Y77.321 E0.0067
G1 X77.039 Y77.321 E0.0001
G1 X76.185 Y77.246 E0.0257
G1 X76.176 Y77.244 E0.0003
G1 X75.737 Y77.167 E0.0134
G1 X75.729 Y77.165 E0.0003
G1 X74.794 Y76.914 E0.0291
G1 X74.786 Y76.911 E0.0003
G1 X74.367 Y76.758 E0.0134
G1 X74.359 Y76.755 E0.0003
G1 X73.482 Y76.345 E0.0291
G1 X73.474 Y76.341 E0.0003
G1 X73.088 Y76.118 E0.0134
G1 X73.081 Y76.114 E0.0003
G1 X72.288 Y75.558 E0.0291
G1 X72.281 Y75.552 E0.0003
G1 X71.940 Y75.266 E0.0134
G1 X71.934 Y75.260 E0.0003
G1 X71.250 Y74.575 E0.0291
G1 X71.244 Y74.568 E0.0003
G1 X70.958 Y74.227 E0.0134
G1 X70.953 Y74.220 E0.0003
G1 X70.398 Y73.427 E0.0291
G1 X70.393 Y73.419 E0.0003
G1 X70.171 Y73.033 E0.0134
G1 X70.167 Y73.026 E0.0003
G1 X69.758 Y72.148 E0.0291
G1 X69.755 Y72.140 E0.0003
G1 X69.603 Y71.721 E0.0134
G1 X69.600 Y71.713 E0.0003
G1 X69.350 Y70.778 E0.0290
G1 X69.349 Y70.770 E0.0003
G1 X69.272 Y70.333 E0.0133
G1 X69.271 Y70.324 E0.0003
G1 X69.196 Y69.476 E0.0256
G1 X69.196 Y69.471 E0.0001
G1 X69.186 Y69.249 E0.0067
G1 X69.186 Y69.245 E0.0001
G1 X69.186 Y40.020 E0.8772
G1 X69.217 Y39.946 E0.0024
G1 X71.282 Y37.881 E0.0877
G1 X69.217 Y35.816 E0.0877
G1 X69.186 Y35.742 E0.0024
G1 X69.186 Y29.147 E0.1980
G1 X69.217 Y29.074 E0.0024
G1 E-2.3000 F4800
G1 Z0.450 F1002
; inner perimeter
G1 X74.572 Y31.444 F6000
G1 X74.572 Y31.644 F6000
G1 X74.956 Y31.828 F6000
G1 Z0.150 F1002
G1 E2.3000 F4800
G1 X80.814 Y31.828 E0.1758 F420
G1 X80.814 Y33.061 E0.0370
G1 X74.956 Y33.061 E0.1758
G1 X74.956 Y31.828 E0.0370
; outer perimeter
G1 X74.576 Y31.448 F6000
G1 X81.194 Y31.448 E0.1987 F240
G1 X81.194 Y33.441 E0.0598
G1 X74.576 Y33.441 E0.1987
G1 X74.576 Y31.448 E0.0598
; solid layer
G1 X75.642 Y32.776 F6000
G1 X75.241 Y32.375 E0.0170 F600
G1 X75.241 Y32.113 E0.0079
G1 X75.517 Y32.113 E0.0083
G1 X76.180 Y32.776 E0.0281
G1 X76.717 Y32.776 E0.0161
G1 X76.054 Y32.113 E0.0281
G1 X76.592 Y32.113 E0.0161
G1 X77.255 Y32.776 E0.0281
G1 X77.792 Y32.776 E0.0161
G1 X77.129 Y32.113 E0.0281
G1 X77.666 Y32.113 E0.0161
G1 X78.329 Y32.776 E0.0281
G1 X78.867 Y32.776 E0.0161
G1 X78.204 Y32.113 E0.0281
G1 X78.741 Y32.113 E0.0161
G1 X79.404 Y32.776 E0.0281
G1 X79.942 Y32.776 E0.0161
G1 X79.279 Y32.113 E0.0281
G1 X79.816 Y32.113 E0.0161
G1 X80.479 Y32.776 E0.0281
G1 X80.529 Y32.776 E0.0015
G1 X80.529 Y32.289 E0.0146
G1 X80.353 Y32.113 E0.0075
G1 E-2.3000 F4800
G1 Z0.450 F1002
; inner perimeter
G1 X79.675 Y33.445 F6000
G1 X74.572 Y33.445 F6000
G1 X74.956 Y42.701 F6000
G1 Z0.150 F1002
G1 E2.3000 F4800
G1 X105.118 Y42.711 E0.9054 F420
G1 X105.582 Y42.774 E0.0141
G1 X106.042 Y42.903 E0.0143
G1 X106.241 Y42.982 E0.0064
G1 X106.666 Y43.202 E0.0143
G1 X107.056 Y43.477 E0.0143
G1 X107.218 Y43.618 E0.0064
G1 X107.550 Y43.975 E0.0146
G1 X107.680 Y44.146 E0.0064
G1 X107.933 Y44.562 E0.0146
G1 X108.026 Y44.756 E0.0064
G1 X108.186 Y45.206 E0.0143
G1 X108.281 Y45.664 E0.0140
G1 X108.314 Y46.151 E0.0146
G1 X108.314 Y69.107 E0.6891
G1 X108.275 Y69.554 E0.0135
G1 X108.165 Y69.963 E0.0127
G1 X107.986 Y70.346 E0.0127
G1 X107.743 Y70.693 E0.0127
G1 X107.444 Y70.992 E0.0127
G1 X107.097 Y71.234 E0.0127
G1 X106.713 Y71.413 E0.0127
G1 X106.307 Y71.522 E0.0126
G1 X105.783 Y71.561 E0.0158
G1 X96.386 Y71.561 E0.2821
G1 X96.349 Y71.261 E0.0091
G1 X96.883 Y71.128 E0.0165
G1 X97.844 Y70.817 E0.0303
G1 X98.778 Y70.442 E0.0302
G1 X99.689 Y69.999 E0.0304
G1 X100.562 Y69.499 E0.0302
G1 X101.403 Y68.935 E0.0304
G1 X102.203 Y68.315 E0.0304
G1 X102.955 Y67.643 E0.0303
G1 X103.659 Y66.920 E0.0303
G1 X104.311 Y66.150 E0.0303
G1 X104.908 Y65.337 E0.0303
G1 X105.450 Y64.480 E0.0304
G1 X105.929 Y63.592 E0.0303
G1 X106.345 Y62.673 E0.0303
G1 X106.698 Y61.724 E0.0304
G1 X106.984 Y60.748 E0.0305
G1 X107.200 Y59.767 E0.0301
G1 X107.350 Y58.755 E0.0307
G1 X107.428 Y57.747 E0.0304
G1 X107.435 Y56.736 E0.0303
G1 X107.373 Y55.728 E0.0303
G1 X107.241 Y54.730 E0.0302
G1 X107.043 Y53.750 E0.0300
G1 X106.775 Y52.777 E0.0303
G1 X106.439 Y51.825 E0.0303
G1 X106.039 Y50.898 E0.0303
G1 X105.572 Y49.995 E0.0305
G1 X105.053 Y49.143 E0.0299
G1 X104.577 Y48.470 E0.0247
G1 X104.554 Y48.222 E0.0075
G1 X104.474 Y47.937 E0.0089
G1 X104.361 Y47.677 E0.0085
G1 X104.215 Y47.437 E0.0084
G1 X104.030 Y47.210 E0.0088
G1 X103.726 Y46.944 E0.0121
G1 X103.475 Y46.792 E0.0088
G1 X103.216 Y46.679 E0.0085
G1 X102.944 Y46.603 E0.0085
G1 X102.663 Y46.565 E0.0085
G1 X83.103 Y46.565 E0.5871
G1 X82.814 Y46.605 E0.0088
G1 X82.419 Y46.730 E0.0124
G1 X82.049 Y46.938 E0.0127
G1 X81.730 Y47.216 E0.0127
G1 X81.474 Y47.554 E0.0127
G1 X81.292 Y47.937 E0.0127
G1 X81.193 Y48.343 E0.0125
G1 X81.185 Y48.479 E0.0041
G1 X80.715 Y49.143 E0.0244
G1 X80.190 Y50.008 E0.0304
G1 X79.727 Y50.903 E0.0303
G1 X79.327 Y51.829 E0.0303
G1 X78.992 Y52.781 E0.0303
G1 X78.724 Y53.757 E0.0304
G1 X78.524 Y54.745 E0.0303
G1 X78.393 Y55.748 E0.0303
G1 X78.332 Y56.756 E0.0303
G1 X78.341 Y57.765 E0.0303
G1 X78.420 Y58.773 E0.0303
G1 X78.569 Y59.771 E0.0303
G1 X78.787 Y60.760 E0.0304
G1 X79.073 Y61.731 E0.0304
G1 X79.425 Y62.677 E0.0303
G1 X79.842 Y63.596 E0.0303
G1 X80.321 Y64.485 E0.0303
G1 X80.864 Y65.342 E0.0305
G1 X81.462 Y66.155 E0.0303
G1 X82.115 Y66.925 E0.0303
G1 X82.819 Y67.648 E0.0303
G1 X83.575 Y68.322 E0.0304
G1 X84.376 Y68.943 E0.0304
G1 X85.213 Y69.503 E0.0302
G1 X86.094 Y70.007 E0.0305
G1 X87.000 Y70.446 E0.0302
G1 X87.939 Y70.822 E0.0304
G1 X88.902 Y71.133 E0.0304
G1 X89.419 Y71.261 E0.0160
G1 X89.382 Y71.561 E0.0091
G1 X77.409 Y71.561 E0.3594
G1 X76.963 Y71.522 E0.0134
G1 X76.554 Y71.412 E0.0127
G1 X76.171 Y71.233 E0.0127
G1 X75.824 Y70.990 E0.0127
G1 X75.525 Y70.691 E0.0127
G1 X75.283 Y70.344 E0.0127
G1 X75.104 Y69.960 E0.0127
G1 X74.995 Y69.551 E0.0127
G1 X74.956 Y69.108 E0.0133
G1 X74.956 Y42.701 E0.7927
; outer perimeter
G1 X74.576 Y42.321 F6000
G1 X105.144 Y42.331 E0.9176 F240
G1 X105.659 Y42.401 E0.0156
G1 X106.163 Y42.543 E0.0157
G1 X106.399 Y42.636 E0.0076
G1 X106.864 Y42.876 E0.0157
G1 X107.291 Y43.178 E0.0157
G1 X107.482 Y43.345 E0.0076
G1 X107.842 Y43.730 E0.0158
G1 X107.995 Y43.932 E0.0076
G1 X108.268 Y44.381 E0.0158
G1 X108.377 Y44.610 E0.0076
G1 X108.552 Y45.103 E0.0157
G1 X108.658 Y45.613 E0.0156
G1 X108.694 Y46.138 E0.0158
G1 X108.694 Y69.124 E0.6900
G1 X108.651 Y69.620 E0.0150
G1 X108.524 Y70.093 E0.0147
G1 X108.316 Y70.537 E0.0147
G1 X108.035 Y70.938 E0.0147
G1 X107.689 Y71.284 E0.0147
G1 X107.287 Y71.565 E0.0147
G1 X106.843 Y71.772 E0.0147
G1 X106.371 Y71.898 E0.0147
G1 X105.797 Y71.941 E0.0173
G1 X77.393 Y71.941 E0.8526
G1 X76.896 Y71.897 E0.0149
G1 X76.424 Y71.770 E0.0147
G1 X75.980 Y71.563 E0.0147
G1 X75.579 Y71.282 E0.0147
G1 X75.233 Y70.936 E0.0147
G1 X74.952 Y70.534 E0.0147
G1 X74.746 Y70.090 E0.0147
G1 X74.619 Y69.617 E0.0147
G1 X74.576 Y69.125 E0.0148
G1 X74.576 Y42.321 E0.8046
; inner perimeter
G1 X79.171 Y44.509 F6000
G1 X79.079 Y44.878 E0.0114 F420
G1 X79.066 Y45.249 E0.0111
G1 X79.104 Y45.521 E0.0082
G1 X79.219 Y45.874 E0.0111
G1 X79.410 Y46.203 E0.0114
G1 X79.665 Y46.487 E0.0114
G1 X79.973 Y46.710 E0.0114
G1 X80.321 Y46.865 E0.0114
G1 X80.684 Y46.942 E0.0111
G1 X80.958 Y46.952 E0.0082
G1 X81.326 Y46.900 E0.0112
G1 X81.675 Y46.773 E0.0111
