; G-Code generated by Simplify3D(R) Version 4.0.1
; Apr 28, 2018 at 12:02:53 PM
; Settings Summary
;   processName,Process1
;   applyToModels,Lat Der - 495,Lat Izq - 495
;   profileName,PrusaMK2S
;   profileVersion,2018-03-06 01:09:59
;   baseProfile,Default
;   printMaterial,PLA-Sakata3D-Gris870
;   printQuality,Fast 0.2
;   printExtruders,
;   extruderName,Extruder 1
;   extruderToolheadNumber,0
;   extruderDiameter,0.4
;   extruderAutoWidth,0
;   extruderWidth,0.4
;   extrusionMultiplier,0.95
;   extruderUseRetract,1
;   extruderRetractionDistance,2.2
;   extruderExtraRestartDistance,0
;   extruderRetractionZLift,0.3
;   extruderRetractionSpeed,4800
;   extruderUseCoasting,1
;   extruderCoastingDistance,0.3
;   extruderUseWipe,0
;   extruderWipeDistance,2
;   primaryExtruder,0
;   layerHeight,0.2
;   topSolidLayers,4
;   bottomSolidLayers,3
;   perimeterOutlines,2
;   printPerimetersInsideOut,1
;   startPointOption,2
;   startPointOriginX,0
;   startPointOriginY,0
;   sequentialIslands,0
;   spiralVaseMode,0
;   firstLayerHeightPercentage,75
;   firstLayerWidthPercentage,95
;   firstLayerUnderspeed,0.2
;   useRaft,0
;   raftExtruder,0
;   raftTopLayers,3
;   raftBaseLayers,2
;   raftOffset,3
;   raftSeparationDistance,0.14
;   raftTopInfill,100
;   aboveRaftSpeedMultiplier,0.3
;   useSkirt,1
;   skirtExtruder,0
;   skirtLayers,1
;   skirtOutlines,1
;   skirtOffset,5
;   usePrimePillar,0
;   primePillarExtruder,999
;   primePillarWidth,12
;   primePillarLocation,7
;   primePillarSpeedMultiplier,1
;   useOozeShield,0
;   oozeShieldExtruder,999
;   oozeShieldOffset,2
;   oozeShieldOutlines,1
;   oozeShieldSidewallShape,1
;   oozeShieldSidewallAngle,30
;   oozeShieldSpeedMultiplier,1
;   infillExtruder,0
;   internalInfillPattern,Grid
;   externalInfillPattern,Rectilinear
;   infillPercentage,100
;   outlineOverlapPercentage,25
;   infillExtrusionWidthPercentage,100
;   minInfillLength,2
;   infillLayerInterval,1
;   internalInfillAngles,45,-45
;   overlapInternalInfillAngles,1
;   externalInfillAngles,45,-45
;   generateSupport,0
;   supportExtruder,0
;   supportInfillPercentage,20
;   supportExtraInflation,0
;   supportBaseLayers,0
;   denseSupportExtruder,0
;   denseSupportLayers,0
;   denseSupportInfillPercentage,70
;   supportLayerInterval,1
;   supportHorizontalPartOffset,0.3
;   supportUpperSeparationLayers,1
;   supportLowerSeparationLayers,1
;   supportType,1
;   supportGridSpacing,4
;   maxOverhangAngle,45
;   supportAngles,0
;   temperatureName,Extruder 1
;   temperatureNumber,0
;   temperatureSetpointCount,1
;   temperatureSetpointLayers,1
;   temperatureSetpointTemperatures,205
;   temperatureStabilizeAtStartup,1
;   temperatureHeatedBed,0
;   temperatureRelayBetweenLayers,0
;   temperatureRelayBetweenLoops,0
;   fanLayers,1,3,4,5
;   fanSpeeds,0,30,50,60
;   blipFanToFullPower,0
;   adjustSpeedForCooling,1
;   minSpeedLayerTime,15
;   minCoolingSpeedSlowdown,20
;   increaseFanForCooling,1
;   minFanLayerTime,30
;   maxCoolingFanSpeed,100
;   increaseFanForBridging,1
;   bridgingFanSpeed,100
;   use5D,1
;   relativeEdistances,1
;   allowEaxisZeroing,1
;   independentExtruderAxes,0
;   includeM10123,0
;   stickySupport,1
;   applyToolheadOffsets,0
;   gcodeXoffset,0
;   gcodeYoffset,0
;   gcodeZoffset,0
;   overrideMachineDefinition,1
;   machineTypeOverride,0
;   strokeXoverride,190
;   strokeYoverride,145
;   strokeZoverride,129
;   originOffsetXoverride,0
;   originOffsetYoverride,0
;   originOffsetZoverride,0
;   homeXdirOverride,-1
;   homeYdirOverride,-1
;   homeZdirOverride,-1
;   flipXoverride,1
;   flipYoverride,-1
;   flipZoverride,1
;   toolheadOffsets,0,0|0,0|0,0|0,0|0,0|0,0
;   overrideFirmwareConfiguration,0
;   firmwareTypeOverride,RepRap (Marlin/Repetier/Sprinter)
;   GPXconfigOverride,r2
;   baudRateOverride,115200
;   overridePrinterModels,0
;   printerModelsOverride
;   startingGcode,G29 S1		; Load Mesh Bed Levelling,; Clean Nozzle,G90			; Absolute Positioning,G1 Z5 F5000 		; Lift Nozzle,;G1 X65 Y-5,;G1 Z0.45  F200 		; Move Z to Cleaning Height,;G1 X105 E15 F200,G1 X0 Y0.0 Z0.2 F1000.0 ; go outside print area,G92 E0.0,G1 X60.0 E9.0  F1000.0 ; intro line,G1 X100.0 E12.5  F1000.0 ; intro line,;G1 Z5 F300		; Lift Nozzle,;M98 P/macros/Limpieza
;   layerChangeGcode,
;   retractionGcode,
;   toolChangeGcode,
;   endingGcode,G1 X0,M106 S0 ; turn off fan,G10 P0 R-273.15 S-273.15 ,M140 S0 ; turn off bed,G1 Y300,G91,G1 Z+5,G90,M98 P/macros/Final
;   exportFileFormat,gcode
;   celebration,0
;   celebrationSong,Random Song
;   postProcessing,
;   defaultSpeed,3000
;   outlineUnderspeed,0.4
;   solidInfillUnderspeed,1
;   supportUnderspeed,0.5
;   rapidXYspeed,6000
;   rapidZspeed,1002
;   minBridgingArea,5
;   bridgingExtraInflation,0
;   bridgingExtrusionMultiplier,0.8
;   bridgingSpeedMultiplier,2
;   useFixedBridgingAngle,0
;   fixedBridgingAngle,0
;   applyBridgingToPerimeters,0
;   filamentDiameters,1.75|1.75|1.75|1.75|1.75|1.75
;   filamentPricesPerKg,23|46|46|46|46|46
;   filamentDensities,1.25|1.25|1.25|1.25|1.25|1.25
;   useMinPrintHeight,0
;   minPrintHeight,0
;   useMaxPrintHeight,0
;   maxPrintHeight,18
;   useDiaphragm,0
;   diaphragmLayerInterval,20
;   robustSlicing,1
;   mergeAllIntoSolid,0
;   onlyRetractWhenCrossingOutline,1
;   retractBetweenLayers,1
;   useRetractionMinTravel,1
;   retractionMinTravel,5
;   retractWhileWiping,1
;   onlyWipeOutlines,1
;   avoidCrossingOutline,1
;   maxMovementDetourFactor,5
;   toolChangeRetractionDistance,12
;   toolChangeExtraRestartDistance,-0.5
;   toolChangeRetractionSpeed,600
;   externalThinWallType,0
;   internalThinWallType,2
;   thinWallAllowedOverlapPercentage,10
;   singleExtrusionMinLength,1
;   singleExtrusionMinPrintingWidthPercentage,50
;   singleExtrusionMaxPrintingWidthPercentage,200
;   singleExtrusionEndpointExtension,0.2
;   horizontalSizeCompensation,0
G90
M83
M106 S0
M104 S205 T0
M109 S205 T0
G29 S1		; Load Mesh Bed Levelling
; Clean Nozzle
G90			; Absolute Positioning
G1 Z5 F5000 		; Lift Nozzle
;G1 X65 Y-5
;G1 Z0.45  F200 		; Move Z to Cleaning Height
;G1 X105 E15 F200
G1 X0 Y0.0 Z0.2 F1000.0 ; go outside print area
G92 E0.0
G1 X60.0 E9.0  F1000.0 ; intro line
G1 X100.0 E12.5  F1000.0 ; intro line
;G1 Z5 F300		; Lift Nozzle
;M98 P/macros/Limpieza
G1 E-2.2000 F4800
G1 Z0.450 F1002
; process Process1
; layer 1, Z = 0.150
T0
; tool H0.200 W0.380
; skirt
G1 X5.323 Y7.402 F6000
G1 Z0.150 F1002
G1 E2.2000 F1440
G1 X6.243 Y6.781 E0.0333 F600
G1 X6.250 Y6.777 E0.0003
G1 X6.628 Y6.566 E0.0130
G1 X6.635 Y6.563 E0.0003
G1 X7.647 Y6.106 E0.0333
G1 X7.655 Y6.103 E0.0003
G1 X8.062 Y5.959 E0.0130
G1 X8.071 Y5.957 E0.0003
G1 X9.145 Y5.678 E0.0333
G1 X9.153 Y5.676 E0.0003
G1 X9.579 Y5.603 E0.0130
G1 X9.588 Y5.602 E0.0003
G1 X10.586 Y5.517 E0.0301
G1 X10.590 Y5.517 E0.0001
G1 X10.806 Y5.508 E0.0065
G1 X10.810 Y5.508 E0.0001
G1 X18.663 Y5.508 E0.2357
G1 X18.667 Y5.508 E0.0001
G1 X18.887 Y5.517 E0.0066
G1 X18.891 Y5.517 E0.0001
G1 X19.907 Y5.605 E0.0306
G1 X19.916 Y5.606 E0.0003
G1 X20.350 Y5.682 E0.0132
G1 X20.358 Y5.684 E0.0003
G1 X21.450 Y5.973 E0.0339
G1 X21.459 Y5.976 E0.0003
G1 X21.873 Y6.125 E0.0132
G1 X21.881 Y6.128 E0.0003
G1 X22.907 Y6.601 E0.0339
G1 X22.915 Y6.604 E0.0003
G1 X23.298 Y6.822 E0.0132
G1 X23.305 Y6.827 E0.0003
G1 X24.235 Y7.469 E0.0339
G1 X24.242 Y7.474 E0.0003
G1 X24.581 Y7.754 E0.0132
G1 X24.588 Y7.760 E0.0003
G1 X25.394 Y8.552 E0.0339
G1 X25.399 Y8.558 E0.0003
G1 X25.686 Y8.893 E0.0132
G1 X25.691 Y8.900 E0.0003
G1 X26.349 Y9.818 E0.0339
G1 X26.354 Y9.825 E0.0003
G1 X26.578 Y10.204 E0.0132
G1 X26.582 Y10.212 E0.0003
G1 X27.087 Y11.259 E0.0349
G1 X27.091 Y11.268 E0.0003
G1 X27.264 Y11.743 E0.0152
G1 X27.267 Y11.753 E0.0003
G1 X27.748 Y13.629 E0.0581
G1 X27.992 Y14.344 E0.0227
G1 X28.284 Y14.999 E0.0215
G1 X28.636 Y15.624 E0.0215
G1 X29.043 Y16.214 E0.0215
G1 X29.503 Y16.764 E0.0215
G1 X30.012 Y17.270 E0.0215
G1 X30.565 Y17.727 E0.0215
G1 X31.157 Y18.131 E0.0215
G1 X31.785 Y18.478 E0.0215
G1 X32.441 Y18.767 E0.0215
G1 X33.122 Y18.994 E0.0215
G1 X33.820 Y19.158 E0.0215
G1 X34.530 Y19.256 E0.0215
G1 X35.366 Y19.295 E0.0251
G1 X44.617 Y19.295 E0.2777
G1 X45.432 Y19.258 E0.0245
G1 X46.125 Y19.165 E0.0210
G1 X46.807 Y19.009 E0.0210
G1 X47.472 Y18.793 E0.0210
G1 X48.115 Y18.518 E0.0210
G1 X48.730 Y18.187 E0.0210
G1 X49.314 Y17.802 E0.0210
G1 X49.861 Y17.366 E0.0210
G1 X50.366 Y16.883 E0.0210
G1 X50.903 Y16.269 E0.0245
G1 X57.094 Y8.511 E0.2979
G1 X57.096 Y8.510 E0.0001
G1 X57.169 Y8.422 E0.0034
G1 X57.170 Y8.420 E0.0001
G1 X58.051 Y7.413 E0.0402
G1 X58.054 Y7.410 E0.0001
G1 X58.212 Y7.245 E0.0069
G1 X58.215 Y7.241 E0.0001
G1 X59.224 Y6.278 E0.0419
G1 X59.227 Y6.275 E0.0001
G1 X59.399 Y6.124 E0.0069
G1 X59.403 Y6.121 E0.0001
G1 X60.494 Y5.252 E0.0419
G1 X60.497 Y5.249 E0.0001
G1 X60.682 Y5.115 E0.0069
G1 X60.686 Y5.112 E0.0001
G1 X61.850 Y4.344 E0.0419
G1 X61.854 Y4.342 E0.0001
G1 X62.051 Y4.224 E0.0069
G1 X62.054 Y4.222 E0.0001
G1 X63.283 Y3.561 E0.0419
G1 X63.287 Y3.559 E0.0001
G1 X63.493 Y3.460 E0.0069
G1 X63.497 Y3.458 E0.0001
G1 X64.780 Y2.910 E0.0419
G1 X64.784 Y2.908 E0.0001
G1 X64.998 Y2.828 E0.0069
G1 X65.003 Y2.827 E0.0001
G1 X66.329 Y2.396 E0.0419
G1 X66.333 Y2.394 E0.0001
G1 X66.554 Y2.334 E0.0069
G1 X66.558 Y2.332 E0.0001
G1 X67.918 Y2.022 E0.0419
G1 X67.923 Y2.021 E0.0001
G1 X68.148 Y1.980 E0.0069
G1 X68.152 Y1.980 E0.0001
G1 X69.535 Y1.793 E0.0419
G1 X69.539 Y1.792 E0.0001
G1 X69.767 Y1.772 E0.0069
G1 X69.771 Y1.771 E0.0001
G1 X71.108 Y1.711 E0.0402
G1 X71.110 Y1.711 E0.0001
G1 X71.224 Y1.709 E0.0034
G1 X71.227 Y1.709 E0.0001
G1 X88.651 Y1.709 E0.5230
G1 X88.656 Y1.709 E0.0001
G1 X88.906 Y1.721 E0.0075
G1 X88.911 Y1.721 E0.0001
G1 X89.773 Y1.806 E0.0260
G1 X89.783 Y1.808 E0.0003
G1 X90.274 Y1.905 E0.0150
G1 X90.283 Y1.908 E0.0003
G1 X91.232 Y2.196 E0.0298
G1 X91.241 Y2.199 E0.0003
G1 X91.704 Y2.391 E0.0150
G1 X91.713 Y2.395 E0.0003
G1 X92.507 Y2.819 E0.0270
G1 X93.227 Y2.367 E0.0255
G1 X93.236 Y2.362 E0.0003
G1 X93.753 Y2.113 E0.0172
G1 X93.763 Y2.109 E0.0003
G1 X94.832 Y1.735 E0.0340
G1 X94.843 Y1.732 E0.0003
G1 X95.401 Y1.604 E0.0172
G1 X95.412 Y1.602 E0.0003
G1 X96.395 Y1.492 E0.0297
G1 X96.401 Y1.491 E0.0002
G1 X96.687 Y1.475 E0.0086
G1 X96.692 Y1.475 E0.0002
G1 X114.135 Y1.475 E0.5236
G1 X114.137 Y1.475 E0.0001
G1 X114.252 Y1.478 E0.0034
G1 X114.254 Y1.478 E0.0001
G1 X115.590 Y1.538 E0.0402
G1 X115.595 Y1.538 E0.0001
G1 X115.822 Y1.558 E0.0069
G1 X115.827 Y1.559 E0.0001
G1 X117.209 Y1.746 E0.0419
G1 X117.214 Y1.747 E0.0001
G1 X117.439 Y1.788 E0.0069
G1 X117.443 Y1.789 E0.0001
G1 X118.803 Y2.099 E0.0419
G1 X118.807 Y2.100 E0.0001
G1 X119.028 Y2.161 E0.0069
G1 X119.032 Y2.162 E0.0001
G1 X120.359 Y2.593 E0.0419
G1 X120.363 Y2.594 E0.0001
G1 X120.578 Y2.675 E0.0069
G1 X120.582 Y2.676 E0.0001
G1 X121.864 Y3.225 E0.0419
G1 X121.868 Y3.226 E0.0001
G1 X122.075 Y3.326 E0.0069
G1 X122.079 Y3.328 E0.0001
G1 X123.307 Y3.988 E0.0419
G1 X123.311 Y3.991 E0.0001
G1 X123.507 Y4.108 E0.0069
G1 X123.511 Y4.110 E0.0001
G1 X124.676 Y4.879 E0.0419
G1 X124.679 Y4.881 E0.0001
G1 X124.864 Y5.016 E0.0069
G1 X124.868 Y5.018 E0.0001
G1 X125.959 Y5.888 E0.0419
G1 X125.962 Y5.891 E0.0001
G1 X126.135 Y6.041 E0.0069
G1 X126.138 Y6.044 E0.0001
G1 X127.146 Y7.008 E0.0419
G1 X127.150 Y7.011 E0.0001
G1 X127.308 Y7.176 E0.0069
G1 X127.311 Y7.180 E0.0001
G1 X128.191 Y8.187 E0.0402
G1 X128.193 Y8.188 E0.0001
G1 X128.266 Y8.276 E0.0034
G1 X128.267 Y8.278 E0.0001
G1 X134.458 Y16.035 E0.2979
G1 X134.995 Y16.650 E0.0245
G1 X135.501 Y17.133 E0.0210
G1 X136.048 Y17.568 E0.0210
G1 X136.631 Y17.954 E0.0210
G1 X137.247 Y18.285 E0.0210
G1 X137.890 Y18.559 E0.0210
G1 X138.555 Y18.775 E0.0210
G1 X139.237 Y18.931 E0.0210
G1 X139.929 Y19.025 E0.0210
G1 X140.744 Y19.061 E0.0245
G1 X149.987 Y19.061 E0.2774
G1 X150.881 Y19.017 E0.0269
G1 X151.640 Y18.904 E0.0230
G1 X152.384 Y18.717 E0.0230
G1 X153.105 Y18.458 E0.0230
G1 X153.798 Y18.129 E0.0230
G1 X154.454 Y17.735 E0.0230
G1 X155.085 Y17.264 E0.0236
G1 X155.650 Y16.748 E0.0230
G1 X156.159 Y16.182 E0.0228
G1 X156.610 Y15.569 E0.0228
G1 X157.005 Y14.903 E0.0233
G1 X157.332 Y14.202 E0.0232
G1 X157.596 Y13.454 E0.0238
G1 X158.099 Y11.505 E0.0604
G1 X158.102 Y11.495 E0.0003
G1 X158.276 Y11.023 E0.0151
G1 X158.280 Y11.014 E0.0003
G1 X158.784 Y9.969 E0.0348
G1 X158.788 Y9.961 E0.0003
G1 X159.013 Y9.583 E0.0132
G1 X159.018 Y9.576 E0.0003
G1 X159.676 Y8.659 E0.0339
G1 X159.682 Y8.652 E0.0003
G1 X159.968 Y8.318 E0.0132
G1 X159.974 Y8.312 E0.0003
G1 X160.779 Y7.522 E0.0339
G1 X160.786 Y7.516 E0.0003
G1 X161.125 Y7.236 E0.0132
G1 X161.132 Y7.231 E0.0003
G1 X162.061 Y6.591 E0.0339
G1 X162.069 Y6.586 E0.0003
G1 X162.451 Y6.369 E0.0132
G1 X162.459 Y6.365 E0.0003
G1 X163.484 Y5.893 E0.0339
G1 X163.492 Y5.890 E0.0003
G1 X163.906 Y5.741 E0.0132
G1 X163.914 Y5.739 E0.0003
G1 X165.005 Y5.450 E0.0339
G1 X165.014 Y5.448 E0.0003
G1 X165.447 Y5.373 E0.0132
G1 X165.456 Y5.372 E0.0003
G1 X166.470 Y5.284 E0.0306
G1 X166.475 Y5.284 E0.0001
G1 X166.694 Y5.274 E0.0066
G1 X166.699 Y5.274 E0.0001
G1 X174.552 Y5.274 E0.2357
G1 X174.556 Y5.274 E0.0001
G1 X174.772 Y5.283 E0.0065
G1 X174.776 Y5.284 E0.0001
G1 X175.774 Y5.368 E0.0301
G1 X175.782 Y5.369 E0.0003
G1 X176.209 Y5.442 E0.0130
G1 X176.217 Y5.444 E0.0003
G1 X177.291 Y5.723 E0.0333
G1 X177.299 Y5.726 E0.0003
G1 X177.707 Y5.870 E0.0130
G1 X177.715 Y5.873 E0.0003
G1 X178.726 Y6.329 E0.0333
G1 X178.734 Y6.333 E0.0003
G1 X179.112 Y6.543 E0.0130
G1 X179.119 Y6.548 E0.0003
G1 X180.039 Y7.168 E0.0333
G1 X180.046 Y7.173 E0.0003
G1 X180.383 Y7.445 E0.0130
G1 X180.389 Y7.450 E0.0003
G1 X181.191 Y8.217 E0.0333
G1 X181.197 Y8.223 E0.0003
G1 X181.483 Y8.547 E0.0130
G1 X181.489 Y8.554 E0.0003
G1 X182.150 Y9.445 E0.0333
G1 X182.155 Y9.452 E0.0003
G1 X182.382 Y9.820 E0.0130
G1 X182.386 Y9.827 E0.0003
G1 X182.888 Y10.817 E0.0333
G1 X182.892 Y10.825 E0.0003
G1 X183.054 Y11.226 E0.0130
G1 X183.057 Y11.234 E0.0003
G1 X183.384 Y12.294 E0.0333
G1 X183.386 Y12.302 E0.0003
G1 X183.478 Y12.725 E0.0130
G1 X183.480 Y12.733 E0.0003
G1 X183.610 Y13.726 E0.0301
G1 X183.610 Y13.730 E0.0001
G1 X183.629 Y13.946 E0.0065
G1 X183.629 Y13.950 E0.0001
G1 X184.942 Y42.935 E0.8709
G1 X184.942 Y42.937 E0.0001
G1 X184.944 Y43.059 E0.0036
G1 X184.944 Y43.061 E0.0001
G1 X184.941 Y44.431 E0.0411
G1 X184.941 Y44.435 E0.0001
G1 X184.929 Y44.677 E0.0073
G1 X184.929 Y44.682 E0.0001
G1 X184.790 Y46.106 E0.0429
G1 X184.789 Y46.110 E0.0001
G1 X184.754 Y46.350 E0.0073
G1 X184.753 Y46.355 E0.0001
G1 X184.480 Y47.759 E0.0429
G1 X184.479 Y47.764 E0.0001
G1 X184.421 Y47.999 E0.0073
G1 X184.420 Y48.004 E0.0001
G1 X184.014 Y49.375 E0.0429
G1 X184.013 Y49.380 E0.0001
G1 X183.933 Y49.609 E0.0073
G1 X183.931 Y49.613 E0.0001
G1 X183.398 Y50.940 E0.0429
G1 X183.396 Y50.944 E0.0001
G1 X183.295 Y51.165 E0.0073
G1 X183.292 Y51.169 E0.0001
G1 X182.635 Y52.439 E0.0429
G1 X182.633 Y52.443 E0.0001
G1 X182.511 Y52.653 E0.0073
G1 X182.509 Y52.657 E0.0001
G1 X181.734 Y53.859 E0.0429
G1 X181.731 Y53.863 E0.0001
G1 X181.590 Y54.061 E0.0073
G1 X181.587 Y54.064 E0.0001
G1 X180.702 Y55.188 E0.0429
G1 X180.699 Y55.191 E0.0001
G1 X180.540 Y55.374 E0.0073
G1 X180.536 Y55.378 E0.0001
G1 X179.548 Y56.412 E0.0429
G1 X179.545 Y56.415 E0.0001
G1 X179.369 Y56.582 E0.0073
G1 X179.366 Y56.585 E0.0001
G1 X178.284 Y57.521 E0.0429
G1 X178.280 Y57.524 E0.0001
G1 X178.089 Y57.674 E0.0073
G1 X178.086 Y57.676 E0.0001
G1 X176.920 Y58.505 E0.0429
G1 X176.916 Y58.508 E0.0001
G1 X176.712 Y58.639 E0.0073
G1 X176.708 Y58.641 E0.0001
G1 X175.469 Y59.355 E0.0429
G1 X175.464 Y59.358 E0.0001
G1 X175.249 Y59.468 E0.0073
G1 X175.245 Y59.471 E0.0001
G1 X173.943 Y60.064 E0.0429
G1 X173.939 Y60.066 E0.0001
G1 X173.714 Y60.156 E0.0073
G1 X173.709 Y60.157 E0.0001
G1 X172.357 Y60.625 E0.0429
G1 X172.353 Y60.626 E0.0001
G1 X172.120 Y60.694 E0.0073
G1 X172.116 Y60.695 E0.0001
G1 X170.726 Y61.032 E0.0429
G1 X170.721 Y61.033 E0.0001
G1 X170.483 Y61.079 E0.0073
G1 X170.478 Y61.080 E0.0001
G1 X169.062 Y61.283 E0.0429
G1 X169.058 Y61.284 E0.0001
G1 X168.816 Y61.307 E0.0073
G1 X168.812 Y61.307 E0.0001
G1 X167.443 Y61.372 E0.0411
G1 X167.441 Y61.372 E0.0001
G1 X167.320 Y61.375 E0.0036
