; G-Code generated by Simplify3D(R) Version 4.0.1
; Mar 5, 2018 at 10:05:13 PM
; Settings Summary
;   processName,Process1
;   applyToModels,20mm_cube,20mm_cube(2)
;   profileName,PrusaMK2S (modified)
;   profileVersion,2018-03-05 22:01:35
;   baseProfile,Default
;   printMaterial,PLA Sakata3D
;   printQuality,Fast 0.2
;   printExtruders,
;   extruderName,Extruder 1
;   extruderToolheadNumber,0
;   extruderDiameter,0.4
;   extruderAutoWidth,0
;   extruderWidth,0.4
;   extrusionMultiplier,0.9
;   extruderUseRetract,1
;   extruderRetractionDistance,1
;   extruderExtraRestartDistance,0.2
;   extruderRetractionZLift,0.3
;   extruderRetractionSpeed,3600
;   extruderUseCoasting,1
;   extruderCoastingDistance,0.3
;   extruderUseWipe,1
;   extruderWipeDistance,2
;   primaryExtruder,0
;   layerHeight,0.2
;   topSolidLayers,0
;   bottomSolidLayers,2
;   perimeterOutlines,2
;   printPerimetersInsideOut,1
;   startPointOption,2
;   startPointOriginX,0
;   startPointOriginY,0
;   sequentialIslands,0
;   spiralVaseMode,0
;   firstLayerHeightPercentage,75
;   firstLayerWidthPercentage,95
;   firstLayerUnderspeed,0.2
;   useRaft,0
;   raftExtruder,0
;   raftTopLayers,3
;   raftBaseLayers,2
;   raftOffset,3
;   raftSeparationDistance,0.14
;   raftTopInfill,100
;   aboveRaftSpeedMultiplier,0.3
;   useSkirt,1
;   skirtExtruder,0
;   skirtLayers,1
;   skirtOutlines,1
;   skirtOffset,15
;   usePrimePillar,0
;   primePillarExtruder,999
;   primePillarWidth,12
;   primePillarLocation,7
;   primePillarSpeedMultiplier,1
;   useOozeShield,0
;   oozeShieldExtruder,999
;   oozeShieldOffset,2
;   oozeShieldOutlines,1
;   oozeShieldSidewallShape,1
;   oozeShieldSidewallAngle,30
;   oozeShieldSpeedMultiplier,1
;   infillExtruder,0
;   internalInfillPattern,Grid
;   externalInfillPattern,Rectilinear
;   infillPercentage,10
;   outlineOverlapPercentage,25
;   infillExtrusionWidthPercentage,100
;   minInfillLength,2
;   infillLayerInterval,1
;   internalInfillAngles,45,-45
;   overlapInternalInfillAngles,1
;   externalInfillAngles,45,-45
;   generateSupport,0
;   supportExtruder,0
;   supportInfillPercentage,20
;   supportExtraInflation,0
;   supportBaseLayers,0
;   denseSupportExtruder,0
;   denseSupportLayers,0
;   denseSupportInfillPercentage,70
;   supportLayerInterval,1
;   supportHorizontalPartOffset,0.3
;   supportUpperSeparationLayers,1
;   supportLowerSeparationLayers,1
;   supportType,1
;   supportGridSpacing,4
;   maxOverhangAngle,45
;   supportAngles,0
;   temperatureName,Extruder 1
;   temperatureNumber,0
;   temperatureSetpointCount,1
;   temperatureSetpointLayers,1
;   temperatureSetpointTemperatures,210
;   temperatureStabilizeAtStartup,1
;   temperatureHeatedBed,0
;   temperatureRelayBetweenLayers,0
;   temperatureRelayBetweenLoops,0
;   fanLayers,1,3,4,5
;   fanSpeeds,0,40,50,60
;   blipFanToFullPower,0
;   adjustSpeedForCooling,1
;   minSpeedLayerTime,15
;   minCoolingSpeedSlowdown,20
;   increaseFanForCooling,0
;   minFanLayerTime,45
;   maxCoolingFanSpeed,100
;   increaseFanForBridging,0
;   bridgingFanSpeed,100
;   use5D,1
;   relativeEdistances,1
;   allowEaxisZeroing,1
;   independentExtruderAxes,0
;   includeM10123,0
;   stickySupport,1
;   applyToolheadOffsets,0
;   gcodeXoffset,0
;   gcodeYoffset,0
;   gcodeZoffset,0
;   overrideMachineDefinition,1
;   machineTypeOverride,0
;   strokeXoverride,200
;   strokeYoverride,155
;   strokeZoverride,150
;   originOffsetXoverride,0
;   originOffsetYoverride,0
;   originOffsetZoverride,0
;   homeXdirOverride,-1
;   homeYdirOverride,-1
;   homeZdirOverride,-1
;   flipXoverride,1
;   flipYoverride,-1
;   flipZoverride,1
;   toolheadOffsets,0,0|0,0|0,0|0,0|0,0|0,0
;   overrideFirmwareConfiguration,1
;   firmwareTypeOverride,RepRap (Marlin/Repetier/Sprinter)
;   GPXconfigOverride,r2
;   baudRateOverride,115200
;   overridePrinterModels,0
;   printerModelsOverride
;   startingGcode,G29 S1		; Load Mesh Bed Levelling,; Clean Nozzle,G90			; Absolute Positioning,G1 Z5 F5000 		; Lift Nozzle,G1 X65 Y-5,G1 Z0.45  F200 		; Move Z to Cleaning Height,G1 X105 E15 F200,G1 Z5 F300		; Lift Nozzle,;M98 P/macros/Limpieza
;   layerChangeGcode,
;   retractionGcode,
;   toolChangeGcode,
;   endingGcode,G28 X0,M106 S0 ; turn off fan,G10 P0 R-273.15 S-273.15 ,M140 S0 ; turn off bed,G1 Y300,G91,G91 Z+5,G90,M98 P/macros/Final
;   exportFileFormat,gcode
;   celebration,0
;   celebrationSong,Random Song
;   postProcessing,
;   defaultSpeed,6000
;   outlineUnderspeed,0.4
;   solidInfillUnderspeed,1
;   supportUnderspeed,0.5
;   rapidXYspeed,6000
;   rapidZspeed,1002
;   minBridgingArea,5
;   bridgingExtraInflation,0
;   bridgingExtrusionMultiplier,0.8
;   bridgingSpeedMultiplier,2
;   useFixedBridgingAngle,0
;   fixedBridgingAngle,0
;   applyBridgingToPerimeters,0
;   filamentDiameters,1.75|1.75|1.75|1.75|1.75|1.75
;   filamentPricesPerKg,23|46|46|46|46|46
;   filamentDensities,1.25|1.25|1.25|1.25|1.25|1.25
;   useMinPrintHeight,0
;   minPrintHeight,0
;   useMaxPrintHeight,1
;   maxPrintHeight,10
;   useDiaphragm,0
;   diaphragmLayerInterval,20
;   robustSlicing,1
;   mergeAllIntoSolid,0
;   onlyRetractWhenCrossingOutline,1
;   retractBetweenLayers,1
;   useRetractionMinTravel,1
;   retractionMinTravel,3
;   retractWhileWiping,1
;   onlyWipeOutlines,1
;   avoidCrossingOutline,1
;   maxMovementDetourFactor,5
;   toolChangeRetractionDistance,12
;   toolChangeExtraRestartDistance,-0.5
;   toolChangeRetractionSpeed,600
;   externalThinWallType,0
;   internalThinWallType,2
;   thinWallAllowedOverlapPercentage,10
;   singleExtrusionMinLength,1
;   singleExtrusionMinPrintingWidthPercentage,50
;   singleExtrusionMaxPrintingWidthPercentage,200
;   singleExtrusionEndpointExtension,0.2
;   horizontalSizeCompensation,0
G90
M83
M106 S0
M104 S210 T0
M109 S210 T0
G29 S1		; Load Mesh Bed Levelling
; Clean Nozzle
G90			; Absolute Positioning
G1 Z5 F5000 		; Lift Nozzle
G1 X65 Y-5
G1 Z0.45  F200 		; Move Z to Cleaning Height
G1 X105 E15 F200
G1 Z5 F300		; Lift Nozzle
;M98 P/macros/Limpieza
G1 E-1.0000 F3600
G1 Z0.450 F1002
; process Process1
; layer 1, Z = 0.150
T0
; tool H0.200 W0.380
; skirt
G1 X54.830 Y61.174 F6000
G1 Z0.150 F1002
G1 E1.2000 F1080
G1 X63.674 Y52.330 E0.3556 F1200
G1 X63.747 Y52.300 E0.0023
G1 X126.253 Y52.300 E1.7775
G1 X126.326 Y52.330 E0.0023
G1 X135.170 Y61.174 E0.3556
G1 X135.200 Y61.247 E0.0023
G1 X135.200 Y93.753 E0.9244
G1 X135.170 Y93.826 E0.0023
G1 X126.326 Y102.670 E0.3556
G1 X126.253 Y102.700 E0.0023
G1 X63.747 Y102.700 E1.7775
G1 X63.674 Y102.670 E0.0023
G1 X54.830 Y93.826 E0.3556
G1 X54.800 Y93.753 E0.0023
G1 X54.800 Y61.467 E0.9181
G1 X54.800 Y61.247 F1200
G1 X54.830 Y61.174 F1200
G1 E-1.0000 F3600
G1 Z0.450 F1002
; inner perimeter
G1 X70.186 Y67.686 F6000
G1 X70.186 Y67.902 F6000
G1 X70.570 Y68.070 F6000
G1 Z0.150 F1002
G1 E1.2000 F3600
G1 X89.430 Y68.070 E0.5363 F840
G1 X89.430 Y86.930 E0.5363
G1 X70.570 Y86.930 E0.5363
G1 X70.570 Y68.370 E0.5278
G1 X70.570 Y68.070 F840
; outer perimeter
G1 X70.190 Y67.690 F6000
G1 X89.810 Y67.690 E0.5579 F480
G1 X89.810 Y87.310 E0.5579
G1 X70.190 Y87.310 E0.5579
G1 X70.190 Y67.990 E0.5494
G1 X70.190 Y67.690 F480
G1 X72.190 Y67.690 F6000
; solid layer
G1 X89.079 Y68.355 F6000
G1 X89.145 Y68.421 E0.0026 F1200
G1 X89.145 Y68.958 E0.0153
G1 X88.542 Y68.355 E0.0242
G1 X88.005 Y68.355 E0.0153
G1 X89.145 Y69.495 E0.0459
G1 X89.145 Y70.033 E0.0153
G1 X87.467 Y68.355 E0.0675
G1 X86.930 Y68.355 E0.0153
G1 X89.145 Y70.570 E0.0891
G1 X89.145 Y71.108 E0.0153
G1 X86.392 Y68.355 E0.1107
G1 X85.855 Y68.355 E0.0153
G1 X89.145 Y71.645 E0.1323
G1 X89.145 Y72.182 E0.0153
G1 X85.318 Y68.355 E0.1539
G1 X84.780 Y68.355 E0.0153
G1 X89.145 Y72.720 E0.1755
G1 X89.145 Y73.257 E0.0153
G1 X84.243 Y68.355 E0.1971
G1 X83.705 Y68.355 E0.0153
G1 X89.145 Y73.795 E0.2188
G1 X89.145 Y74.332 E0.0153
G1 X83.168 Y68.355 E0.2404
G1 X82.631 Y68.355 E0.0153
G1 X89.145 Y74.869 E0.2620
G1 X89.145 Y75.407 E0.0153
G1 X82.093 Y68.355 E0.2836
G1 X81.556 Y68.355 E0.0153
G1 X89.145 Y75.944 E0.3052
G1 X89.145 Y76.482 E0.0153
G1 X81.018 Y68.355 E0.3268
G1 X80.481 Y68.355 E0.0153
G1 X89.145 Y77.019 E0.3484
G1 X89.145 Y77.556 E0.0153
G1 X79.944 Y68.355 E0.3700
G1 X79.406 Y68.355 E0.0153
G1 X89.145 Y78.094 E0.3917
G1 X89.145 Y78.631 E0.0153
G1 X78.869 Y68.355 E0.4133
G1 X78.331 Y68.355 E0.0153
G1 X89.145 Y79.169 E0.4349
G1 X89.145 Y79.706 E0.0153
G1 X77.794 Y68.355 E0.4565
G1 X77.257 Y68.355 E0.0153
G1 X89.145 Y80.243 E0.4781
G1 X89.145 Y80.781 E0.0153
G1 X76.719 Y68.355 E0.4997
G1 X76.182 Y68.355 E0.0153
G1 X89.145 Y81.318 E0.5213
G1 X89.145 Y81.856 E0.0153
G1 X75.644 Y68.355 E0.5429
G1 X75.107 Y68.355 E0.0153
G1 X89.145 Y82.393 E0.5646
G1 X89.145 Y82.930 E0.0153
G1 X74.570 Y68.355 E0.5862
G1 X74.032 Y68.355 E0.0153
G1 X89.145 Y83.468 E0.6078
G1 X89.145 Y84.005 E0.0153
G1 X73.495 Y68.355 E0.6294
G1 X72.957 Y68.355 E0.0153
G1 X89.145 Y84.543 E0.6510
G1 X89.145 Y85.080 E0.0153
G1 X72.420 Y68.355 E0.6726
G1 X71.883 Y68.355 E0.0153
G1 X89.145 Y85.617 E0.6942
G1 X89.145 Y86.155 E0.0153
G1 X71.345 Y68.355 E0.7158
G1 X70.855 Y68.355 E0.0139
G1 X70.855 Y68.402 E0.0013
G1 X89.098 Y86.645 E0.7337
G1 X88.560 Y86.645 E0.0153
G1 X70.855 Y68.940 E0.7120
G1 X70.855 Y69.477 E0.0153
G1 X88.023 Y86.645 E0.6904
G1 X87.486 Y86.645 E0.0153
G1 X70.855 Y70.014 E0.6688
G1 X70.855 Y70.552 E0.0153
G1 X86.948 Y86.645 E0.6472
G1 X86.411 Y86.645 E0.0153
G1 X70.855 Y71.089 E0.6256
G1 X70.855 Y71.627 E0.0153
G1 X85.873 Y86.645 E0.6040
G1 X85.336 Y86.645 E0.0153
G1 X70.855 Y72.164 E0.5824
G1 X70.855 Y72.701 E0.0153
G1 X84.799 Y86.645 E0.5608
G1 X84.261 Y86.645 E0.0153
G1 X70.855 Y73.239 E0.5392
G1 X70.855 Y73.776 E0.0153
G1 X83.724 Y86.645 E0.5175
G1 X83.186 Y86.645 E0.0153
G1 X70.855 Y74.314 E0.4959
G1 X70.855 Y74.851 E0.0153
G1 X82.649 Y86.645 E0.4743
G1 X82.112 Y86.645 E0.0153
G1 X70.855 Y75.388 E0.4527
G1 X70.855 Y75.926 E0.0153
G1 X81.574 Y86.645 E0.4311
G1 X81.037 Y86.645 E0.0153
G1 X70.855 Y76.463 E0.4095
G1 X70.855 Y77.001 E0.0153
G1 X80.499 Y86.645 E0.3879
G1 X79.962 Y86.645 E0.0153
G1 X70.855 Y77.538 E0.3663
G1 X70.855 Y78.075 E0.0153
G1 X79.425 Y86.645 E0.3446
G1 X78.887 Y86.645 E0.0153
G1 X70.855 Y78.613 E0.3230
G1 X70.855 Y79.150 E0.0153
G1 X78.350 Y86.645 E0.3014
G1 X77.812 Y86.645 E0.0153
G1 X70.855 Y79.688 E0.2798
G1 X70.855 Y80.225 E0.0153
G1 X77.275 Y86.645 E0.2582
G1 X76.738 Y86.645 E0.0153
G1 X70.855 Y80.762 E0.2366
G1 X70.855 Y81.300 E0.0153
G1 X76.200 Y86.645 E0.2150
G1 X75.663 Y86.645 E0.0153
G1 X70.855 Y81.837 E0.1934
G1 X70.855 Y82.375 E0.0153
G1 X75.125 Y86.645 E0.1717
G1 X74.588 Y86.645 E0.0153
G1 X70.855 Y82.912 E0.1501
G1 X70.855 Y83.449 E0.0153
G1 X74.051 Y86.645 E0.1285
G1 X73.513 Y86.645 E0.0153
G1 X70.855 Y83.987 E0.1069
G1 X70.855 Y84.524 E0.0153
G1 X72.976 Y86.645 E0.0853
G1 X72.438 Y86.645 E0.0153
G1 X70.855 Y85.062 E0.0637
G1 X70.855 Y85.599 E0.0153
G1 X71.901 Y86.645 E0.0421
G1 X71.364 Y86.645 E0.0153
G1 X71.067 Y86.349 E0.0119
G1 X70.855 Y86.136 F1200
G1 E-1.0000 F3600
G1 Z0.450 F1002
; inner perimeter
G1 X100.570 Y86.930 F6000
G1 Z0.150 F1002
G1 E1.2000 F3600
G1 X100.570 Y68.070 E0.5363 F840
G1 X119.430 Y68.070 E0.5363
G1 X119.430 Y86.930 E0.5363
G1 X100.870 Y86.930 E0.5278
G1 X100.570 Y86.930 F840
; outer perimeter
G1 X100.190 Y87.310 F6000
G1 X100.190 Y67.690 E0.5579 F480
G1 X119.810 Y67.690 E0.5579
G1 X119.810 Y87.310 E0.5579
G1 X100.490 Y87.310 E0.5494
G1 X100.190 Y87.310 F480
G1 X100.190 Y85.310 F6000
; solid layer
G1 X100.855 Y86.579 F6000
G1 X100.921 Y86.645 E0.0026 F1200
G1 X101.458 Y86.645 E0.0153
G1 X100.855 Y86.042 E0.0243
G1 X100.855 Y85.505 E0.0153
G1 X101.995 Y86.645 E0.0459
G1 X102.533 Y86.645 E0.0153
G1 X100.855 Y84.967 E0.0675
G1 X100.855 Y84.430 E0.0153
G1 X103.070 Y86.645 E0.0891
G1 X103.608 Y86.645 E0.0153
G1 X100.855 Y83.892 E0.1107
G1 X100.855 Y83.355 E0.0153
G1 X104.145 Y86.645 E0.1323
G1 X104.682 Y86.645 E0.0153
G1 X100.855 Y82.818 E0.1539
G1 X100.855 Y82.280 E0.0153
G1 X105.220 Y86.645 E0.1755
G1 X105.757 Y86.645 E0.0153
G1 X100.855 Y81.743 E0.1972
G1 X100.855 Y81.205 E0.0153
G1 X106.295 Y86.645 E0.2188
G1 X106.832 Y86.645 E0.0153
G1 X100.855 Y80.668 E0.2404
G1 X100.855 Y80.131 E0.0153
G1 X107.369 Y86.645 E0.2620
G1 X107.907 Y86.645 E0.0153
G1 X100.855 Y79.593 E0.2836
G1 X100.855 Y79.056 E0.0153
G1 X108.444 Y86.645 E0.3052
G1 X108.982 Y86.645 E0.0153
G1 X100.855 Y78.518 E0.3268
G1 X100.855 Y77.981 E0.0153
G1 X109.519 Y86.645 E0.3484
G1 X110.056 Y86.645 E0.0153
G1 X100.855 Y77.444 E0.3700
G1 X100.855 Y76.906 E0.0153
G1 X110.594 Y86.645 E0.3917
G1 X111.131 Y86.645 E0.0153
G1 X100.855 Y76.369 E0.4133
G1 X100.855 Y75.831 E0.0153
G1 X111.669 Y86.645 E0.4349
G1 X112.206 Y86.645 E0.0153
G1 X100.855 Y75.294 E0.4565
G1 X100.855 Y74.757 E0.0153
G1 X112.743 Y86.645 E0.4781
G1 X113.281 Y86.645 E0.0153
G1 X100.855 Y74.219 E0.4997
G1 X100.855 Y73.682 E0.0153
G1 X113.818 Y86.645 E0.5213
G1 X114.356 Y86.645 E0.0153
G1 X100.855 Y73.144 E0.5429
G1 X100.855 Y72.607 E0.0153
G1 X114.893 Y86.645 E0.5646
G1 X115.430 Y86.645 E0.0153
G1 X100.855 Y72.070 E0.5862
G1 X100.855 Y71.532 E0.0153
G1 X115.968 Y86.645 E0.6078
G1 X116.505 Y86.645 E0.0153
G1 X100.855 Y70.995 E0.6294
G1 X100.855 Y70.457 E0.0153
G1 X117.043 Y86.645 E0.6510
G1 X117.580 Y86.645 E0.0153
G1 X100.855 Y69.920 E0.6726
G1 X100.855 Y69.383 E0.0153
G1 X118.117 Y86.645 E0.6942
G1 X118.655 Y86.645 E0.0153
G1 X100.855 Y68.845 E0.7158
G1 X100.855 Y68.355 E0.0139
G1 X100.902 Y68.355 E0.0013
G1 X119.145 Y86.598 E0.7337
G1 X119.145 Y86.060 E0.0153
G1 X101.440 Y68.355 E0.7120
G1 X101.977 Y68.355 E0.0153
G1 X119.145 Y85.523 E0.6904
G1 X119.145 Y84.986 E0.0153
G1 X102.514 Y68.355 E0.6688
G1 X103.052 Y68.355 E0.0153
G1 X119.145 Y84.448 E0.6472
G1 X119.145 Y83.911 E0.0153
G1 X103.589 Y68.355 E0.6256
G1 X104.127 Y68.355 E0.0153
G1 X119.145 Y83.373 E0.6040
G1 X119.145 Y82.836 E0.0153
G1 X104.664 Y68.355 E0.5824
G1 X105.201 Y68.355 E0.0153
G1 X119.145 Y82.299 E0.5608
G1 X119.145 Y81.761 E0.0153
G1 X105.739 Y68.355 E0.5391
G1 X106.276 Y68.355 E0.0153
G1 X119.145 Y81.224 E0.5175
G1 X119.145 Y80.686 E0.0153
G1 X106.814 Y68.355 E0.4959
G1 X107.351 Y68.355 E0.0153
G1 X119.145 Y80.149 E0.4743
G1 X119.145 Y79.612 E0.0153
G1 X107.888 Y68.355 E0.4527
G1 X108.426 Y68.355 E0.0153
G1 X119.145 Y79.074 E0.4311
G1 X119.145 Y78.537 E0.0153
G1 X108.963 Y68.355 E0.4095
G1 X109.501 Y68.355 E0.0153
G1 X119.145 Y77.999 E0.3879
G1 X119.145 Y77.462 E0.0153
G1 X110.038 Y68.355 E0.3662
G1 X110.575 Y68.355 E0.0153
G1 X119.145 Y76.925 E0.3446
G1 X119.145 Y76.387 E0.0153
G1 X111.113 Y68.355 E0.3230
G1 X111.650 Y68.355 E0.0153
G1 X119.145 Y75.850 E0.3014
G1 X119.145 Y75.312 E0.0153
G1 X112.188 Y68.355 E0.2798
G1 X112.725 Y68.355 E0.0153
G1 X119.145 Y74.775 E0.2582
G1 X119.145 Y74.238 E0.0153
G1 X113.262 Y68.355 E0.2366
G1 X113.800 Y68.355 E0.0153
G1 X119.145 Y73.700 E0.2150
G1 X119.145 Y73.163 E0.0153
G1 X114.337 Y68.355 E0.1934
G1 X114.875 Y68.355 E0.0153
G1 X119.145 Y72.625 E0.1717
G1 X119.145 Y72.088 E0.0153
G1 X115.412 Y68.355 E0.1501
G1 X115.949 Y68.355 E0.0153
G1 X119.145 Y71.551 E0.1285
G1 X119.145 Y71.013 E0.0153
G1 X116.487 Y68.355 E0.1069
G1 X117.024 Y68.355 E0.0153
G1 X119.145 Y70.476 E0.0853
G1 X119.145 Y69.938 E0.0153
G1 X117.562 Y68.355 E0.0637
G1 X118.099 Y68.355 E0.0153
G1 X119.145 Y69.401 E0.0421
G1 X119.145 Y68.864 E0.0153
G1 X118.849 Y68.567 E0.0119
G1 X118.636 Y68.355 F1200
G1 E-1.0000 F3600
G1 Z0.650 F1002
; layer 2, Z = 0.350
; tool H0.200 W0.400
; inner perimeter
G1 X119.400 Y68.100 F6000
G1 Z0.350 F1002
G1 E1.2000 F3600
G1 X119.400 Y86.900 E0.5628 F4200
G1 X100.600 Y86.900 E0.5628
G1 X100.600 Y68.100 E0.5628
G1 X119.100 Y68.100 E0.5538
G1 X119.400 Y68.100 F4200
; outer perimeter
G1 X119.800 Y67.700 F6000
G1 X119.800 Y87.300 E0.5867 F2400
G1 X100.200 Y87.300 E0.5867
G1 X100.200 Y67.700 E0.5867
G1 X119.500 Y67.700 E0.5777
G1 X119.800 Y67.700 F2400
G1 X119.800 Y69.700 F6000
; solid layer
G1 X118.710 Y86.600 F6000
G1 X119.100 Y86.210 E0.0165 F6000
G1 X119.100 Y85.644 E0.0169
G1 X118.144 Y86.600 E0.0405
G1 X117.578 Y86.600 E0.0169
G1 X119.100 Y85.078 E0.0644
G1 X119.100 Y84.513 E0.0169
G1 X117.013 Y86.600 E0.0884
G1 X116.447 Y86.600 E0.0169
