; G-Code generated by Simplify3D(R) Version 4.0.1
; Mar 5, 2018 at 9:23:47 PM
; Settings Summary
;   processName,Process1
;   applyToModels,20mm_cube,20mm_cube(2)
;   profileName,Original Prusa i3 MK3 v2
;   profileVersion,2018-03-05 21:02:24
;   baseProfile,Prusa Mendel (modified)
;   printMaterial,PLA
;   printQuality,FAST 0.2mm
;   printExtruders,
;   extruderName,Primary Extruder
;   extruderToolheadNumber,0
;   extruderDiameter,0.4
;   extruderAutoWidth,0
;   extruderWidth,0.45
;   extrusionMultiplier,0.9
;   extruderUseRetract,1
;   extruderRetractionDistance,0.8
;   extruderExtraRestartDistance,0
;   extruderRetractionZLift,0.6
;   extruderRetractionSpeed,2100
;   extruderUseCoasting,1
;   extruderCoastingDistance,0.2
;   extruderUseWipe,1
;   extruderWipeDistance,2
;   primaryExtruder,0
;   layerHeight,0.2
;   topSolidLayers,0
;   bottomSolidLayers,4
;   perimeterOutlines,2
;   printPerimetersInsideOut,1
;   startPointOption,2
;   startPointOriginX,0
;   startPointOriginY,0
;   sequentialIslands,0
;   spiralVaseMode,0
;   firstLayerHeightPercentage,75
;   firstLayerWidthPercentage,95
;   firstLayerUnderspeed,0.2
;   useRaft,0
;   raftExtruder,0
;   raftTopLayers,3
;   raftBaseLayers,2
;   raftOffset,3
;   raftSeparationDistance,0.14
;   raftTopInfill,100
;   aboveRaftSpeedMultiplier,0.3
;   useSkirt,1
;   skirtExtruder,0
;   skirtLayers,1
;   skirtOutlines,1
;   skirtOffset,3
;   usePrimePillar,0
;   primePillarExtruder,999
;   primePillarWidth,12
;   primePillarLocation,7
;   primePillarSpeedMultiplier,1
;   useOozeShield,0
;   oozeShieldExtruder,999
;   oozeShieldOffset,2
;   oozeShieldOutlines,1
;   oozeShieldSidewallShape,1
;   oozeShieldSidewallAngle,30
;   oozeShieldSpeedMultiplier,1
;   infillExtruder,0
;   internalInfillPattern,Grid
;   externalInfillPattern,Rectilinear
;   infillPercentage,10
;   outlineOverlapPercentage,25
;   infillExtrusionWidthPercentage,100
;   minInfillLength,2
;   infillLayerInterval,1
;   internalInfillAngles,45,-45
;   overlapInternalInfillAngles,1
;   externalInfillAngles,45,-45
;   generateSupport,0
;   supportExtruder,0
;   supportInfillPercentage,30
;   supportExtraInflation,1.4
;   supportBaseLayers,0
;   denseSupportExtruder,0
;   denseSupportLayers,3
;   denseSupportInfillPercentage,70
;   supportLayerInterval,1
;   supportHorizontalPartOffset,0.2
;   supportUpperSeparationLayers,1
;   supportLowerSeparationLayers,1
;   supportType,0
;   supportGridSpacing,1
;   maxOverhangAngle,55
;   supportAngles,0
;   temperatureName,Primary Extruder
;   temperatureNumber,0
;   temperatureSetpointCount,1
;   temperatureSetpointLayers,1
;   temperatureSetpointTemperatures,210
;   temperatureStabilizeAtStartup,1
;   temperatureHeatedBed,0
;   temperatureRelayBetweenLayers,0
;   temperatureRelayBetweenLoops,0
;   fanLayers,1,2
;   fanSpeeds,0,60
;   blipFanToFullPower,1
;   adjustSpeedForCooling,1
;   minSpeedLayerTime,20
;   minCoolingSpeedSlowdown,10
;   increaseFanForCooling,0
;   minFanLayerTime,45
;   maxCoolingFanSpeed,100
;   increaseFanForBridging,1
;   bridgingFanSpeed,80
;   use5D,1
;   relativeEdistances,1
;   allowEaxisZeroing,1
;   independentExtruderAxes,0
;   includeM10123,0
;   stickySupport,1
;   applyToolheadOffsets,0
;   gcodeXoffset,0
;   gcodeYoffset,0
;   gcodeZoffset,0
;   overrideMachineDefinition,1
;   machineTypeOverride,0
;   strokeXoverride,200
;   strokeYoverride,155
;   strokeZoverride,150
;   originOffsetXoverride,0
;   originOffsetYoverride,0
;   originOffsetZoverride,0
;   homeXdirOverride,-1
;   homeYdirOverride,-1
;   homeZdirOverride,-1
;   flipXoverride,1
;   flipYoverride,-1
;   flipZoverride,1
;   toolheadOffsets,0,0|0,0|0,0|0,0|0,0|0,0
;   overrideFirmwareConfiguration,0
;   firmwareTypeOverride,RepRap (Marlin/Repetier/Sprinter)
;   GPXconfigOverride,r2
;   baudRateOverride,250000
;   overridePrinterModels,1
;   printerModelsOverride
;   startingGcode,G29 S1,G1 Y0.0 Z0.1 F1000.0 ; go outside print area,G92 E0.0,G1 X60.0 E9.0  F1000.0 ; intro line,G1 X100.0 E12.5  F1000.0 ; intro line,G92 E0.0,
;   layerChangeGcode,
;   retractionGcode,
;   toolChangeGcode,
;   endingGcode,M104 S0 ; turn off temperature,M140 S0 ; turn off heatbed,M107 ; turn off fan,G1 X0 Y210; home X axis,G91,G91 Z+5,G90
;   exportFileFormat,gcode
;   celebration,0
;   celebrationSong,Random Song
;   postProcessing,
;   defaultSpeed,6000
;   outlineUnderspeed,0.18
;   solidInfillUnderspeed,1
;   supportUnderspeed,0.5
;   rapidXYspeed,12000
;   rapidZspeed,12000
;   minBridgingArea,50
;   bridgingExtraInflation,1
;   bridgingExtrusionMultiplier,0.8
;   bridgingSpeedMultiplier,1.2
;   useFixedBridgingAngle,0
;   fixedBridgingAngle,0
;   applyBridgingToPerimeters,0
;   filamentDiameters,1.75|1.75|1.75|1.75|1.75|1.75
;   filamentPricesPerKg,25|215|215|215|215|215
;   filamentDensities,1.25|1.25|1.25|1.25|1.25|1.25
;   useMinPrintHeight,0
;   minPrintHeight,0
;   useMaxPrintHeight,1
;   maxPrintHeight,10
;   useDiaphragm,0
;   diaphragmLayerInterval,20
;   robustSlicing,1
;   mergeAllIntoSolid,0
;   onlyRetractWhenCrossingOutline,1
;   retractBetweenLayers,1
;   useRetractionMinTravel,1
;   retractionMinTravel,3
;   retractWhileWiping,1
;   onlyWipeOutlines,1
;   avoidCrossingOutline,1
;   maxMovementDetourFactor,5
;   toolChangeRetractionDistance,12
;   toolChangeExtraRestartDistance,-0.5
;   toolChangeRetractionSpeed,600
;   externalThinWallType,0
;   internalThinWallType,2
;   thinWallAllowedOverlapPercentage,15
;   singleExtrusionMinLength,1
;   singleExtrusionMinPrintingWidthPercentage,50
;   singleExtrusionMaxPrintingWidthPercentage,200
;   singleExtrusionEndpointExtension,0.2
;   horizontalSizeCompensation,0
G90
M83
M106 S255
G4 P500
M106 S0
M104 S210 T0
M109 S210 T0
G29 S1
G1 Y0.0 Z0.1 F1000.0 ; go outside print area
G92 E0.0
G1 X60.0 E9.0  F1000.0 ; intro line
G1 X100.0 E12.5  F1000.0 ; intro line
G92 E0.0
G1 E-0.8000 F2100
G1 Z0.750 F12000
; process Process1
; layer 1, Z = 0.150
T0
; tool H0.200 W0.428
; skirt
G1 X66.809 Y66.130 F12000
G1 Z0.150 F12000
G1 E0.8000 F630
G1 X68.630 Y64.309 E0.0824 F1200
G1 X68.713 Y64.275 E0.0029
G1 X91.287 Y64.275 E0.7222
G1 X91.370 Y64.309 E0.0029
G1 X93.191 Y66.130 E0.0824
G1 X93.225 Y66.213 E0.0029
G1 X93.225 Y88.787 E0.7222
G1 X93.191 Y88.870 E0.0029
G1 X91.370 Y90.691 E0.0824
G1 X91.287 Y90.725 E0.0029
G1 X68.713 Y90.725 E0.7222
G1 X68.630 Y90.691 E0.0029
G1 X66.809 Y88.870 E0.0824
G1 X66.775 Y88.787 E0.0029
G1 X66.775 Y66.323 E0.7187
G1 X66.775 Y66.213 F1200
G1 X66.809 Y66.130 F1200
G1 X96.775 Y66.213 F12000
G1 X96.809 Y66.130 E0.0029 F1200
G1 X98.630 Y64.309 E0.0824
G1 X98.713 Y64.275 E0.0029
G1 X121.287 Y64.275 E0.7222
G1 X121.370 Y64.309 E0.0029
G1 X123.191 Y66.130 E0.0824
G1 X123.225 Y66.213 E0.0029
G1 X123.225 Y88.787 E0.7222
G1 X123.191 Y88.870 E0.0029
G1 X121.370 Y90.691 E0.0824
G1 X121.287 Y90.725 E0.0029
G1 X98.713 Y90.725 E0.7222
G1 X98.630 Y90.691 E0.0029
G1 X96.809 Y88.870 E0.0824
G1 X96.775 Y88.787 E0.0029
G1 X96.775 Y66.413 E0.7158
G1 X96.775 Y66.213 F1200
G1 E-0.8000 F2100
G1 Z0.750 F12000
; inner perimeter
G1 X100.209 Y67.709 F12000
G1 X100.209 Y67.926 F12000
G1 X100.641 Y68.141 F12000
G1 Z0.150 F12000
G1 E0.8000 F2100
G1 X119.359 Y68.141 E0.5988 F708
G1 X119.359 Y86.859 E0.5988
G1 X100.641 Y86.859 E0.5988
G1 X100.641 Y68.341 E0.5924
G1 X100.641 Y68.141 F708
; outer perimeter
G1 X100.214 Y67.714 F12000
G1 X119.786 Y67.714 E0.6262 F216
G1 X119.786 Y87.286 E0.6262
G1 X100.214 Y87.286 E0.6262
G1 X100.214 Y67.914 E0.6198
G1 X100.214 Y67.714 F216
G1 X102.499 Y67.714 F6000
; solid layer
G1 X118.609 Y68.462 F12000
G1 X119.038 Y68.891 E0.0194 F1200
G1 X119.038 Y69.496 E0.0193
G1 X118.004 Y68.462 E0.0468
G1 X117.400 Y68.462 E0.0193
G1 X119.038 Y70.100 E0.0741
G1 X119.038 Y70.705 E0.0193
G1 X116.795 Y68.462 E0.1015
G1 X116.191 Y68.462 E0.0193
G1 X119.038 Y71.309 E0.1288
G1 X119.038 Y71.914 E0.0193
G1 X115.586 Y68.462 E0.1562
G1 X114.982 Y68.462 E0.0193
G1 X119.038 Y72.518 E0.1835
G1 X119.038 Y73.123 E0.0193
G1 X114.377 Y68.462 E0.2109
G1 X113.772 Y68.462 E0.0193
G1 X119.038 Y73.728 E0.2382
G1 X119.038 Y74.332 E0.0193
G1 X113.168 Y68.462 E0.2656
G1 X112.563 Y68.462 E0.0193
G1 X119.038 Y74.937 E0.2929
G1 X119.038 Y75.541 E0.0193
G1 X111.959 Y68.462 E0.3203
G1 X111.354 Y68.462 E0.0193
G1 X119.038 Y76.146 E0.3477
G1 X119.038 Y76.750 E0.0193
G1 X110.750 Y68.462 E0.3750
G1 X110.145 Y68.462 E0.0193
G1 X119.038 Y77.355 E0.4024
G1 X119.038 Y77.960 E0.0193
G1 X109.540 Y68.462 E0.4297
G1 X108.936 Y68.462 E0.0193
G1 X119.038 Y78.564 E0.4571
G1 X119.038 Y79.169 E0.0193
G1 X108.331 Y68.462 E0.4844
G1 X107.727 Y68.462 E0.0193
G1 X119.038 Y79.773 E0.5118
G1 X119.038 Y80.378 E0.0193
G1 X107.122 Y68.462 E0.5391
G1 X106.517 Y68.462 E0.0193
G1 X119.038 Y80.983 E0.5665
G1 X119.038 Y81.587 E0.0193
G1 X105.913 Y68.462 E0.5938
G1 X105.308 Y68.462 E0.0193
G1 X119.038 Y82.192 E0.6212
G1 X119.038 Y82.796 E0.0193
G1 X104.704 Y68.462 E0.6485
G1 X104.099 Y68.462 E0.0193
G1 X119.038 Y83.401 E0.6759
G1 X119.038 Y84.005 E0.0193
G1 X103.495 Y68.462 E0.7032
G1 X102.890 Y68.462 E0.0193
G1 X119.038 Y84.610 E0.7306
G1 X119.038 Y85.215 E0.0193
G1 X102.285 Y68.462 E0.7580
G1 X101.681 Y68.462 E0.0193
G1 X119.038 Y85.819 E0.7853
G1 X119.038 Y86.424 E0.0193
G1 X101.076 Y68.462 E0.8127
G1 X100.962 Y68.462 E0.0037
G1 X100.962 Y68.952 E0.0157
G1 X118.548 Y86.538 E0.7957
G1 X117.943 Y86.538 E0.0193
G1 X100.962 Y69.557 E0.7683
G1 X100.962 Y70.161 E0.0193
G1 X117.339 Y86.538 E0.7410
G1 X116.734 Y86.538 E0.0193
G1 X100.962 Y70.766 E0.7136
G1 X100.962 Y71.370 E0.0193
G1 X116.130 Y86.538 E0.6862
G1 X115.525 Y86.538 E0.0193
G1 X100.962 Y71.975 E0.6589
G1 X100.962 Y72.579 E0.0193
G1 X114.921 Y86.538 E0.6315
G1 X114.316 Y86.538 E0.0193
G1 X100.962 Y73.184 E0.6042
G1 X100.962 Y73.789 E0.0193
G1 X113.711 Y86.538 E0.5768
G1 X113.107 Y86.538 E0.0193
G1 X100.962 Y74.393 E0.5495
G1 X100.962 Y74.998 E0.0193
G1 X112.502 Y86.538 E0.5221
G1 X111.898 Y86.538 E0.0193
G1 X100.962 Y75.602 E0.4948
G1 X100.962 Y76.207 E0.0193
G1 X111.293 Y86.538 E0.4674
G1 X110.688 Y86.538 E0.0193
G1 X100.962 Y76.812 E0.4401
G1 X100.962 Y77.416 E0.0193
G1 X110.084 Y86.538 E0.4127
G1 X109.479 Y86.538 E0.0193
G1 X100.962 Y78.021 E0.3854
G1 X100.962 Y78.625 E0.0193
G1 X108.875 Y86.538 E0.3580
G1 X108.270 Y86.538 E0.0193
G1 X100.962 Y79.230 E0.3307
G1 X100.962 Y79.834 E0.0193
G1 X107.666 Y86.538 E0.3033
G1 X107.061 Y86.538 E0.0193
G1 X100.962 Y80.439 E0.2759
G1 X100.962 Y81.044 E0.0193
G1 X106.456 Y86.538 E0.2486
G1 X105.852 Y86.538 E0.0193
G1 X100.962 Y81.648 E0.2212
G1 X100.962 Y82.253 E0.0193
G1 X105.247 Y86.538 E0.1939
G1 X104.643 Y86.538 E0.0193
G1 X100.962 Y82.857 E0.1665
G1 X100.962 Y83.462 E0.0193
G1 X104.038 Y86.538 E0.1392
G1 X103.434 Y86.538 E0.0193
G1 X100.962 Y84.066 E0.1118
G1 X100.962 Y84.671 E0.0193
G1 X102.829 Y86.538 E0.0845
G1 X102.224 Y86.538 E0.0193
G1 X100.962 Y85.276 E0.0571
G1 X100.962 Y85.880 E0.0193
G1 X101.620 Y86.538 E0.0298
G1 X101.140 Y86.538 E0.0154
G1 X101.015 Y86.538 F1200
G1 X100.962 Y86.485 F1200
G1 E-0.8000 F2100
G1 Z0.750 F12000
; inner perimeter
G1 X89.359 Y86.859 F12000
G1 Z0.150 F12000
G1 E0.8000 F2100
G1 X70.641 Y86.859 E0.5988 F708
G1 X70.641 Y68.141 E0.5988
G1 X89.359 Y68.141 E0.5988
G1 X89.359 Y86.659 E0.5924
G1 X89.359 Y86.859 F708
; outer perimeter
G1 X89.786 Y87.286 F12000
G1 X70.214 Y87.286 E0.6262 F216
G1 X70.214 Y67.714 E0.6262
G1 X89.786 Y67.714 E0.6262
G1 X89.786 Y87.086 E0.6198
G1 X89.786 Y87.286 F216
G1 X87.501 Y87.286 F6000
; solid layer
G1 X70.962 Y86.109 F12000
G1 X71.391 Y86.538 E0.0194 F1200
G1 X71.996 Y86.538 E0.0193
G1 X70.962 Y85.504 E0.0468
G1 X70.962 Y84.900 E0.0193
G1 X72.600 Y86.538 E0.0741
G1 X73.205 Y86.538 E0.0193
G1 X70.962 Y84.295 E0.1015
G1 X70.962 Y83.691 E0.0193
G1 X73.809 Y86.538 E0.1288
G1 X74.414 Y86.538 E0.0193
G1 X70.962 Y83.086 E0.1562
G1 X70.962 Y82.482 E0.0193
G1 X75.018 Y86.538 E0.1835
G1 X75.623 Y86.538 E0.0193
G1 X70.962 Y81.877 E0.2109
G1 X70.962 Y81.272 E0.0193
G1 X76.228 Y86.538 E0.2382
G1 X76.832 Y86.538 E0.0193
G1 X70.962 Y80.668 E0.2656
G1 X70.962 Y80.063 E0.0193
G1 X77.437 Y86.538 E0.2929
G1 X78.041 Y86.538 E0.0193
G1 X70.962 Y79.459 E0.3203
G1 X70.962 Y78.854 E0.0193
G1 X78.646 Y86.538 E0.3477
G1 X79.251 Y86.538 E0.0193
G1 X70.962 Y78.249 E0.3750
G1 X70.962 Y77.645 E0.0193
G1 X79.855 Y86.538 E0.4024
G1 X80.460 Y86.538 E0.0193
G1 X70.962 Y77.040 E0.4297
G1 X70.962 Y76.436 E0.0193
G1 X81.064 Y86.538 E0.4571
G1 X81.669 Y86.538 E0.0193
G1 X70.962 Y75.831 E0.4844
G1 X70.962 Y75.227 E0.0193
G1 X82.273 Y86.538 E0.5118
G1 X82.878 Y86.538 E0.0193
G1 X70.962 Y74.622 E0.5391
G1 X70.962 Y74.017 E0.0193
G1 X83.483 Y86.538 E0.5665
G1 X84.087 Y86.538 E0.0193
G1 X70.962 Y73.413 E0.5938
G1 X70.962 Y72.808 E0.0193
G1 X84.692 Y86.538 E0.6212
G1 X85.296 Y86.538 E0.0193
G1 X70.962 Y72.204 E0.6485
G1 X70.962 Y71.599 E0.0193
G1 X85.901 Y86.538 E0.6759
G1 X86.505 Y86.538 E0.0193
G1 X70.962 Y70.995 E0.7032
G1 X70.962 Y70.390 E0.0193
G1 X87.110 Y86.538 E0.7306
G1 X87.715 Y86.538 E0.0193
G1 X70.962 Y69.785 E0.7580
G1 X70.962 Y69.181 E0.0193
G1 X88.319 Y86.538 E0.7853
G1 X88.924 Y86.538 E0.0193
G1 X70.962 Y68.576 E0.8127
G1 X70.962 Y68.462 E0.0037
G1 X71.452 Y68.462 E0.0157
G1 X89.038 Y86.048 E0.7957
G1 X89.038 Y85.443 E0.0193
G1 X72.057 Y68.462 E0.7683
G1 X72.661 Y68.462 E0.0193
G1 X89.038 Y84.839 E0.7410
G1 X89.038 Y84.234 E0.0193
G1 X73.266 Y68.462 E0.7136
G1 X73.870 Y68.462 E0.0193
G1 X89.038 Y83.630 E0.6862
G1 X89.038 Y83.025 E0.0193
G1 X74.475 Y68.462 E0.6589
G1 X75.080 Y68.462 E0.0193
G1 X89.038 Y82.420 E0.6315
G1 X89.038 Y81.816 E0.0193
G1 X75.684 Y68.462 E0.6042
G1 X76.289 Y68.462 E0.0193
G1 X89.038 Y81.211 E0.5768
G1 X89.038 Y80.607 E0.0193
G1 X76.893 Y68.462 E0.5495
G1 X77.498 Y68.462 E0.0193
G1 X89.038 Y80.002 E0.5221
G1 X89.038 Y79.398 E0.0193
G1 X78.102 Y68.462 E0.4948
G1 X78.707 Y68.462 E0.0193
G1 X89.038 Y78.793 E0.4674
G1 X89.038 Y78.188 E0.0193
G1 X79.312 Y68.462 E0.4401
G1 X79.916 Y68.462 E0.0193
G1 X89.038 Y77.584 E0.4127
G1 X89.038 Y76.979 E0.0193
G1 X80.521 Y68.462 E0.3854
G1 X81.125 Y68.462 E0.0193
G1 X89.038 Y76.375 E0.3580
G1 X89.038 Y75.770 E0.0193
G1 X81.730 Y68.462 E0.3307
G1 X82.334 Y68.462 E0.0193
G1 X89.038 Y75.166 E0.3033
G1 X89.038 Y74.561 E0.0193
G1 X82.939 Y68.462 E0.2759
G1 X83.544 Y68.462 E0.0193
G1 X89.038 Y73.956 E0.2486
G1 X89.038 Y73.352 E0.0193
G1 X84.148 Y68.462 E0.2212
G1 X84.753 Y68.462 E0.0193
G1 X89.038 Y72.747 E0.1939
G1 X89.038 Y72.143 E0.0193
G1 X85.357 Y68.462 E0.1665
G1 X85.962 Y68.462 E0.0193
G1 X89.038 Y71.538 E0.1392
G1 X89.038 Y70.934 E0.0193
G1 X86.566 Y68.462 E0.1118
G1 X87.171 Y68.462 E0.0193
G1 X89.038 Y70.329 E0.0845
G1 X89.038 Y69.724 E0.0193
G1 X87.776 Y68.462 E0.0571
G1 X88.380 Y68.462 E0.0193
G1 X89.038 Y69.120 E0.0298
G1 X89.038 Y68.640 E0.0154
G1 X89.038 Y68.515 F1200
G1 X88.985 Y68.462 F1200
G1 E-0.8000 F2100
G1 Z0.950 F12000
; layer 2, Z = 0.350
M106 S255
G4 P500
M106 S153
; tool H0.200 W0.450
; inner perimeter
G1 X89.325 Y68.175 F12000
G1 Z0.350 F12000
G1 E0.8000 F2100
G1 X89.325 Y86.825 E0.6281 F3540
G1 X70.675 Y86.825 E0.6281
G1 X70.675 Y68.175 E0.6281
G1 X89.125 Y68.175 E0.6213
G1 X89.325 Y68.175 F3540
; outer perimeter
G1 X89.775 Y67.725 F12000
G1 X89.775 Y87.275 E0.6584 F1080
G1 X70.225 Y87.275 E0.6584
G1 X70.225 Y67.725 E0.6584
G1 X89.575 Y67.725 E0.6516
G1 X89.775 Y67.725 F1080
G1 X89.775 Y70.011 F6000
; solid layer
G1 X88.558 Y86.488 F12000
G1 X88.987 Y86.058 E0.0204 F6000
G1 X88.987 Y85.422 E0.0214
G1 X87.922 Y86.487 E0.0508
G1 X87.285 Y86.487 E0.0214
G1 X88.987 Y84.785 E0.0811
G1 X88.987 Y84.149 E0.0214
G1 X86.649 Y86.487 E0.1114
G1 X86.013 Y86.487 E0.0214
G1 X88.987 Y83.513 E0.1417
G1 X88.987 Y82.876 E0.0214
G1 X85.376 Y86.487 E0.1720
G1 X84.740 Y86.487 E0.0214
G1 X88.987 Y82.240 E0.2023
G1 X88.987 Y81.603 E0.0214
G1 X84.103 Y86.487 E0.2326
G1 X83.467 Y86.487 E0.0214
G1 X88.987 Y80.967 E0.2629
G1 X88.987 Y80.331 E0.0214
G1 X82.831 Y86.487 E0.2932
G1 X82.194 Y86.487 E0.0214
G1 X88.987 Y79.694 E0.3235
G1 X88.987 Y79.058 E0.0214
G1 X81.558 Y86.487 E0.3538
G1 X80.921 Y86.487 E0.0214
G1 X88.987 Y78.421 E0.3841
G1 X88.987 Y77.785 E0.0214
