; G-Code generated by Simplify3D(R) Version 4.0.1
; Mar 3, 2018 at 9:46:47 PM
; Settings Summary
;   processName,Process1
;   applyToModels,20mm_cube,20mm_cube(2),20mm_cube(3),20mm_cube(4)
;   profileName,PrusaMK2S (modified)
;   profileVersion,2018-02-28 03:46:26
;   baseProfile,Default
;   printMaterial,PLA Sakata3D
;   printQuality,Medium
;   printExtruders,
;   extruderName,Extruder 1
;   extruderToolheadNumber,0
;   extruderDiameter,0.4
;   extruderAutoWidth,0
;   extruderWidth,0.4
;   extrusionMultiplier,0.94
;   extruderUseRetract,0
;   extruderRetractionDistance,1.9
;   extruderExtraRestartDistance,0
;   extruderRetractionZLift,0.15
;   extruderRetractionSpeed,4800
;   extruderUseCoasting,0
;   extruderCoastingDistance,0.15
;   extruderUseWipe,0
;   extruderWipeDistance,6
;   primaryExtruder,0
;   layerHeight,0.2
;   topSolidLayers,2
;   bottomSolidLayers,2
;   perimeterOutlines,2
;   printPerimetersInsideOut,1
;   startPointOption,2
;   startPointOriginX,0
;   startPointOriginY,0
;   sequentialIslands,0
;   spiralVaseMode,0
;   firstLayerHeightPercentage,105
;   firstLayerWidthPercentage,100
;   firstLayerUnderspeed,0.3
;   useRaft,0
;   raftExtruder,0
;   raftTopLayers,3
;   raftBaseLayers,2
;   raftOffset,3
;   raftSeparationDistance,0.14
;   raftTopInfill,100
;   aboveRaftSpeedMultiplier,0.3
;   useSkirt,1
;   skirtExtruder,0
;   skirtLayers,1
;   skirtOutlines,2
;   skirtOffset,5
;   usePrimePillar,0
;   primePillarExtruder,999
;   primePillarWidth,12
;   primePillarLocation,7
;   primePillarSpeedMultiplier,1
;   useOozeShield,0
;   oozeShieldExtruder,999
;   oozeShieldOffset,2
;   oozeShieldOutlines,1
;   oozeShieldSidewallShape,1
;   oozeShieldSidewallAngle,30
;   oozeShieldSpeedMultiplier,1
;   infillExtruder,0
;   internalInfillPattern,Grid
;   externalInfillPattern,Rectilinear
;   infillPercentage,20
;   outlineOverlapPercentage,70
;   infillExtrusionWidthPercentage,110
;   minInfillLength,3
;   infillLayerInterval,1
;   internalInfillAngles,45,-45
;   overlapInternalInfillAngles,1
;   externalInfillAngles,45,-45
;   generateSupport,0
;   supportExtruder,0
;   supportInfillPercentage,20
;   supportExtraInflation,0
;   supportBaseLayers,0
;   denseSupportExtruder,0
;   denseSupportLayers,0
;   denseSupportInfillPercentage,70
;   supportLayerInterval,1
;   supportHorizontalPartOffset,0.3
;   supportUpperSeparationLayers,1
;   supportLowerSeparationLayers,1
;   supportType,1
;   supportGridSpacing,4
;   maxOverhangAngle,45
;   supportAngles,0
;   temperatureName,Extruder 1
;   temperatureNumber,0
;   temperatureSetpointCount,1
;   temperatureSetpointLayers,1
;   temperatureSetpointTemperatures,210
;   temperatureStabilizeAtStartup,1
;   temperatureHeatedBed,0
;   temperatureRelayBetweenLayers,0
;   temperatureRelayBetweenLoops,0
;   fanLayers,1
;   fanSpeeds,0
;   blipFanToFullPower,0
;   adjustSpeedForCooling,1
;   minSpeedLayerTime,15
;   minCoolingSpeedSlowdown,20
;   increaseFanForCooling,0
;   minFanLayerTime,45
;   maxCoolingFanSpeed,100
;   increaseFanForBridging,0
;   bridgingFanSpeed,100
;   use5D,1
;   relativeEdistances,1
;   allowEaxisZeroing,1
;   independentExtruderAxes,0
;   includeM10123,0
;   stickySupport,1
;   applyToolheadOffsets,0
;   gcodeXoffset,0
;   gcodeYoffset,0
;   gcodeZoffset,0
;   overrideMachineDefinition,1
;   machineTypeOverride,0
;   strokeXoverride,200
;   strokeYoverride,155
;   strokeZoverride,170
;   originOffsetXoverride,0
;   originOffsetYoverride,0
;   originOffsetZoverride,0
;   homeXdirOverride,-1
;   homeYdirOverride,-1
;   homeZdirOverride,-1
;   flipXoverride,1
;   flipYoverride,-1
;   flipZoverride,1
;   toolheadOffsets,0,0|0,0|0,0|0,0|0,0|0,0
;   overrideFirmwareConfiguration,1
;   firmwareTypeOverride,RepRap (Marlin/Repetier/Sprinter)
;   GPXconfigOverride,r2
;   baudRateOverride,115200
;   overridePrinterModels,0
;   printerModelsOverride
;   startingGcode,;M420 S1,; Clean Nozzle,;G90		; Absolute Positioning,;G1 Z5 F5000 	; Lift Nozzle,;G1 X0 Y25   	; Go to Cleaning Position,;G1 Z0.25  F200 	; Move Z to Cleaning Height,;G1 Y65 E15 F200	; Move 40mm and extrude,;G1 Z5 F300	; Lift Nozzle,G29 S1		; Load Mesh Bed Levelling,M98 P/macros/Limpieza
;   layerChangeGcode,
;   retractionGcode,
;   toolChangeGcode,
;   endingGcode,;G28 X0,;M106 S0 ; turn off fan,;G10 P0 R-273.15 S-273.15 ;Turn off Heater,;M140 S-273.15 ;Turn off Bed,;G1 Y300,;G91,;G91 Z+5,;M84 ; disable motors,G28 X0,M106 S0 ; turn off fan,M104 S0 ; turn off extruder,M140 S0 ; turn off bed,G1 Y300,G91,G91 Z+5,G90,;M84 ; disable motors,M98 P/macros/Final
;   exportFileFormat,gcode
;   celebration,0
;   celebrationSong,Random Song
;   postProcessing,
;   defaultSpeed,2400
;   outlineUnderspeed,0.5
;   solidInfillUnderspeed,0.8
;   supportUnderspeed,0.8
;   rapidXYspeed,4800
;   rapidZspeed,1002
;   minBridgingArea,5
;   bridgingExtraInflation,0
;   bridgingExtrusionMultiplier,1.2
;   bridgingSpeedMultiplier,2
;   useFixedBridgingAngle,0
;   fixedBridgingAngle,0
;   applyBridgingToPerimeters,0
;   filamentDiameters,1.75|1.75|1.75|1.75|1.75|1.75
;   filamentPricesPerKg,23|46|46|46|46|46
;   filamentDensities,1.25|1.25|1.25|1.25|1.25|1.25
;   useMinPrintHeight,0
;   minPrintHeight,0
;   useMaxPrintHeight,0
;   maxPrintHeight,10
;   useDiaphragm,0
;   diaphragmLayerInterval,20
;   robustSlicing,1
;   mergeAllIntoSolid,0
;   onlyRetractWhenCrossingOutline,0
;   retractBetweenLayers,1
;   useRetractionMinTravel,1
;   retractionMinTravel,4
;   retractWhileWiping,1
;   onlyWipeOutlines,0
;   avoidCrossingOutline,1
;   maxMovementDetourFactor,5
;   toolChangeRetractionDistance,12
;   toolChangeExtraRestartDistance,-0.5
;   toolChangeRetractionSpeed,600
;   externalThinWallType,0
;   internalThinWallType,2
;   thinWallAllowedOverlapPercentage,10
;   singleExtrusionMinLength,1
;   singleExtrusionMinPrintingWidthPercentage,50
;   singleExtrusionMaxPrintingWidthPercentage,200
;   singleExtrusionEndpointExtension,0.2
;   horizontalSizeCompensation,0
G90
M83
M106 S0
M104 S210 T0
M109 S210 T0
;M420 S1
; Clean Nozzle
;G90		; Absolute Positioning
;G1 Z5 F5000 	; Lift Nozzle
;G1 X0 Y25   	; Go to Cleaning Position
;G1 Z0.25  F200 	; Move Z to Cleaning Height
;G1 Y65 E15 F200	; Move 40mm and extrude
;G1 Z5 F300	; Lift Nozzle
G29 S1		; Load Mesh Bed Levelling
M98 P/macros/Limpieza
G1 Z0.360 F1002
; process Process1
; layer 1, Z = 0.210
T0
; tool H0.210 W0.400
; skirt
G1 X22.810 Y61.900 F4800
G1 Z0.210 F1002
G1 X47.190 Y61.900 E0.8004 F720
G1 X47.411 Y61.991 E0.0078
G1 X50.000 Y64.580 E0.1202
G1 X52.589 Y61.991 E0.1202
G1 X52.810 Y61.900 E0.0078
G1 X77.190 Y61.900 E0.8004
G1 X77.411 Y61.991 E0.0078
G1 X80.509 Y65.089 E0.1438
G1 X80.600 Y65.310 E0.0078
G1 X80.600 Y89.690 E0.8004
G1 X80.509 Y89.911 E0.0078
G1 X77.411 Y93.009 E0.1438
G1 X77.190 Y93.100 E0.0078
G1 X52.810 Y93.100 E0.8004
G1 X52.589 Y93.009 E0.0078
G1 X50.000 Y90.420 E0.1202
G1 X47.411 Y93.009 E0.1202
G1 X47.190 Y93.100 E0.0078
G1 X22.810 Y93.100 E0.8004
G1 X22.589 Y93.009 E0.0078
G1 X19.491 Y89.911 E0.1438
G1 X19.400 Y89.690 E0.0078
G1 X19.400 Y65.310 E0.8004
G1 X19.491 Y65.089 E0.0078
G1 X22.589 Y61.991 E0.1438
G1 X22.810 Y61.900 E0.0078
G1 X89.400 Y65.310 F4800
G1 X89.491 Y65.089 E0.0078 F720
G1 X92.589 Y61.991 E0.1438
G1 X92.810 Y61.900 E0.0078
G1 X117.190 Y61.900 E0.8004
G1 X117.411 Y61.991 E0.0078
G1 X120.509 Y65.089 E0.1438
G1 X120.600 Y65.310 E0.0078
G1 X120.600 Y89.690 E0.8004
G1 X120.509 Y89.911 E0.0078
G1 X117.411 Y93.009 E0.1438
G1 X117.190 Y93.100 E0.0078
G1 X92.810 Y93.100 E0.8004
G1 X92.589 Y93.009 E0.0078
G1 X89.491 Y89.911 E0.1438
G1 X89.400 Y89.690 E0.0078
G1 X89.400 Y65.310 E0.8004
G1 X149.400 Y65.310 F4800
G1 X149.491 Y65.089 E0.0078 F720
G1 X152.589 Y61.991 E0.1438
G1 X152.810 Y61.900 E0.0078
G1 X177.190 Y61.900 E0.8004
G1 X177.411 Y61.991 E0.0078
G1 X180.509 Y65.089 E0.1438
G1 X180.600 Y65.310 E0.0078
G1 X180.600 Y89.690 E0.8004
G1 X180.509 Y89.911 E0.0078
G1 X177.411 Y93.009 E0.1438
G1 X177.190 Y93.100 E0.0078
G1 X152.810 Y93.100 E0.8004
G1 X152.589 Y93.009 E0.0078
G1 X149.491 Y89.911 E0.1438
G1 X149.400 Y89.690 E0.0078
G1 X149.400 Y65.310 E0.8004
G1 X149.800 Y65.389 F4800
G1 X149.830 Y65.316 E0.0026 F720
G1 X152.816 Y62.330 E0.1386
G1 X152.889 Y62.300 E0.0026
G1 X177.111 Y62.300 E0.7951
G1 X177.184 Y62.330 E0.0026
G1 X180.170 Y65.316 E0.1386
G1 X180.200 Y65.389 E0.0026
G1 X180.200 Y89.611 E0.7951
G1 X180.170 Y89.684 E0.0026
G1 X177.184 Y92.670 E0.1386
G1 X177.111 Y92.700 E0.0026
G1 X152.889 Y92.700 E0.7951
G1 X152.816 Y92.670 E0.0026
G1 X149.830 Y89.684 E0.1386
G1 X149.800 Y89.611 E0.0026
G1 X149.800 Y65.389 E0.7951
G1 X120.200 Y65.389 F4800
G1 X120.200 Y89.611 E0.7951 F720
G1 X120.170 Y89.684 E0.0026
G1 X117.184 Y92.670 E0.1386
G1 X117.111 Y92.700 E0.0026
G1 X92.889 Y92.700 E0.7951
G1 X92.816 Y92.670 E0.0026
G1 X89.830 Y89.684 E0.1386
G1 X89.800 Y89.611 E0.0026
G1 X89.800 Y65.389 E0.7951
G1 X89.830 Y65.316 E0.0026
G1 X92.816 Y62.330 E0.1386
G1 X92.889 Y62.300 E0.0026
G1 X117.111 Y62.300 E0.7951
G1 X117.184 Y62.330 E0.0026
G1 X120.170 Y65.316 E0.1386
G1 X120.200 Y65.389 E0.0026
G1 X80.200 Y65.389 F4800
G1 X80.200 Y89.611 E0.7951 F720
G1 X80.170 Y89.684 E0.0026
G1 X77.184 Y92.670 E0.1386
G1 X77.111 Y92.700 E0.0026
G1 X52.889 Y92.700 E0.7951
G1 X52.816 Y92.670 E0.0026
G1 X50.000 Y89.854 E0.1307
G1 X47.184 Y92.670 E0.1307
G1 X47.111 Y92.700 E0.0026
G1 X22.889 Y92.700 E0.7951
G1 X22.816 Y92.670 E0.0026
G1 X19.830 Y89.684 E0.1386
G1 X19.800 Y89.611 E0.0026
G1 X19.800 Y65.389 E0.7951
G1 X19.830 Y65.316 E0.0026
G1 X22.816 Y62.330 E0.1386
G1 X22.889 Y62.300 E0.0026
G1 X47.111 Y62.300 E0.7951
G1 X47.184 Y62.330 E0.0026
G1 X50.000 Y65.146 E0.1307
G1 X52.816 Y62.330 E0.1307
G1 X52.889 Y62.300 E0.0026
G1 X77.111 Y62.300 E0.7951
G1 X77.184 Y62.330 E0.0026
G1 X80.170 Y65.316 E0.1386
G1 X80.200 Y65.389 E0.0026
; inner perimeter
G1 X74.804 Y67.696 F4800
G1 X74.804 Y67.911 F4800
G1 X74.400 Y68.100 F4800
G1 X74.400 Y86.900 E0.6172 F540
G1 X55.600 Y86.900 E0.6172
G1 X55.600 Y68.100 E0.6172
G1 X74.400 Y68.100 E0.6172
; outer perimeter
G1 X74.800 Y67.700 F4800
G1 X74.800 Y87.300 E0.6434 F360
G1 X55.200 Y87.300 E0.6434
G1 X55.200 Y67.700 E0.6434
G1 X74.800 Y67.700 E0.6434
; solid layer
G1 X73.749 Y68.220 F4800
G1 X74.280 Y68.751 E0.0246 F576
G1 X74.280 Y69.316 E0.0186
G1 X73.184 Y68.220 E0.0509
G1 X72.618 Y68.220 E0.0186
G1 X74.280 Y69.882 E0.0772
G1 X74.280 Y70.448 E0.0186
G1 X72.052 Y68.220 E0.1034
G1 X71.487 Y68.220 E0.0186
G1 X74.280 Y71.013 E0.1297
G1 X74.280 Y71.579 E0.0186
G1 X70.921 Y68.220 E0.1559
G1 X70.355 Y68.220 E0.0186
G1 X74.280 Y72.145 E0.1822
G1 X74.280 Y72.710 E0.0186
G1 X69.790 Y68.220 E0.2085
G1 X69.224 Y68.220 E0.0186
G1 X74.280 Y73.276 E0.2347
G1 X74.280 Y73.842 E0.0186
G1 X68.658 Y68.220 E0.2610
G1 X68.093 Y68.220 E0.0186
G1 X74.280 Y74.407 E0.2873
G1 X74.280 Y74.973 E0.0186
G1 X67.527 Y68.220 E0.3135
G1 X66.961 Y68.220 E0.0186
G1 X74.280 Y75.539 E0.3398
G1 X74.280 Y76.104 E0.0186
G1 X66.396 Y68.220 E0.3660
G1 X65.830 Y68.220 E0.0186
G1 X74.280 Y76.670 E0.3923
G1 X74.280 Y77.236 E0.0186
G1 X65.264 Y68.220 E0.4186
G1 X64.698 Y68.220 E0.0186
G1 X74.280 Y77.802 E0.4448
G1 X74.280 Y78.367 E0.0186
G1 X64.133 Y68.220 E0.4711
G1 X63.567 Y68.220 E0.0186
G1 X74.280 Y78.933 E0.4974
G1 X74.280 Y79.499 E0.0186
G1 X63.001 Y68.220 E0.5236
G1 X62.436 Y68.220 E0.0186
G1 X74.280 Y80.064 E0.5499
G1 X74.280 Y80.630 E0.0186
G1 X61.870 Y68.220 E0.5761
G1 X61.304 Y68.220 E0.0186
G1 X74.280 Y81.196 E0.6024
G1 X74.280 Y81.761 E0.0186
G1 X60.739 Y68.220 E0.6287
G1 X60.173 Y68.220 E0.0186
G1 X74.280 Y82.327 E0.6549
G1 X74.280 Y82.893 E0.0186
G1 X59.607 Y68.220 E0.6812
G1 X59.042 Y68.220 E0.0186
G1 X74.280 Y83.458 E0.7074
G1 X74.280 Y84.024 E0.0186
G1 X58.476 Y68.220 E0.7337
G1 X57.910 Y68.220 E0.0186
G1 X74.280 Y84.590 E0.7600
G1 X74.280 Y85.155 E0.0186
G1 X57.345 Y68.220 E0.7862
G1 X56.779 Y68.220 E0.0186
G1 X74.280 Y85.721 E0.8125
G1 X74.280 Y86.287 E0.0186
G1 X56.213 Y68.220 E0.8388
G1 X55.720 Y68.220 E0.0162
G1 X55.720 Y68.292 E0.0024
G1 X74.208 Y86.780 E0.8583
G1 X73.642 Y86.780 E0.0186
G1 X55.720 Y68.858 E0.8320
G1 X55.720 Y69.424 E0.0186
G1 X73.076 Y86.780 E0.8058
G1 X72.510 Y86.780 E0.0186
G1 X55.720 Y69.990 E0.7795
G1 X55.720 Y70.555 E0.0186
G1 X71.945 Y86.780 E0.7532
G1 X71.379 Y86.780 E0.0186
G1 X55.720 Y71.121 E0.7270
G1 X55.720 Y71.687 E0.0186
G1 X70.813 Y86.780 E0.7007
G1 X70.248 Y86.780 E0.0186
G1 X55.720 Y72.252 E0.6745
G1 X55.720 Y72.818 E0.0186
G1 X69.682 Y86.780 E0.6482
G1 X69.116 Y86.780 E0.0186
G1 X55.720 Y73.384 E0.6219
G1 X55.720 Y73.949 E0.0186
G1 X68.551 Y86.780 E0.5957
G1 X67.985 Y86.780 E0.0186
G1 X55.720 Y74.515 E0.5694
G1 X55.720 Y75.081 E0.0186
G1 X67.419 Y86.780 E0.5431
G1 X66.854 Y86.780 E0.0186
G1 X55.720 Y75.646 E0.5169
G1 X55.720 Y76.212 E0.0186
G1 X66.288 Y86.780 E0.4906
G1 X65.722 Y86.780 E0.0186
G1 X55.720 Y76.778 E0.4644
G1 X55.720 Y77.343 E0.0186
G1 X65.157 Y86.780 E0.4381
G1 X64.591 Y86.780 E0.0186
G1 X55.720 Y77.909 E0.4118
G1 X55.720 Y78.475 E0.0186
G1 X64.025 Y86.780 E0.3856
G1 X63.459 Y86.780 E0.0186
G1 X55.720 Y79.041 E0.3593
G1 X55.720 Y79.606 E0.0186
G1 X62.894 Y86.780 E0.3330
G1 X62.328 Y86.780 E0.0186
G1 X55.720 Y80.172 E0.3068
G1 X55.720 Y80.738 E0.0186
G1 X61.762 Y86.780 E0.2805
G1 X61.197 Y86.780 E0.0186
G1 X55.720 Y81.303 E0.2543
G1 X55.720 Y81.869 E0.0186
G1 X60.631 Y86.780 E0.2280
G1 X60.065 Y86.780 E0.0186
G1 X55.720 Y82.435 E0.2017
G1 X55.720 Y83.000 E0.0186
G1 X59.500 Y86.780 E0.1755
G1 X58.934 Y86.780 E0.0186
G1 X55.720 Y83.566 E0.1492
G1 X55.720 Y84.132 E0.0186
G1 X58.368 Y86.780 E0.1229
G1 X57.803 Y86.780 E0.0186
G1 X55.720 Y84.697 E0.0967
G1 X55.720 Y85.263 E0.0186
G1 X57.237 Y86.780 E0.0704
G1 X56.671 Y86.780 E0.0186
G1 X55.720 Y85.829 E0.0442
G1 X55.720 Y86.394 E0.0186
G1 X56.106 Y86.780 E0.0179
; inner perimeter
G1 X44.400 Y86.900 F4800
G1 X25.600 Y86.900 E0.6172 F540
G1 X25.600 Y68.100 E0.6172
G1 X44.400 Y68.100 E0.6172
G1 X44.400 Y86.900 E0.6172
; outer perimeter
G1 X44.800 Y87.300 F4800
G1 X25.200 Y87.300 E0.6434 F360
G1 X25.200 Y67.700 E0.6434
G1 X44.800 Y67.700 E0.6434
G1 X44.800 Y87.300 E0.6434
; solid layer
G1 X26.124 Y86.780 F4800
G1 X25.720 Y86.376 E0.0188 F576
G1 X25.720 Y85.810 E0.0186
G1 X26.690 Y86.780 E0.0450
G1 X27.256 Y86.780 E0.0186
G1 X25.720 Y85.244 E0.0713
G1 X25.720 Y84.679 E0.0186
G1 X27.821 Y86.780 E0.0976
G1 X28.387 Y86.780 E0.0186
G1 X25.720 Y84.113 E0.1238
G1 X25.720 Y83.547 E0.0186
G1 X28.953 Y86.780 E0.1501
G1 X29.518 Y86.780 E0.0186
G1 X25.720 Y82.982 E0.1763
G1 X25.720 Y82.416 E0.0186
G1 X30.084 Y86.780 E0.2026
G1 X30.650 Y86.780 E0.0186
G1 X25.720 Y81.850 E0.2289
G1 X25.720 Y81.285 E0.0186
G1 X31.215 Y86.780 E0.2551
G1 X31.781 Y86.780 E0.0186
G1 X25.720 Y80.719 E0.2814
G1 X25.720 Y80.153 E0.0186
G1 X32.347 Y86.780 E0.3077
G1 X32.912 Y86.780 E0.0186
G1 X25.720 Y79.588 E0.3339
G1 X25.720 Y79.022 E0.0186
G1 X33.478 Y86.780 E0.3602
G1 X34.044 Y86.780 E0.0186
G1 X25.720 Y78.456 E0.3864
G1 X25.720 Y77.890 E0.0186
G1 X34.610 Y86.780 E0.4127
G1 X35.175 Y86.780 E0.0186
G1 X25.720 Y77.325 E0.4390
G1 X25.720 Y76.759 E0.0186
G1 X35.741 Y86.780 E0.4652
G1 X36.307 Y86.780 E0.0186
G1 X25.720 Y76.193 E0.4915
G1 X25.720 Y75.628 E0.0186
G1 X36.872 Y86.780 E0.5177
G1 X37.438 Y86.780 E0.0186
G1 X25.720 Y75.062 E0.5440
G1 X25.720 Y74.496 E0.0186
G1 X38.004 Y86.780 E0.5703
G1 X38.569 Y86.780 E0.0186
G1 X25.720 Y73.931 E0.5965
G1 X25.720 Y73.365 E0.0186
G1 X39.135 Y86.780 E0.6228
G1 X39.701 Y86.780 E0.0186
G1 X25.720 Y72.799 E0.6491
G1 X25.720 Y72.234 E0.0186
G1 X40.266 Y86.780 E0.6753
G1 X40.832 Y86.780 E0.0186
G1 X25.720 Y71.668 E0.7016
G1 X25.720 Y71.102 E0.0186
G1 X41.398 Y86.780 E0.7278
G1 X41.963 Y86.780 E0.0186
G1 X25.720 Y70.537 E0.7541
G1 X25.720 Y69.971 E0.0186
G1 X42.529 Y86.780 E0.7804
G1 X43.095 Y86.780 E0.0186
G1 X25.720 Y69.405 E0.8066
G1 X25.720 Y68.839 E0.0186
G1 X43.661 Y86.780 E0.8329
G1 X44.226 Y86.780 E0.0186
G1 X25.720 Y68.274 E0.8592
G1 X25.720 Y68.220 E0.0018
G1 X26.232 Y68.220 E0.0168
G1 X44.280 Y86.268 E0.8379
G1 X44.280 Y85.702 E0.0186
G1 X26.798 Y68.220 E0.8116
G1 X27.363 Y68.220 E0.0186
G1 X44.280 Y85.137 E0.7854
