; G-Code generated by Simplify3D(R) Version 4.0.1
; Mar 4, 2018 at 7:36:11 PM
; Settings Summary
;   processName,Process1
;   applyToModels,20mm_cube,20mm_cube(2)
;   profileName,PrusaMK2S
;   profileVersion,2018-02-28 03:46:26
;   baseProfile,Default
;   printMaterial,PLA Sakata3D
;   printQuality,Medium
;   printExtruders,
;   extruderName,Extruder 1
;   extruderToolheadNumber,0
;   extruderDiameter,0.4
;   extruderAutoWidth,0
;   extruderWidth,0.4
;   extrusionMultiplier,0.92
;   extruderUseRetract,1
;   extruderRetractionDistance,1
;   extruderExtraRestartDistance,0
;   extruderRetractionZLift,0
;   extruderRetractionSpeed,3600
;   extruderUseCoasting,1
;   extruderCoastingDistance,0.3
;   extruderUseWipe,0
;   extruderWipeDistance,6
;   primaryExtruder,0
;   layerHeight,0.2
;   topSolidLayers,2
;   bottomSolidLayers,2
;   perimeterOutlines,2
;   printPerimetersInsideOut,1
;   startPointOption,2
;   startPointOriginX,0
;   startPointOriginY,0
;   sequentialIslands,0
;   spiralVaseMode,0
;   firstLayerHeightPercentage,110
;   firstLayerWidthPercentage,100
;   firstLayerUnderspeed,0.3
;   useRaft,0
;   raftExtruder,0
;   raftTopLayers,3
;   raftBaseLayers,2
;   raftOffset,3
;   raftSeparationDistance,0.14
;   raftTopInfill,100
;   aboveRaftSpeedMultiplier,0.3
;   useSkirt,1
;   skirtExtruder,0
;   skirtLayers,1
;   skirtOutlines,1
;   skirtOffset,15
;   usePrimePillar,0
;   primePillarExtruder,999
;   primePillarWidth,12
;   primePillarLocation,7
;   primePillarSpeedMultiplier,1
;   useOozeShield,0
;   oozeShieldExtruder,999
;   oozeShieldOffset,2
;   oozeShieldOutlines,1
;   oozeShieldSidewallShape,1
;   oozeShieldSidewallAngle,30
;   oozeShieldSpeedMultiplier,1
;   infillExtruder,0
;   internalInfillPattern,Grid
;   externalInfillPattern,Rectilinear
;   infillPercentage,10
;   outlineOverlapPercentage,70
;   infillExtrusionWidthPercentage,100
;   minInfillLength,3
;   infillLayerInterval,1
;   internalInfillAngles,45,-45
;   overlapInternalInfillAngles,1
;   externalInfillAngles,45,-45
;   generateSupport,0
;   supportExtruder,0
;   supportInfillPercentage,20
;   supportExtraInflation,0
;   supportBaseLayers,0
;   denseSupportExtruder,0
;   denseSupportLayers,0
;   denseSupportInfillPercentage,70
;   supportLayerInterval,1
;   supportHorizontalPartOffset,0.3
;   supportUpperSeparationLayers,1
;   supportLowerSeparationLayers,1
;   supportType,1
;   supportGridSpacing,4
;   maxOverhangAngle,45
;   supportAngles,0
;   temperatureName,Extruder 1
;   temperatureNumber,0
;   temperatureSetpointCount,1
;   temperatureSetpointLayers,1
;   temperatureSetpointTemperatures,210
;   temperatureStabilizeAtStartup,1
;   temperatureHeatedBed,0
;   temperatureRelayBetweenLayers,0
;   temperatureRelayBetweenLoops,0
;   fanLayers,1
;   fanSpeeds,0
;   blipFanToFullPower,0
;   adjustSpeedForCooling,1
;   minSpeedLayerTime,15
;   minCoolingSpeedSlowdown,20
;   increaseFanForCooling,0
;   minFanLayerTime,45
;   maxCoolingFanSpeed,100
;   increaseFanForBridging,0
;   bridgingFanSpeed,100
;   use5D,1
;   relativeEdistances,1
;   allowEaxisZeroing,1
;   independentExtruderAxes,0
;   includeM10123,0
;   stickySupport,1
;   applyToolheadOffsets,0
;   gcodeXoffset,0
;   gcodeYoffset,0
;   gcodeZoffset,0
;   overrideMachineDefinition,1
;   machineTypeOverride,0
;   strokeXoverride,200
;   strokeYoverride,155
;   strokeZoverride,150
;   originOffsetXoverride,0
;   originOffsetYoverride,0
;   originOffsetZoverride,0
;   homeXdirOverride,-1
;   homeYdirOverride,-1
;   homeZdirOverride,-1
;   flipXoverride,1
;   flipYoverride,-1
;   flipZoverride,1
;   toolheadOffsets,0,0|0,0|0,0|0,0|0,0|0,0
;   overrideFirmwareConfiguration,1
;   firmwareTypeOverride,RepRap (Marlin/Repetier/Sprinter)
;   GPXconfigOverride,r2
;   baudRateOverride,115200
;   overridePrinterModels,0
;   printerModelsOverride
;   startingGcode,G29 S1		; Load Mesh Bed Levelling,; Clean Nozzle,G90			; Absolute Positioning,G1 Z5 F5000 		; Lift Nozzle,G1 X65 Y-5,G1 Z0.45  F200 		; Move Z to Cleaning Height,G1 X105 E15 F200,G1 Z5 F300		; Lift Nozzle,;M98 P/macros/Limpieza
;   layerChangeGcode,
;   retractionGcode,
;   toolChangeGcode,
;   endingGcode,G28 X0,M106 S0 ; turn off fan,G10 P0 R-273.15 S-273.15 ,M140 S0 ; turn off bed,G1 Y300,G91,G91 Z+5,G90,M98 P/macros/Final
;   exportFileFormat,gcode
;   celebration,0
;   celebrationSong,Random Song
;   postProcessing,
;   defaultSpeed,2400
;   outlineUnderspeed,0.5
;   solidInfillUnderspeed,0.8
;   supportUnderspeed,0.8
;   rapidXYspeed,4800
;   rapidZspeed,1002
;   minBridgingArea,5
;   bridgingExtraInflation,0
;   bridgingExtrusionMultiplier,1.2
;   bridgingSpeedMultiplier,2
;   useFixedBridgingAngle,0
;   fixedBridgingAngle,0
;   applyBridgingToPerimeters,0
;   filamentDiameters,1.75|1.75|1.75|1.75|1.75|1.75
;   filamentPricesPerKg,23|46|46|46|46|46
;   filamentDensities,1.25|1.25|1.25|1.25|1.25|1.25
;   useMinPrintHeight,0
;   minPrintHeight,0
;   useMaxPrintHeight,0
;   maxPrintHeight,10
;   useDiaphragm,0
;   diaphragmLayerInterval,20
;   robustSlicing,1
;   mergeAllIntoSolid,0
;   onlyRetractWhenCrossingOutline,0
;   retractBetweenLayers,1
;   useRetractionMinTravel,1
;   retractionMinTravel,4
;   retractWhileWiping,1
;   onlyWipeOutlines,0
;   avoidCrossingOutline,1
;   maxMovementDetourFactor,5
;   toolChangeRetractionDistance,12
;   toolChangeExtraRestartDistance,-0.5
;   toolChangeRetractionSpeed,600
;   externalThinWallType,0
;   internalThinWallType,2
;   thinWallAllowedOverlapPercentage,10
;   singleExtrusionMinLength,1
;   singleExtrusionMinPrintingWidthPercentage,50
;   singleExtrusionMaxPrintingWidthPercentage,200
;   singleExtrusionEndpointExtension,0.2
;   horizontalSizeCompensation,0
G90
M83
M106 S0
M104 S210 T0
M109 S210 T0
G29 S1		; Load Mesh Bed Levelling
; Clean Nozzle
G90			; Absolute Positioning
G1 Z5 F5000 		; Lift Nozzle
G1 X65 Y-5
G1 Z0.45  F200 		; Move Z to Cleaning Height
G1 X105 E15 F200
G1 Z5 F300		; Lift Nozzle
;M98 P/macros/Limpieza
G1 E-1.0000 F3600
G1 Z0.220 F1002
; process Process1
; layer 1, Z = 0.220
T0
; tool H0.220 W0.400
; skirt
G1 X54.830 Y61.174 F4800
G1 E1.0000 F1080
G1 X63.674 Y52.330 E0.4209 F720
G1 X63.747 Y52.300 E0.0027
G1 X126.253 Y52.300 E2.1039
G1 X126.326 Y52.330 E0.0027
G1 X135.170 Y61.174 E0.4209
G1 X135.200 Y61.247 E0.0027
G1 X135.200 Y93.753 E1.0941
G1 X135.170 Y93.826 E0.0027
G1 X126.326 Y102.670 E0.4209
G1 X126.253 Y102.700 E0.0027
G1 X63.747 Y102.700 E2.1039
G1 X63.674 Y102.670 E0.0027
G1 X54.830 Y93.826 E0.4209
G1 X54.800 Y93.753 E0.0027
G1 X54.800 Y61.467 E1.0867
G1 X54.800 Y61.247 F720
G1 X54.830 Y61.174 F720
G1 E-1.0000 F3600
; inner perimeter
G1 X70.196 Y67.696 F4800
G1 X70.196 Y67.923 F4800
G1 X70.600 Y68.100 F4800
G1 E1.0000 F3600
G1 X89.400 Y68.100 E0.6328 F540
G1 X89.400 Y86.900 E0.6328
G1 X70.600 Y86.900 E0.6328
G1 X70.600 Y68.400 E0.6227
G1 X70.600 Y68.100 F540
; outer perimeter
G1 X70.200 Y67.700 F4800
G1 X89.800 Y67.700 E0.6597 F360
G1 X89.800 Y87.300 E0.6597
G1 X70.200 Y87.300 E0.6597
G1 X70.200 Y68.000 E0.6496
G1 X70.200 Y67.700 F360
G1 E-1.0000 F3600
; solid layer
G1 X70.720 Y86.595 F4800
G1 E1.0000 F3600
G1 X70.905 Y86.780 E0.0088 F576
G1 X71.470 Y86.780 E0.0190
G1 X70.720 Y86.030 E0.0357
G1 X70.720 Y85.464 E0.0190
G1 X72.036 Y86.780 E0.0626
G1 X72.602 Y86.780 E0.0190
G1 X70.720 Y84.898 E0.0896
G1 X70.720 Y84.333 E0.0190
G1 X73.167 Y86.780 E0.1165
G1 X73.733 Y86.780 E0.0190
G1 X70.720 Y83.767 E0.1434
G1 X70.720 Y83.201 E0.0190
G1 X74.299 Y86.780 E0.1704
G1 X74.864 Y86.780 E0.0190
G1 X70.720 Y82.636 E0.1973
G1 X70.720 Y82.070 E0.0190
G1 X75.430 Y86.780 E0.2242
G1 X75.996 Y86.780 E0.0190
G1 X70.720 Y81.504 E0.2511
G1 X70.720 Y80.939 E0.0190
G1 X76.561 Y86.780 E0.2781
G1 X77.127 Y86.780 E0.0190
G1 X70.720 Y80.373 E0.3050
G1 X70.720 Y79.807 E0.0190
G1 X77.693 Y86.780 E0.3319
G1 X78.258 Y86.780 E0.0190
G1 X70.720 Y79.242 E0.3588
G1 X70.720 Y78.676 E0.0190
G1 X78.824 Y86.780 E0.3858
G1 X79.390 Y86.780 E0.0190
G1 X70.720 Y78.110 E0.4127
G1 X70.720 Y77.544 E0.0190
G1 X79.956 Y86.780 E0.4396
G1 X80.521 Y86.780 E0.0190
G1 X70.720 Y76.979 E0.4666
G1 X70.720 Y76.413 E0.0190
G1 X81.087 Y86.780 E0.4935
G1 X81.653 Y86.780 E0.0190
G1 X70.720 Y75.847 E0.5204
G1 X70.720 Y75.282 E0.0190
G1 X82.218 Y86.780 E0.5473
G1 X82.784 Y86.780 E0.0190
G1 X70.720 Y74.716 E0.5743
G1 X70.720 Y74.150 E0.0190
G1 X83.350 Y86.780 E0.6012
G1 X83.915 Y86.780 E0.0190
G1 X70.720 Y73.585 E0.6281
G1 X70.720 Y73.019 E0.0190
G1 X84.481 Y86.780 E0.6550
G1 X85.047 Y86.780 E0.0190
G1 X70.720 Y72.453 E0.6820
G1 X70.720 Y71.888 E0.0190
G1 X85.612 Y86.780 E0.7089
G1 X86.178 Y86.780 E0.0190
G1 X70.720 Y71.322 E0.7358
G1 X70.720 Y70.756 E0.0190
G1 X86.744 Y86.780 E0.7628
G1 X87.309 Y86.780 E0.0190
G1 X70.720 Y70.191 E0.7897
G1 X70.720 Y69.625 E0.0190
G1 X87.875 Y86.780 E0.8166
G1 X88.441 Y86.780 E0.0190
G1 X70.720 Y69.059 E0.8435
G1 X70.720 Y68.493 E0.0190
G1 X89.007 Y86.780 E0.8705
G1 X89.280 Y86.780 E0.0092
G1 X89.280 Y86.488 E0.0098
G1 X71.012 Y68.220 E0.8696
G1 X71.578 Y68.220 E0.0190
G1 X89.280 Y85.922 E0.8426
G1 X89.280 Y85.356 E0.0190
G1 X72.144 Y68.220 E0.8157
G1 X72.709 Y68.220 E0.0190
G1 X89.280 Y84.791 E0.7888
G1 X89.280 Y84.225 E0.0190
G1 X73.275 Y68.220 E0.7619
G1 X73.841 Y68.220 E0.0190
G1 X89.280 Y83.659 E0.7349
G1 X89.280 Y83.094 E0.0190
G1 X74.406 Y68.220 E0.7080
G1 X74.972 Y68.220 E0.0190
G1 X89.280 Y82.528 E0.6811
G1 X89.280 Y81.962 E0.0190
G1 X75.538 Y68.220 E0.6542
G1 X76.103 Y68.220 E0.0190
G1 X89.280 Y81.397 E0.6272
G1 X89.280 Y80.831 E0.0190
G1 X76.669 Y68.220 E0.6003
G1 X77.235 Y68.220 E0.0190
G1 X89.280 Y80.265 E0.5734
G1 X89.280 Y79.700 E0.0190
G1 X77.800 Y68.220 E0.5464
G1 X78.366 Y68.220 E0.0190
G1 X89.280 Y79.134 E0.5195
G1 X89.280 Y78.568 E0.0190
G1 X78.932 Y68.220 E0.4926
G1 X79.497 Y68.220 E0.0190
G1 X89.280 Y78.003 E0.4657
G1 X89.280 Y77.437 E0.0190
G1 X80.063 Y68.220 E0.4387
G1 X80.629 Y68.220 E0.0190
G1 X89.280 Y76.871 E0.4118
G1 X89.280 Y76.305 E0.0190
G1 X81.195 Y68.220 E0.3849
G1 X81.760 Y68.220 E0.0190
G1 X89.280 Y75.740 E0.3580
G1 X89.280 Y75.174 E0.0190
G1 X82.326 Y68.220 E0.3310
G1 X82.892 Y68.220 E0.0190
G1 X89.280 Y74.608 E0.3041
G1 X89.280 Y74.043 E0.0190
G1 X83.457 Y68.220 E0.2772
G1 X84.023 Y68.220 E0.0190
G1 X89.280 Y73.477 E0.2502
G1 X89.280 Y72.911 E0.0190
G1 X84.589 Y68.220 E0.2233
G1 X85.154 Y68.220 E0.0190
G1 X89.280 Y72.346 E0.1964
G1 X89.280 Y71.780 E0.0190
G1 X85.720 Y68.220 E0.1695
G1 X86.286 Y68.220 E0.0190
G1 X89.280 Y71.214 E0.1425
G1 X89.280 Y70.649 E0.0190
G1 X86.851 Y68.220 E0.1156
G1 X87.417 Y68.220 E0.0190
G1 X89.280 Y70.083 E0.0887
G1 X89.280 Y69.517 E0.0190
G1 X87.983 Y68.220 E0.0618
G1 X88.548 Y68.220 E0.0190
G1 X89.280 Y68.952 E0.0348
G1 X89.280 Y68.451 E0.0168
G1 X89.280 Y68.386 F576
G1 X89.114 Y68.220 F576
G1 E-1.0000 F3600
; inner perimeter
G1 X100.600 Y68.100 F4800
G1 E1.0000 F3600
G1 X119.400 Y68.100 E0.6328 F540
G1 X119.400 Y86.900 E0.6328
G1 X100.600 Y86.900 E0.6328
G1 X100.600 Y68.400 E0.6227
G1 X100.600 Y68.100 F540
; outer perimeter
G1 X100.200 Y67.700 F4800
G1 X119.800 Y67.700 E0.6597 F360
G1 X119.800 Y87.300 E0.6597
G1 X100.200 Y87.300 E0.6597
G1 X100.200 Y68.000 E0.6496
G1 X100.200 Y67.700 F360
G1 E-1.0000 F3600
; solid layer
G1 X119.095 Y68.220 F4800
G1 E1.0000 F3600
G1 X119.280 Y68.405 E0.0088 F576
G1 X119.280 Y68.970 E0.0190
G1 X118.530 Y68.220 E0.0357
G1 X117.964 Y68.220 E0.0190
G1 X119.280 Y69.536 E0.0626
G1 X119.280 Y70.102 E0.0190
G1 X117.398 Y68.220 E0.0896
G1 X116.833 Y68.220 E0.0190
G1 X119.280 Y70.667 E0.1165
G1 X119.280 Y71.233 E0.0190
G1 X116.267 Y68.220 E0.1434
G1 X115.701 Y68.220 E0.0190
G1 X119.280 Y71.799 E0.1703
G1 X119.280 Y72.364 E0.0190
G1 X115.136 Y68.220 E0.1973
G1 X114.570 Y68.220 E0.0190
G1 X119.280 Y72.930 E0.2242
G1 X119.280 Y73.496 E0.0190
G1 X114.004 Y68.220 E0.2511
G1 X113.439 Y68.220 E0.0190
G1 X119.280 Y74.061 E0.2781
G1 X119.280 Y74.627 E0.0190
G1 X112.873 Y68.220 E0.3050
G1 X112.307 Y68.220 E0.0190
G1 X119.280 Y75.193 E0.3319
G1 X119.280 Y75.758 E0.0190
G1 X111.742 Y68.220 E0.3588
G1 X111.176 Y68.220 E0.0190
G1 X119.280 Y76.324 E0.3858
G1 X119.280 Y76.890 E0.0190
G1 X110.610 Y68.220 E0.4127
G1 X110.044 Y68.220 E0.0190
G1 X119.280 Y77.456 E0.4396
G1 X119.280 Y78.021 E0.0190
G1 X109.479 Y68.220 E0.4666
G1 X108.913 Y68.220 E0.0190
G1 X119.280 Y78.587 E0.4935
G1 X119.280 Y79.153 E0.0190
G1 X108.347 Y68.220 E0.5204
G1 X107.782 Y68.220 E0.0190
G1 X119.280 Y79.718 E0.5473
G1 X119.280 Y80.284 E0.0190
G1 X107.216 Y68.220 E0.5743
G1 X106.650 Y68.220 E0.0190
G1 X119.280 Y80.850 E0.6012
G1 X119.280 Y81.415 E0.0190
G1 X106.085 Y68.220 E0.6281
G1 X105.519 Y68.220 E0.0190
G1 X119.280 Y81.981 E0.6550
G1 X119.280 Y82.547 E0.0190
G1 X104.953 Y68.220 E0.6820
G1 X104.388 Y68.220 E0.0190
G1 X119.280 Y83.112 E0.7089
G1 X119.280 Y83.678 E0.0190
G1 X103.822 Y68.220 E0.7358
G1 X103.256 Y68.220 E0.0190
G1 X119.280 Y84.244 E0.7628
G1 X119.280 Y84.809 E0.0190
G1 X102.691 Y68.220 E0.7897
G1 X102.125 Y68.220 E0.0190
G1 X119.280 Y85.375 E0.8166
G1 X119.280 Y85.941 E0.0190
G1 X101.559 Y68.220 E0.8435
G1 X100.994 Y68.220 E0.0190
G1 X119.280 Y86.506 E0.8705
G1 X119.280 Y86.780 E0.0092
G1 X118.988 Y86.780 E0.0098
G1 X100.720 Y68.512 E0.8696
G1 X100.720 Y69.078 E0.0190
G1 X118.422 Y86.780 E0.8426
G1 X117.856 Y86.780 E0.0190
G1 X100.720 Y69.644 E0.8157
G1 X100.720 Y70.209 E0.0190
G1 X117.291 Y86.780 E0.7888
G1 X116.725 Y86.780 E0.0190
G1 X100.720 Y70.775 E0.7619
G1 X100.720 Y71.341 E0.0190
G1 X116.159 Y86.780 E0.7349
G1 X115.594 Y86.780 E0.0190
G1 X100.720 Y71.906 E0.7080
G1 X100.720 Y72.472 E0.0190
G1 X115.028 Y86.780 E0.6811
G1 X114.462 Y86.780 E0.0190
G1 X100.720 Y73.038 E0.6542
G1 X100.720 Y73.603 E0.0190
G1 X113.897 Y86.780 E0.6272
G1 X113.331 Y86.780 E0.0190
G1 X100.720 Y74.169 E0.6003
G1 X100.720 Y74.735 E0.0190
G1 X112.765 Y86.780 E0.5734
G1 X112.200 Y86.780 E0.0190
G1 X100.720 Y75.300 E0.5464
G1 X100.720 Y75.866 E0.0190
G1 X111.634 Y86.780 E0.5195
G1 X111.068 Y86.780 E0.0190
G1 X100.720 Y76.432 E0.4926
G1 X100.720 Y76.997 E0.0190
G1 X110.503 Y86.780 E0.4657
G1 X109.937 Y86.780 E0.0190
G1 X100.720 Y77.563 E0.4387
G1 X100.720 Y78.129 E0.0190
G1 X109.371 Y86.780 E0.4118
G1 X108.805 Y86.780 E0.0190
G1 X100.720 Y78.695 E0.3849
G1 X100.720 Y79.260 E0.0190
G1 X108.240 Y86.780 E0.3580
G1 X107.674 Y86.780 E0.0190
G1 X100.720 Y79.826 E0.3310
G1 X100.720 Y80.392 E0.0190
G1 X107.108 Y86.780 E0.3041
G1 X106.543 Y86.780 E0.0190
G1 X100.720 Y80.957 E0.2772
G1 X100.720 Y81.523 E0.0190
G1 X105.977 Y86.780 E0.2502
G1 X105.411 Y86.780 E0.0190
G1 X100.720 Y82.089 E0.2233
G1 X100.720 Y82.654 E0.0190
G1 X104.846 Y86.780 E0.1964
G1 X104.280 Y86.780 E0.0190
G1 X100.720 Y83.220 E0.1695
G1 X100.720 Y83.786 E0.0190
G1 X103.714 Y86.780 E0.1425
G1 X103.149 Y86.780 E0.0190
G1 X100.720 Y84.351 E0.1156
G1 X100.720 Y84.917 E0.0190
G1 X102.583 Y86.780 E0.0887
G1 X102.017 Y86.780 E0.0190
G1 X100.720 Y85.483 E0.0618
G1 X100.720 Y86.048 E0.0190
G1 X101.452 Y86.780 E0.0348
G1 X100.951 Y86.780 E0.0168
G1 X100.886 Y86.780 F576
G1 X100.720 Y86.614 F576
G1 E-1.0000 F3600
; layer 2, Z = 0.420
; tool H0.200 W0.400
; inner perimeter
G1 X100.600 Y86.900 F4800
G1 Z0.420 F1002
G1 E1.0000 F3600
G1 X100.600 Y68.100 E0.5753 F1800
G1 X119.400 Y68.100 E0.5753
G1 X119.400 Y86.900 E0.5753
G1 X100.900 Y86.900 E0.5661
G1 X100.600 Y86.900 F1800
; outer perimeter
G1 X100.200 Y87.300 F4800
G1 X100.200 Y67.700 E0.5997 F1200
G1 X119.800 Y67.700 E0.5997
G1 X119.800 Y87.300 E0.5997
G1 X100.500 Y87.300 E0.5906
G1 X100.200 Y87.300 F1200
G1 E-1.0000 F3600
; solid layer
G1 X119.095 Y86.780 F4800
G1 E1.0000 F3600
G1 X119.280 Y86.595 E0.0080 F1920
G1 X119.280 Y86.030 E0.0173
G1 X118.530 Y86.780 E0.0325
G1 X117.964 Y86.780 E0.0173
G1 X119.280 Y85.464 E0.0569
G1 X119.280 Y84.898 E0.0173
G1 X117.398 Y86.780 E0.0814
G1 X116.833 Y86.780 E0.0173
G1 X119.280 Y84.333 E0.1059
G1 X119.280 Y83.767 E0.0173
G1 X116.267 Y86.780 E0.1304
G1 X115.701 Y86.780 E0.0173
G1 X119.280 Y83.201 E0.1549
G1 X119.280 Y82.636 E0.0173
G1 X115.136 Y86.780 E0.1793
G1 X114.570 Y86.780 E0.0173
G1 X119.280 Y82.070 E0.2038
G1 X119.280 Y81.504 E0.0173
G1 X114.004 Y86.780 E0.2283
