; G-Code generated by Simplify3D(R) Version 4.0.1
; Apr 26, 2018 at 9:14:28 PM
; Settings Summary
;   processName,Process1
;   applyToModels,Lat Izq
;   profileName,PrusaMK2S (modified)
;   profileVersion,2018-03-06 01:09:59
;   baseProfile,Default
;   printMaterial,PLA-Sakata3D-Gris870
;   printQuality,Detail 0.1
;   printExtruders,
;   extruderName,Extruder 1
;   extruderToolheadNumber,0
;   extruderDiameter,0.4
;   extruderAutoWidth,0
;   extruderWidth,0.4
;   extrusionMultiplier,0.95
;   extruderUseRetract,1
;   extruderRetractionDistance,2.2
;   extruderExtraRestartDistance,0
;   extruderRetractionZLift,0.3
;   extruderRetractionSpeed,4800
;   extruderUseCoasting,1
;   extruderCoastingDistance,0.3
;   extruderUseWipe,0
;   extruderWipeDistance,2
;   primaryExtruder,0
;   layerHeight,0.1
;   topSolidLayers,15
;   bottomSolidLayers,5
;   perimeterOutlines,2
;   printPerimetersInsideOut,1
;   startPointOption,2
;   startPointOriginX,0
;   startPointOriginY,0
;   sequentialIslands,0
;   spiralVaseMode,0
;   firstLayerHeightPercentage,200
;   firstLayerWidthPercentage,95
;   firstLayerUnderspeed,0.2
;   useRaft,0
;   raftExtruder,0
;   raftTopLayers,3
;   raftBaseLayers,2
;   raftOffset,3
;   raftSeparationDistance,0.14
;   raftTopInfill,100
;   aboveRaftSpeedMultiplier,0.3
;   useSkirt,1
;   skirtExtruder,0
;   skirtLayers,1
;   skirtOutlines,1
;   skirtOffset,5
;   usePrimePillar,0
;   primePillarExtruder,999
;   primePillarWidth,12
;   primePillarLocation,7
;   primePillarSpeedMultiplier,1
;   useOozeShield,0
;   oozeShieldExtruder,999
;   oozeShieldOffset,2
;   oozeShieldOutlines,1
;   oozeShieldSidewallShape,1
;   oozeShieldSidewallAngle,30
;   oozeShieldSpeedMultiplier,1
;   infillExtruder,0
;   internalInfillPattern,Grid
;   externalInfillPattern,Rectilinear
;   infillPercentage,100
;   outlineOverlapPercentage,25
;   infillExtrusionWidthPercentage,100
;   minInfillLength,2
;   infillLayerInterval,1
;   internalInfillAngles,45,-45
;   overlapInternalInfillAngles,1
;   externalInfillAngles,45,-45
;   generateSupport,0
;   supportExtruder,0
;   supportInfillPercentage,20
;   supportExtraInflation,0
;   supportBaseLayers,0
;   denseSupportExtruder,0
;   denseSupportLayers,0
;   denseSupportInfillPercentage,70
;   supportLayerInterval,1
;   supportHorizontalPartOffset,0.3
;   supportUpperSeparationLayers,1
;   supportLowerSeparationLayers,1
;   supportType,1
;   supportGridSpacing,4
;   maxOverhangAngle,45
;   supportAngles,0
;   temperatureName,Extruder 1
;   temperatureNumber,0
;   temperatureSetpointCount,1
;   temperatureSetpointLayers,1
;   temperatureSetpointTemperatures,205
;   temperatureStabilizeAtStartup,1
;   temperatureHeatedBed,0
;   temperatureRelayBetweenLayers,0
;   temperatureRelayBetweenLoops,0
;   fanLayers,1,3,4,5
;   fanSpeeds,0,30,50,60
;   blipFanToFullPower,0
;   adjustSpeedForCooling,1
;   minSpeedLayerTime,15
;   minCoolingSpeedSlowdown,20
;   increaseFanForCooling,1
;   minFanLayerTime,30
;   maxCoolingFanSpeed,100
;   increaseFanForBridging,1
;   bridgingFanSpeed,100
;   use5D,1
;   relativeEdistances,1
;   allowEaxisZeroing,1
;   independentExtruderAxes,0
;   includeM10123,0
;   stickySupport,1
;   applyToolheadOffsets,0
;   gcodeXoffset,0
;   gcodeYoffset,0
;   gcodeZoffset,0
;   overrideMachineDefinition,1
;   machineTypeOverride,0
;   strokeXoverride,190
;   strokeYoverride,165
;   strokeZoverride,129
;   originOffsetXoverride,0
;   originOffsetYoverride,0
;   originOffsetZoverride,0
;   homeXdirOverride,-1
;   homeYdirOverride,-1
;   homeZdirOverride,-1
;   flipXoverride,1
;   flipYoverride,-1
;   flipZoverride,1
;   toolheadOffsets,0,0|0,0|0,0|0,0|0,0|0,0
;   overrideFirmwareConfiguration,0
;   firmwareTypeOverride,RepRap (Marlin/Repetier/Sprinter)
;   GPXconfigOverride,r2
;   baudRateOverride,115200
;   overridePrinterModels,0
;   printerModelsOverride
;   startingGcode,G29 S1		; Load Mesh Bed Levelling,; Clean Nozzle,G90			; Absolute Positioning,G1 Z5 F5000 		; Lift Nozzle,;G1 X65 Y-5,;G1 Z0.45  F200 		; Move Z to Cleaning Height,;G1 X105 E15 F200,G1 X0 Y0.0 Z0.2 F1000.0 ; go outside print area,G92 E0.0,G1 X60.0 E9.0  F1000.0 ; intro line,G1 X100.0 E12.5  F1000.0 ; intro line,;G1 Z5 F300		; Lift Nozzle,;M98 P/macros/Limpieza
;   layerChangeGcode,
;   retractionGcode,
;   toolChangeGcode,
;   endingGcode,G1 X0,M106 S0 ; turn off fan,G10 P0 R-273.15 S-273.15 ,M140 S0 ; turn off bed,G1 Y300,G91,G1 Z+5,G90,M98 P/macros/Final
;   exportFileFormat,gcode
;   celebration,0
;   celebrationSong,Random Song
;   postProcessing,
;   defaultSpeed,3000
;   outlineUnderspeed,0.4
;   solidInfillUnderspeed,1
;   supportUnderspeed,0.5
;   rapidXYspeed,6000
;   rapidZspeed,1002
;   minBridgingArea,5
;   bridgingExtraInflation,0
;   bridgingExtrusionMultiplier,0.8
;   bridgingSpeedMultiplier,2
;   useFixedBridgingAngle,0
;   fixedBridgingAngle,0
;   applyBridgingToPerimeters,0
;   filamentDiameters,1.75|1.75|1.75|1.75|1.75|1.75
;   filamentPricesPerKg,23|46|46|46|46|46
;   filamentDensities,1.25|1.25|1.25|1.25|1.25|1.25
;   useMinPrintHeight,0
;   minPrintHeight,0
;   useMaxPrintHeight,0
;   maxPrintHeight,18
;   useDiaphragm,0
;   diaphragmLayerInterval,20
;   robustSlicing,1
;   mergeAllIntoSolid,0
;   onlyRetractWhenCrossingOutline,1
;   retractBetweenLayers,1
;   useRetractionMinTravel,1
;   retractionMinTravel,5
;   retractWhileWiping,1
;   onlyWipeOutlines,1
;   avoidCrossingOutline,1
;   maxMovementDetourFactor,5
;   toolChangeRetractionDistance,12
;   toolChangeExtraRestartDistance,-0.5
;   toolChangeRetractionSpeed,600
;   externalThinWallType,0
;   internalThinWallType,2
;   thinWallAllowedOverlapPercentage,10
;   singleExtrusionMinLength,1
;   singleExtrusionMinPrintingWidthPercentage,50
;   singleExtrusionMaxPrintingWidthPercentage,200
;   singleExtrusionEndpointExtension,0.2
;   horizontalSizeCompensation,0
G90
M83
M106 S0
M104 S205 T0
M109 S205 T0
G29 S1		; Load Mesh Bed Levelling
; Clean Nozzle
G90			; Absolute Positioning
G1 Z5 F5000 		; Lift Nozzle
;G1 X65 Y-5
;G1 Z0.45  F200 		; Move Z to Cleaning Height
;G1 X105 E15 F200
G1 X0 Y0.0 Z0.2 F1000.0 ; go outside print area
G92 E0.0
G1 X60.0 E9.0  F1000.0 ; intro line
G1 X100.0 E12.5  F1000.0 ; intro line
;G1 Z5 F300		; Lift Nozzle
;M98 P/macros/Limpieza
G1 E-2.2000 F4800
G1 Z0.500 F1002
; process Process1
; layer 1, Z = 0.200
T0
; tool H0.200 W0.380
; skirt
G1 X45.067 Y9.745 F6000
G1 Z0.200 F1002
G1 E2.2000 F1440
G1 X45.069 Y9.734 E0.0003 F600
G1 X45.196 Y9.175 E0.0172
G1 X45.199 Y9.165 E0.0003
G1 X45.573 Y8.095 E0.0340
G1 X45.578 Y8.085 E0.0003
G1 X45.826 Y7.569 E0.0172
G1 X45.832 Y7.559 E0.0003
G1 X46.434 Y6.600 E0.0340
G1 X46.441 Y6.591 E0.0003
G1 X46.798 Y6.143 E0.0172
G1 X46.805 Y6.135 E0.0003
G1 X47.606 Y5.334 E0.0340
G1 X47.614 Y5.327 E0.0003
G1 X48.062 Y4.969 E0.0172
G1 X48.072 Y4.963 E0.0003
G1 X49.031 Y4.360 E0.0340
G1 X49.041 Y4.355 E0.0003
G1 X49.556 Y4.106 E0.0172
G1 X49.567 Y4.102 E0.0003
G1 X50.636 Y3.728 E0.0340
G1 X50.647 Y3.725 E0.0003
G1 X51.205 Y3.597 E0.0172
G1 X51.216 Y3.595 E0.0003
G1 X52.199 Y3.485 E0.0297
G1 X52.205 Y3.484 E0.0002
G1 X52.491 Y3.468 E0.0086
G1 X52.496 Y3.468 E0.0002
G1 X69.939 Y3.468 E0.5236
G1 X69.941 Y3.468 E0.0001
G1 X70.055 Y3.471 E0.0034
G1 X70.058 Y3.471 E0.0001
G1 X71.394 Y3.531 E0.0402
G1 X71.398 Y3.531 E0.0001
G1 X71.626 Y3.551 E0.0069
G1 X71.631 Y3.552 E0.0001
G1 X73.013 Y3.739 E0.0419
G1 X73.018 Y3.740 E0.0001
G1 X73.243 Y3.781 E0.0069
G1 X73.247 Y3.782 E0.0001
G1 X74.607 Y4.092 E0.0419
G1 X74.611 Y4.093 E0.0001
G1 X74.832 Y4.154 E0.0069
G1 X74.836 Y4.155 E0.0001
G1 X76.163 Y4.586 E0.0419
G1 X76.167 Y4.587 E0.0001
G1 X76.381 Y4.668 E0.0069
G1 X76.386 Y4.669 E0.0001
G1 X77.668 Y5.218 E0.0419
G1 X77.672 Y5.219 E0.0001
G1 X77.879 Y5.319 E0.0069
G1 X77.883 Y5.321 E0.0001
G1 X79.111 Y5.981 E0.0419
G1 X79.115 Y5.984 E0.0001
G1 X79.311 Y6.101 E0.0069
G1 X79.315 Y6.103 E0.0001
G1 X80.479 Y6.871 E0.0419
G1 X80.483 Y6.874 E0.0001
G1 X80.668 Y7.008 E0.0069
G1 X80.672 Y7.011 E0.0001
G1 X81.763 Y7.881 E0.0419
G1 X81.766 Y7.883 E0.0001
G1 X81.939 Y8.034 E0.0069
G1 X81.942 Y8.037 E0.0001
G1 X82.950 Y9.001 E0.0419
G1 X82.953 Y9.004 E0.0001
G1 X83.112 Y9.169 E0.0069
G1 X83.115 Y9.172 E0.0001
G1 X83.995 Y10.180 E0.0402
G1 X83.997 Y10.181 E0.0001
G1 X84.070 Y10.269 E0.0034
G1 X84.071 Y10.271 E0.0001
G1 X90.262 Y18.028 E0.2979
G1 X90.799 Y18.643 E0.0245
G1 X91.305 Y19.126 E0.0210
G1 X91.852 Y19.562 E0.0210
G1 X92.435 Y19.947 E0.0210
G1 X93.051 Y20.278 E0.0210
G1 X93.694 Y20.552 E0.0210
G1 X94.359 Y20.768 E0.0210
G1 X95.040 Y20.924 E0.0210
G1 X95.733 Y21.018 E0.0210
G1 X96.548 Y21.054 E0.0245
G1 X105.799 Y21.054 E0.2777
G1 X106.635 Y21.016 E0.0251
G1 X107.345 Y20.917 E0.0215
G1 X108.043 Y20.754 E0.0215
G1 X108.724 Y20.527 E0.0215
G1 X109.380 Y20.238 E0.0215
G1 X110.007 Y19.891 E0.0215
G1 X110.600 Y19.487 E0.0215
G1 X111.153 Y19.030 E0.0215
G1 X111.660 Y18.526 E0.0215
G1 X112.127 Y17.967 E0.0219
G1 X112.528 Y17.386 E0.0212
G1 X112.885 Y16.751 E0.0219
G1 X113.173 Y16.106 E0.0212
G1 X113.420 Y15.380 E0.0230
G1 X113.894 Y13.526 E0.0575
G1 X113.897 Y13.517 E0.0003
G1 X114.069 Y13.043 E0.0151
G1 X114.073 Y13.034 E0.0003
G1 X114.585 Y11.968 E0.0355
G1 X114.589 Y11.961 E0.0003
G1 X114.817 Y11.576 E0.0134
G1 X114.822 Y11.569 E0.0003
G1 X115.482 Y10.650 E0.0340
G1 X115.487 Y10.643 E0.0003
G1 X115.774 Y10.309 E0.0132
G1 X115.780 Y10.303 E0.0003
G1 X116.585 Y9.513 E0.0339
G1 X116.592 Y9.507 E0.0003
G1 X116.931 Y9.228 E0.0132
G1 X116.938 Y9.223 E0.0003
G1 X117.867 Y8.583 E0.0339
G1 X117.874 Y8.578 E0.0003
G1 X118.256 Y8.361 E0.0132
G1 X118.264 Y8.357 E0.0003
G1 X119.289 Y7.886 E0.0339
G1 X119.297 Y7.882 E0.0003
G1 X119.711 Y7.734 E0.0132
G1 X119.719 Y7.731 E0.0003
G1 X120.810 Y7.443 E0.0339
G1 X120.818 Y7.441 E0.0003
G1 X121.252 Y7.366 E0.0132
G1 X121.260 Y7.364 E0.0003
G1 X122.275 Y7.277 E0.0306
G1 X122.279 Y7.277 E0.0001
G1 X122.498 Y7.267 E0.0066
G1 X122.503 Y7.267 E0.0001
G1 X130.315 Y7.267 E0.2345
G1 X130.319 Y7.267 E0.0001
G1 X130.537 Y7.276 E0.0065
G1 X130.541 Y7.277 E0.0001
G1 X131.546 Y7.363 E0.0303
G1 X131.554 Y7.364 E0.0003
G1 X131.984 Y7.438 E0.0131
G1 X131.992 Y7.439 E0.0003
G1 X133.073 Y7.723 E0.0335
G1 X133.081 Y7.725 E0.0003
G1 X133.492 Y7.871 E0.0131
G1 X133.500 Y7.874 E0.0003
G1 X134.517 Y8.337 E0.0335
G1 X134.524 Y8.340 E0.0003
G1 X134.904 Y8.554 E0.0131
G1 X134.911 Y8.558 E0.0003
G1 X135.835 Y9.187 E0.0335
G1 X135.842 Y9.192 E0.0003
G1 X136.180 Y9.467 E0.0131
G1 X136.186 Y9.473 E0.0003
G1 X136.990 Y10.249 E0.0335
G1 X136.996 Y10.255 E0.0003
G1 X137.282 Y10.583 E0.0131
G1 X137.288 Y10.590 E0.0003
G1 X137.948 Y11.492 E0.0335
G1 X137.952 Y11.499 E0.0003
G1 X138.179 Y11.871 E0.0131
G1 X138.183 Y11.878 E0.0003
G1 X138.680 Y12.879 E0.0335
G1 X138.684 Y12.887 E0.0003
G1 X138.844 Y13.292 E0.0131
G1 X138.846 Y13.300 E0.0003
G1 X139.167 Y14.371 E0.0335
G1 X139.169 Y14.379 E0.0003
G1 X139.257 Y14.805 E0.0131
G1 X139.259 Y14.814 E0.0003
G1 X139.380 Y15.815 E0.0303
G1 X139.380 Y15.819 E0.0001
G1 X139.397 Y16.036 E0.0065
G1 X139.397 Y16.040 E0.0001
G1 X140.385 Y44.621 E0.8584
G1 X140.385 Y44.623 E0.0001
G1 X140.386 Y44.751 E0.0038
G1 X140.386 Y44.753 E0.0001
G1 X140.363 Y46.199 E0.0434
G1 X140.363 Y46.204 E0.0002
G1 X140.346 Y46.459 E0.0077
G1 X140.346 Y46.464 E0.0002
G1 X140.171 Y47.964 E0.0453
G1 X140.171 Y47.969 E0.0002
G1 X140.128 Y48.221 E0.0077
G1 X140.127 Y48.226 E0.0002
G1 X139.803 Y49.700 E0.0453
G1 X139.802 Y49.705 E0.0002
G1 X139.735 Y49.952 E0.0077
G1 X139.733 Y49.957 E0.0002
G1 X139.263 Y51.391 E0.0453
G1 X139.262 Y51.396 E0.0002
G1 X139.170 Y51.635 E0.0077
G1 X139.168 Y51.640 E0.0002
G1 X138.557 Y53.020 E0.0453
G1 X138.554 Y53.024 E0.0002
G1 X138.439 Y53.253 E0.0077
G1 X138.437 Y53.257 E0.0002
G1 X137.690 Y54.569 E0.0453
G1 X137.688 Y54.574 E0.0002
G1 X137.550 Y54.789 E0.0077
G1 X137.547 Y54.794 E0.0002
G1 X136.673 Y56.024 E0.0453
G1 X136.670 Y56.028 E0.0002
G1 X136.512 Y56.229 E0.0077
G1 X136.508 Y56.233 E0.0002
G1 X135.515 Y57.370 E0.0453
G1 X135.512 Y57.374 E0.0002
G1 X135.334 Y57.558 E0.0077
G1 X135.331 Y57.561 E0.0002
G1 X134.229 Y58.593 E0.0453
G1 X134.225 Y58.596 E0.0002
G1 X134.030 Y58.762 E0.0077
G1 X134.026 Y58.765 E0.0002
G1 X132.826 Y59.681 E0.0453
G1 X132.822 Y59.684 E0.0002
G1 X132.611 Y59.829 E0.0077
G1 X132.607 Y59.832 E0.0002
G1 X131.321 Y60.623 E0.0453
G1 X131.317 Y60.625 E0.0002
G1 X131.093 Y60.749 E0.0077
G1 X131.088 Y60.751 E0.0002
G1 X129.730 Y61.409 E0.0453
G1 X129.725 Y61.412 E0.0002
G1 X129.490 Y61.512 E0.0077
G1 X129.485 Y61.513 E0.0002
G1 X128.068 Y62.033 E0.0453
G1 X128.063 Y62.034 E0.0002
G1 X127.818 Y62.110 E0.0077
G1 X127.814 Y62.112 E0.0002
G1 X126.351 Y62.486 E0.0453
G1 X126.346 Y62.487 E0.0002
G1 X126.096 Y62.538 E0.0077
G1 X126.091 Y62.539 E0.0002
G1 X124.598 Y62.766 E0.0453
G1 X124.593 Y62.766 E0.0002
G1 X124.339 Y62.792 E0.0077
G1 X124.334 Y62.792 E0.0002
G1 X122.890 Y62.865 E0.0434
G1 X122.887 Y62.865 E0.0001
G1 X122.760 Y62.868 E0.0038
G1 X122.757 Y62.868 E0.0001
G1 X90.902 Y62.868 E0.9562
G1 X90.900 Y62.868 E0.0001
G1 X90.776 Y62.865 E0.0037
G1 X90.773 Y62.865 E0.0001
G1 X89.324 Y62.794 E0.0435
G1 X89.320 Y62.794 E0.0001
G1 X89.073 Y62.770 E0.0074
G1 X89.068 Y62.769 E0.0001
G1 X87.571 Y62.549 E0.0454
G1 X87.566 Y62.548 E0.0001
G1 X87.323 Y62.500 E0.0074
G1 X87.318 Y62.499 E0.0001
G1 X85.850 Y62.135 E0.0454
G1 X85.845 Y62.134 E0.0001
G1 X85.608 Y62.062 E0.0074
G1 X85.603 Y62.061 E0.0001
G1 X84.177 Y61.556 E0.0454
G1 X84.173 Y61.554 E0.0001
G1 X83.943 Y61.460 E0.0074
G1 X83.939 Y61.458 E0.0001
G1 X82.569 Y60.816 E0.0454
G1 X82.565 Y60.814 E0.0001
G1 X82.345 Y60.698 E0.0074
G1 X82.341 Y60.696 E0.0001
G1 X81.040 Y59.925 E0.0454
G1 X81.036 Y59.922 E0.0001
G1 X80.829 Y59.785 E0.0074
G1 X80.825 Y59.782 E0.0001
G1 X79.605 Y58.888 E0.0454
G1 X79.601 Y58.885 E0.0001
G1 X79.408 Y58.729 E0.0075
G1 X79.404 Y58.726 E0.0001
G1 X78.323 Y57.759 E0.0435
G1 X78.321 Y57.757 E0.0001
G1 X78.231 Y57.672 E0.0037
G1 X78.229 Y57.671 E0.0001
G1 X47.608 Y27.475 E1.2909
G1 X47.605 Y27.472 E0.0001
G1 X47.467 Y27.324 E0.0061
G1 X47.464 Y27.321 E0.0001
G1 X46.851 Y26.613 E0.0281
G1 X46.847 Y26.607 E0.0002
G1 X46.607 Y26.281 E0.0121
G1 X46.603 Y26.274 E0.0002
G1 X46.056 Y25.392 E0.0311
G1 X46.052 Y25.386 E0.0002
G1 X45.867 Y25.026 E0.0121
G1 X45.864 Y25.019 E0.0002
G1 X45.463 Y24.062 E0.0311
G1 X45.461 Y24.054 E0.0002
G1 X45.335 Y23.670 E0.0121
G1 X45.332 Y23.662 E0.0002
G1 X45.088 Y22.654 E0.0311
G1 X45.087 Y22.646 E0.0002
G1 X45.023 Y22.247 E0.0121
G1 X45.022 Y22.239 E0.0002
G1 X44.948 Y21.306 E0.0281
G1 X44.947 Y21.302 E0.0001
G1 X44.939 Y21.100 E0.0061
G1 X44.939 Y21.096 E0.0001
G1 X44.939 Y11.025 E0.3023
G1 X44.939 Y11.019 E0.0002
G1 X44.956 Y10.734 E0.0086
G1 X44.956 Y10.728 E0.0002
G1 X45.033 Y10.043 E0.0207
G1 X45.067 Y9.745 F600
G1 E-2.2000 F4800
G1 Z0.500 F1002
; inner perimeter
G1 X50.385 Y10.653 F6000
G1 X50.382 Y10.673 F6000
G1 X50.761 Y10.739 F6000
G1 Z0.200 F1002
G1 E2.2000 F4800
G1 X50.904 Y10.332 E0.0129 F420
G1 X51.133 Y9.967 E0.0129
G1 X51.438 Y9.662 E0.0130
G1 X51.803 Y9.432 E0.0129
G1 X52.211 Y9.290 E0.0130
G1 X52.671 Y9.238 E0.0139
G1 X69.869 Y9.238 E0.5162
G1 X70.995 Y9.289 E0.0338
G1 X72.100 Y9.438 E0.0335
G1 X73.187 Y9.686 E0.0335
G1 X74.247 Y10.031 E0.0335
G1 X75.273 Y10.469 E0.0335
G1 X76.254 Y10.997 E0.0335
G1 X77.185 Y11.611 E0.0335
G1 X78.057 Y12.305 E0.0335
G1 X78.863 Y13.076 E0.0335
G1 X79.605 Y13.925 E0.0339
G1 X85.833 Y21.729 E0.2997
G1 X86.626 Y22.636 E0.0362
G1 X87.506 Y23.476 E0.0365
G1 X88.458 Y24.235 E0.0365
G1 X89.474 Y24.905 E0.0365
G1 X90.546 Y25.482 E0.0365
G1 X91.665 Y25.960 E0.0365
G1 X92.823 Y26.336 E0.0365
G1 X94.010 Y26.607 E0.0365
G1 X95.216 Y26.770 E0.0365
G1 X96.419 Y26.824 E0.0362
G1 X105.932 Y26.824 E0.2856
G1 X107.166 Y26.767 E0.0371
G1 X108.402 Y26.596 E0.0375
G1 X109.618 Y26.311 E0.0375
G1 X110.802 Y25.916 E0.0375
G1 X111.945 Y25.413 E0.0375
G1 X113.037 Y24.808 E0.0375
G1 X114.069 Y24.105 E0.0375
G1 X115.031 Y23.310 E0.0375
G1 X115.917 Y22.430 E0.0375
G1 X116.725 Y21.463 E0.0378
G1 X117.428 Y20.445 E0.0371
G1 X118.045 Y19.346 E0.0378
G1 X118.550 Y18.216 E0.0372
G1 X118.956 Y17.023 E0.0378
